(Exported by FreeCAD)
(Post Processor: linuxcnc_post)
(Output Time:2023-05-25 23:59:36.516294)
(begin preamble)
G17 G54 G40 G49 G80 G90
G21
(begin operation: G59)
(machine units: mm/min)
G59 
G0 Z5.000 
(finish operation: G59)
(begin operation: kukuruza-1.7-7-3.176)
(machine units: mm/min)
(kukuruza-1.7-7-3.176) 
M5
M6 T2 
G43 H2 
M3 S1000 
(finish operation: kukuruza-1.7-7-3.176)
(begin operation: Отверстия)
(machine units: mm/min)
(Отверстия) 
(Compensated Tool Path. Diameter: 1.7) 
G0 Z5.000 
G0 X-4.190 Y55.810 
G0 Z3.000 
G1 X-4.190 Y55.810 Z-0.500 F12000.000 
G2 X-4.561 Y53.941 Z-0.500 I-0.810 J-0.810 F12000.000 
G2 X-5.439 Y56.059 Z-0.500 I-0.439 J1.059 F12000.000 
G2 X-4.190 Y55.810 Z-0.500 I0.439 J-1.059 F12000.000 
G0 Z5.000 
G0 X-23.855 Y55.045 Z5.000 
G0 X-23.855 Y55.045 Z3.000 
G1 X-23.855 Y55.045 Z-0.500 F12000.000 
G2 X-24.561 Y53.941 Z-0.500 I-1.145 J-0.045 F12000.000 
G2 X-25.439 Y56.059 Z-0.500 I-0.439 J1.059 F12000.000 
G2 X-23.855 Y55.045 Z-0.500 I0.439 J-1.059 F12000.000 
G0 Z5.000 
G0 X-24.948 Y31.145 Z5.000 
G0 X-24.948 Y31.145 Z3.000 
G1 X-24.948 Y31.145 Z-0.500 F12000.000 
G2 X-24.561 Y28.941 Z-0.500 I-0.052 J-1.145 F12000.000 
G2 X-26.059 Y29.561 Z-0.500 I-0.439 J1.059 F12000.000 
G2 X-25.439 Y31.059 Z-0.500 I1.059 J0.439 F12000.000 
G2 X-24.948 Y31.145 Z-0.500 I0.439 J-1.059 F12000.000 
G0 Z5.000 
G0 X-6.144 Y30.066 Z5.000 
G0 X-6.144 Y30.066 Z3.000 
G1 X-6.144 Y30.066 Z-0.500 F12000.000 
G2 X-5.439 Y31.059 Z-0.500 I1.144 J-0.066 F12000.000 
G2 X-3.941 Y30.439 Z-0.500 I0.439 J-1.059 F12000.000 
G2 X-4.561 Y28.941 Z-0.500 I-1.059 J-0.439 F12000.000 
G2 X-6.144 Y30.066 Z-0.500 I-0.439 J1.059 F12000.000 
G0 Z5.000 
G0 X-7.411 Y6.644 Z5.000 
G0 X-7.411 Y6.644 Z3.000 
G1 X-7.411 Y6.644 Z-0.500 F12000.000 
G2 X-6.937 Y3.453 Z-0.500 I-0.089 J-1.644 F12000.000 
G2 X-8.063 Y6.547 Z-0.500 I-0.563 J1.547 F12000.000 
G2 X-7.411 Y6.644 Z-0.500 I0.563 J-1.547 F12000.000 
G0 Z5.000 
G0 X-20.863 Y5.178 Z5.000 
G0 X-20.863 Y5.178 Z3.000 
G1 X-20.863 Y5.178 Z-0.500 F12000.000 
G2 X-21.937 Y3.453 Z-0.500 I-1.637 J-0.178 F12000.000 
G2 X-23.063 Y6.547 Z-0.500 I-0.563 J1.547 F12000.000 
G2 X-20.863 Y5.178 Z-0.500 I0.563 J-1.547 F12000.000 
G1 X-20.863 Y5.178 Z-1.000 F12000.000 
G2 X-21.937 Y3.453 Z-1.000 I-1.637 J-0.178 F12000.000 
G2 X-23.063 Y6.547 Z-1.000 I-0.563 J1.547 F12000.000 
G2 X-20.863 Y5.178 Z-1.000 I0.563 J-1.547 F12000.000 
G0 Z5.000 
G0 X-9.147 Y5.022 Z5.000 
G0 X-9.147 Y5.022 Z3.000 
G1 X-9.147 Y5.022 Z-1.000 F12000.000 
G2 X-8.063 Y6.547 Z-1.000 I1.647 J-0.022 F12000.000 
G2 X-6.937 Y3.453 Z-1.000 I0.563 J-1.547 F12000.000 
G2 X-9.147 Y5.022 Z-1.000 I-0.563 J1.547 F12000.000 
G0 Z5.000 
G0 X-5.188 Y28.870 Z5.000 
G0 X-5.188 Y28.870 Z3.000 
G1 X-5.188 Y28.870 Z-1.000 F12000.000 
G2 X-5.439 Y31.059 Z-1.000 I0.188 J1.130 F12000.000 
G2 X-3.941 Y30.439 Z-1.000 I0.439 J-1.059 F12000.000 
G2 X-4.561 Y28.941 Z-1.000 I-1.059 J-0.439 F12000.000 
G2 X-5.188 Y28.870 Z-1.000 I-0.439 J1.059 F12000.000 
G0 Z5.000 
G0 X-23.856 Y29.935 Z5.000 
G0 X-23.856 Y29.935 Z3.000 
G1 X-23.856 Y29.935 Z-1.000 F12000.000 
G2 X-24.561 Y28.941 Z-1.000 I-1.144 J0.065 F12000.000 
G2 X-26.059 Y29.561 Z-1.000 I-0.439 J1.059 F12000.000 
G2 X-25.439 Y31.059 Z-1.000 I1.059 J0.439 F12000.000 
G2 X-23.856 Y29.935 Z-1.000 I0.439 J-1.059 F12000.000 
G0 Z5.000 
G0 X-24.948 Y53.855 Z5.000 
G0 X-24.948 Y53.855 Z3.000 
G1 X-24.948 Y53.855 Z-1.000 F12000.000 
G2 X-25.439 Y56.059 Z-1.000 I-0.052 J1.145 F12000.000 
G2 X-24.561 Y53.941 Z-1.000 I0.439 J-1.059 F12000.000 
G2 X-24.948 Y53.855 Z-1.000 I-0.439 J1.059 F12000.000 
G0 Z5.000 
G0 X-6.144 Y54.934 Z5.000 
G0 X-6.144 Y54.934 Z3.000 
G1 X-6.144 Y54.934 Z-1.000 F12000.000 
G2 X-5.439 Y56.059 Z-1.000 I1.144 J0.066 F12000.000 
G2 X-3.941 Y55.439 Z-1.000 I0.439 J-1.059 F12000.000 
G2 X-4.561 Y53.941 Z-1.000 I-1.059 J-0.439 F12000.000 
G2 X-6.144 Y54.934 Z-1.000 I-0.439 J1.059 F12000.000 
G1 X-6.144 Y54.934 Z-1.500 F12000.000 
G2 X-5.439 Y56.059 Z-1.500 I1.144 J0.066 F12000.000 
G2 X-3.941 Y55.439 Z-1.500 I0.439 J-1.059 F12000.000 
G2 X-4.561 Y53.941 Z-1.500 I-1.059 J-0.439 F12000.000 
G2 X-6.144 Y54.934 Z-1.500 I-0.439 J1.059 F12000.000 
G0 Z5.000 
G0 X-23.854 Y54.996 Z5.000 
G0 X-23.854 Y54.996 Z3.000 
G1 X-23.854 Y54.996 Z-1.500 F12000.000 
G2 X-24.561 Y53.941 Z-1.500 I-1.146 J0.004 F12000.000 
G2 X-25.439 Y56.059 Z-1.500 I-0.439 J1.059 F12000.000 
G2 X-23.854 Y54.996 Z-1.500 I0.439 J-1.059 F12000.000 
G0 Z5.000 
G0 X-24.948 Y31.145 Z5.000 
G0 X-24.948 Y31.145 Z3.000 
G1 X-24.948 Y31.145 Z-1.500 F12000.000 
G2 X-24.561 Y28.941 Z-1.500 I-0.052 J-1.145 F12000.000 
G2 X-26.059 Y29.561 Z-1.500 I-0.439 J1.059 F12000.000 
G2 X-25.439 Y31.059 Z-1.500 I1.059 J0.439 F12000.000 
G2 X-24.948 Y31.145 Z-1.500 I0.439 J-1.059 F12000.000 
G0 Z5.000 
G0 X-6.144 Y30.066 Z5.000 
G0 X-6.144 Y30.066 Z3.000 
G1 X-6.144 Y30.066 Z-1.500 F12000.000 
G2 X-5.439 Y31.059 Z-1.500 I1.144 J-0.066 F12000.000 
G2 X-3.941 Y30.439 Z-1.500 I0.439 J-1.059 F12000.000 
G2 X-4.561 Y28.941 Z-1.500 I-1.059 J-0.439 F12000.000 
G2 X-6.144 Y30.066 Z-1.500 I-0.439 J1.059 F12000.000 
G0 Z5.000 
G0 X-7.411 Y6.644 Z5.000 
G0 X-7.411 Y6.644 Z3.000 
G1 X-7.411 Y6.644 Z-1.500 F12000.000 
G2 X-6.937 Y3.453 Z-1.500 I-0.089 J-1.644 F12000.000 
G2 X-8.063 Y6.547 Z-1.500 I-0.563 J1.547 F12000.000 
G2 X-7.411 Y6.644 Z-1.500 I0.563 J-1.547 F12000.000 
G0 Z5.000 
G0 X-20.863 Y5.178 Z5.000 
G0 X-20.863 Y5.178 Z3.000 
G1 X-20.863 Y5.178 Z-1.500 F12000.000 
G2 X-21.937 Y3.453 Z-1.500 I-1.637 J-0.178 F12000.000 
G2 X-23.063 Y6.547 Z-1.500 I-0.563 J1.547 F12000.000 
G2 X-20.863 Y5.178 Z-1.500 I0.563 J-1.547 F12000.000 
G1 X-20.863 Y5.178 Z-2.000 F12000.000 
G2 X-21.937 Y3.453 Z-2.000 I-1.637 J-0.178 F12000.000 
G2 X-23.063 Y6.547 Z-2.000 I-0.563 J1.547 F12000.000 
G2 X-20.863 Y5.178 Z-2.000 I0.563 J-1.547 F12000.000 
G0 Z5.000 
G0 X-9.147 Y5.022 Z5.000 
G0 X-9.147 Y5.022 Z3.000 
G1 X-9.147 Y5.022 Z-2.000 F12000.000 
G2 X-8.063 Y6.547 Z-2.000 I1.647 J-0.022 F12000.000 
G2 X-6.937 Y3.453 Z-2.000 I0.563 J-1.547 F12000.000 
G2 X-9.147 Y5.022 Z-2.000 I-0.563 J1.547 F12000.000 
G0 Z5.000 
G0 X-5.188 Y28.870 Z5.000 
G0 X-5.188 Y28.870 Z3.000 
G1 X-5.188 Y28.870 Z-2.000 F12000.000 
G2 X-5.439 Y31.059 Z-2.000 I0.188 J1.130 F12000.000 
G2 X-3.941 Y30.439 Z-2.000 I0.439 J-1.059 F12000.000 
G2 X-4.561 Y28.941 Z-2.000 I-1.059 J-0.439 F12000.000 
G2 X-5.188 Y28.870 Z-2.000 I-0.439 J1.059 F12000.000 
G0 Z5.000 
G0 X-23.856 Y29.935 Z5.000 
G0 X-23.856 Y29.935 Z3.000 
G1 X-23.856 Y29.935 Z-2.000 F12000.000 
G2 X-24.561 Y28.941 Z-2.000 I-1.144 J0.065 F12000.000 
G2 X-26.059 Y29.561 Z-2.000 I-0.439 J1.059 F12000.000 
G2 X-25.439 Y31.059 Z-2.000 I1.059 J0.439 F12000.000 
G2 X-23.856 Y29.935 Z-2.000 I0.439 J-1.059 F12000.000 
G0 Z5.000 
G0 X-24.948 Y53.855 Z5.000 
G0 X-24.948 Y53.855 Z3.000 
G1 X-24.948 Y53.855 Z-2.000 F12000.000 
G2 X-25.439 Y56.059 Z-2.000 I-0.052 J1.145 F12000.000 
G2 X-24.561 Y53.941 Z-2.000 I0.439 J-1.059 F12000.000 
G2 X-24.948 Y53.855 Z-2.000 I-0.439 J1.059 F12000.000 
G0 Z5.000 
G0 X-6.144 Y54.934 Z5.000 
G0 X-6.144 Y54.934 Z3.000 
G1 X-6.144 Y54.934 Z-2.000 F12000.000 
G2 X-5.439 Y56.059 Z-2.000 I1.144 J0.066 F12000.000 
G2 X-3.941 Y55.439 Z-2.000 I0.439 J-1.059 F12000.000 
G2 X-4.561 Y53.941 Z-2.000 I-1.059 J-0.439 F12000.000 
G2 X-6.144 Y54.934 Z-2.000 I-0.439 J1.059 F12000.000 
G1 X-6.144 Y54.934 Z-2.500 F12000.000 
G2 X-5.439 Y56.059 Z-2.500 I1.144 J0.066 F12000.000 
G2 X-3.941 Y55.439 Z-2.500 I0.439 J-1.059 F12000.000 
G2 X-4.561 Y53.941 Z-2.500 I-1.059 J-0.439 F12000.000 
G2 X-6.144 Y54.934 Z-2.500 I-0.439 J1.059 F12000.000 
G0 Z5.000 
G0 X-23.854 Y54.996 Z5.000 
G0 X-23.854 Y54.996 Z3.000 
G1 X-23.854 Y54.996 Z-2.500 F12000.000 
G2 X-24.561 Y53.941 Z-2.500 I-1.146 J0.004 F12000.000 
G2 X-25.439 Y56.059 Z-2.500 I-0.439 J1.059 F12000.000 
G2 X-23.854 Y54.996 Z-2.500 I0.439 J-1.059 F12000.000 
G0 Z5.000 
G0 X-24.948 Y31.145 Z5.000 
G0 X-24.948 Y31.145 Z3.000 
G1 X-24.948 Y31.145 Z-2.500 F12000.000 
G2 X-24.561 Y28.941 Z-2.500 I-0.052 J-1.145 F12000.000 
G2 X-26.059 Y29.561 Z-2.500 I-0.439 J1.059 F12000.000 
G2 X-25.439 Y31.059 Z-2.500 I1.059 J0.439 F12000.000 
G2 X-24.948 Y31.145 Z-2.500 I0.439 J-1.059 F12000.000 
G0 Z5.000 
G0 X-6.144 Y30.066 Z5.000 
G0 X-6.144 Y30.066 Z3.000 
G1 X-6.144 Y30.066 Z-2.500 F12000.000 
G2 X-5.439 Y31.059 Z-2.500 I1.144 J-0.066 F12000.000 
G2 X-3.941 Y30.439 Z-2.500 I0.439 J-1.059 F12000.000 
G2 X-4.561 Y28.941 Z-2.500 I-1.059 J-0.439 F12000.000 
G2 X-6.144 Y30.066 Z-2.500 I-0.439 J1.059 F12000.000 
G0 Z5.000 
G0 X-7.411 Y6.644 Z5.000 
G0 X-7.411 Y6.644 Z3.000 
G1 X-7.411 Y6.644 Z-2.500 F12000.000 
G2 X-6.937 Y3.453 Z-2.500 I-0.089 J-1.644 F12000.000 
G2 X-8.063 Y6.547 Z-2.500 I-0.563 J1.547 F12000.000 
G2 X-7.411 Y6.644 Z-2.500 I0.563 J-1.547 F12000.000 
G0 Z5.000 
G0 X-20.863 Y5.178 Z5.000 
G0 X-20.863 Y5.178 Z3.000 
G1 X-20.863 Y5.178 Z-2.500 F12000.000 
G2 X-21.937 Y3.453 Z-2.500 I-1.637 J-0.178 F12000.000 
G2 X-23.063 Y6.547 Z-2.500 I-0.563 J1.547 F12000.000 
G2 X-20.863 Y5.178 Z-2.500 I0.563 J-1.547 F12000.000 
G1 X-20.863 Y5.178 Z-3.000 F12000.000 
G2 X-21.937 Y3.453 Z-3.000 I-1.637 J-0.178 F12000.000 
G2 X-23.063 Y6.547 Z-3.000 I-0.563 J1.547 F12000.000 
G2 X-20.863 Y5.178 Z-3.000 I0.563 J-1.547 F12000.000 
G0 Z5.000 
G0 X-9.147 Y5.022 Z5.000 
G0 X-9.147 Y5.022 Z3.000 
G1 X-9.147 Y5.022 Z-3.000 F12000.000 
G2 X-8.063 Y6.547 Z-3.000 I1.647 J-0.022 F12000.000 
G2 X-6.937 Y3.453 Z-3.000 I0.563 J-1.547 F12000.000 
G2 X-9.147 Y5.022 Z-3.000 I-0.563 J1.547 F12000.000 
G0 Z5.000 
G0 X-5.188 Y28.870 Z5.000 
G0 X-5.188 Y28.870 Z3.000 
G1 X-5.188 Y28.870 Z-3.000 F12000.000 
G2 X-5.439 Y31.059 Z-3.000 I0.188 J1.130 F12000.000 
G2 X-3.941 Y30.439 Z-3.000 I0.439 J-1.059 F12000.000 
G2 X-4.561 Y28.941 Z-3.000 I-1.059 J-0.439 F12000.000 
G2 X-5.188 Y28.870 Z-3.000 I-0.439 J1.059 F12000.000 
G0 Z5.000 
G0 X-23.856 Y29.935 Z5.000 
G0 X-23.856 Y29.935 Z3.000 
G1 X-23.856 Y29.935 Z-3.000 F12000.000 
G2 X-24.561 Y28.941 Z-3.000 I-1.144 J0.065 F12000.000 
G2 X-26.059 Y29.561 Z-3.000 I-0.439 J1.059 F12000.000 
G2 X-25.439 Y31.059 Z-3.000 I1.059 J0.439 F12000.000 
G2 X-23.856 Y29.935 Z-3.000 I0.439 J-1.059 F12000.000 
G0 Z5.000 
G0 X-24.948 Y53.855 Z5.000 
G0 X-24.948 Y53.855 Z3.000 
G1 X-24.948 Y53.855 Z-3.000 F12000.000 
G2 X-25.439 Y56.059 Z-3.000 I-0.052 J1.145 F12000.000 
G2 X-24.561 Y53.941 Z-3.000 I0.439 J-1.059 F12000.000 
G2 X-24.948 Y53.855 Z-3.000 I-0.439 J1.059 F12000.000 
G0 Z5.000 
G0 X-6.144 Y54.934 Z5.000 
G0 X-6.144 Y54.934 Z3.000 
G1 X-6.144 Y54.934 Z-3.000 F12000.000 
G2 X-5.439 Y56.059 Z-3.000 I1.144 J0.066 F12000.000 
G2 X-3.941 Y55.439 Z-3.000 I0.439 J-1.059 F12000.000 
G2 X-4.561 Y53.941 Z-3.000 I-1.059 J-0.439 F12000.000 
G2 X-6.144 Y54.934 Z-3.000 I-0.439 J1.059 F12000.000 
G0 Z5.000 
G0 Z5.000 
(finish operation: Отверстия)
(begin operation: Контур)
(machine units: mm/min)
(Контур) 
(Compensated Tool Path. Diameter: 1.7) 
G0 Z5.000 
G0 X0.601 Y60.601 
G0 Z3.000 
G1 X0.601 Y60.601 Z-0.500 F12000.000 
G2 X0.850 Y60.000 Z-0.500 I-0.601 J-0.601 F12000.000 
G1 X0.850 Y0.000 Z-0.500 F12000.000 
G2 X0.000 Y-0.850 Z-0.500 I-0.850 J0.000 F12000.000 
G1 X-30.000 Y-0.850 Z-0.500 F12000.000 
G2 X-30.850 Y0.000 Z-0.500 I0.000 J0.850 F12000.000 
G1 X-30.850 Y60.000 Z-0.500 F12000.000 
G2 X-30.000 Y60.850 Z-0.500 I0.850 J0.000 F12000.000 
G1 X0.000 Y60.850 Z-0.500 F12000.000 
G2 X0.601 Y60.601 Z-0.500 I0.000 J-0.850 F12000.000 
G1 X0.601 Y60.601 Z-1.000 F12000.000 
G2 X0.850 Y60.000 Z-1.000 I-0.601 J-0.601 F12000.000 
G1 X0.850 Y0.000 Z-1.000 F12000.000 
G2 X0.000 Y-0.850 Z-1.000 I-0.850 J0.000 F12000.000 
G1 X-30.000 Y-0.850 Z-1.000 F12000.000 
G2 X-30.850 Y0.000 Z-1.000 I0.000 J0.850 F12000.000 
G1 X-30.850 Y60.000 Z-1.000 F12000.000 
G2 X-30.000 Y60.850 Z-1.000 I0.850 J0.000 F12000.000 
G1 X0.000 Y60.850 Z-1.000 F12000.000 
G2 X0.601 Y60.601 Z-1.000 I0.000 J-0.850 F12000.000 
G1 X0.601 Y60.601 Z-1.500 F12000.000 
G2 X0.850 Y60.000 Z-1.500 I-0.601 J-0.601 F12000.000 
G1 X0.850 Y0.000 Z-1.500 F12000.000 
G2 X0.000 Y-0.850 Z-1.500 I-0.850 J0.000 F12000.000 
G1 X-30.000 Y-0.850 Z-1.500 F12000.000 
G2 X-30.850 Y0.000 Z-1.500 I0.000 J0.850 F12000.000 
G1 X-30.850 Y60.000 Z-1.500 F12000.000 
G2 X-30.000 Y60.850 Z-1.500 I0.850 J0.000 F12000.000 
G1 X0.000 Y60.850 Z-1.500 F12000.000 
G2 X0.601 Y60.601 Z-1.500 I0.000 J-0.850 F12000.000 
G1 X0.601 Y60.601 Z-2.000 F12000.000 
G2 X0.850 Y60.000 Z-2.000 I-0.601 J-0.601 F12000.000 
G1 X0.850 Y0.000 Z-2.000 F12000.000 
G2 X0.000 Y-0.850 Z-2.000 I-0.850 J0.000 F12000.000 
G1 X-30.000 Y-0.850 Z-2.000 F12000.000 
G2 X-30.850 Y0.000 Z-2.000 I0.000 J0.850 F12000.000 
G1 X-30.850 Y60.000 Z-2.000 F12000.000 
G2 X-30.000 Y60.850 Z-2.000 I0.850 J0.000 F12000.000 
G1 X0.000 Y60.850 Z-2.000 F12000.000 
G2 X0.601 Y60.601 Z-2.000 I0.000 J-0.850 F12000.000 
G1 X0.601 Y60.601 Z-2.500 F12000.000 
G2 X0.850 Y60.000 Z-2.500 I-0.601 J-0.601 F12000.000 
G1 X0.850 Y0.000 Z-2.500 F12000.000 
G2 X0.000 Y-0.850 Z-2.500 I-0.850 J0.000 F12000.000 
G1 X-30.000 Y-0.850 Z-2.500 F12000.000 
G2 X-30.850 Y0.000 Z-2.500 I0.000 J0.850 F12000.000 
G1 X-30.850 Y60.000 Z-2.500 F12000.000 
G2 X-30.000 Y60.850 Z-2.500 I0.850 J0.000 F12000.000 
G1 X0.000 Y60.850 Z-2.500 F12000.000 
G2 X0.601 Y60.601 Z-2.500 I0.000 J-0.850 F12000.000 
G1 X0.601 Y60.601 Z-3.000 F12000.000 
G2 X0.850 Y60.000 Z-3.000 I-0.601 J-0.601 F12000.000 
G1 X0.850 Y0.000 Z-3.000 F12000.000 
G2 X0.000 Y-0.850 Z-3.000 I-0.850 J0.000 F12000.000 
G1 X-30.000 Y-0.850 Z-3.000 F12000.000 
G2 X-30.850 Y0.000 Z-3.000 I0.000 J0.850 F12000.000 
G1 X-30.850 Y60.000 Z-3.000 F12000.000 
G2 X-30.000 Y60.850 Z-3.000 I0.850 J0.000 F12000.000 
G1 X0.000 Y60.850 Z-3.000 F12000.000 
G2 X0.601 Y60.601 Z-3.000 I0.000 J-0.850 F12000.000 
G0 Z5.000 
G0 Z5.000 
(finish operation: Контур)
(begin postamble)
M05
G17 G54 G90 G80 G40
M2
