(Exported by FreeCAD)
(Post Processor: grbl_post)
(Output Time:2023-06-28 00:45:40.941449)
(Begin preamble)
G17 G90
G21
(Begin operation: G59)
(Path: G59)
G59
G0 Z5.000
(Finish operation: G59)
(Begin operation: hole001)
(Path: hole001)
(hole001)
(Compensated Tool Path. Diameter: 1.7)
G0 Z5.000
G0 X-6.336 Y6.164
G0 Z3.000
G1 X-6.336 Y6.164 Z-0.500 F200.000
G2 X-6.937 Y3.453 Z-0.500 I-1.164 J-1.164 K0.000 F100.000
G2 X-9.047 Y4.437 Z-0.500 I-0.563 J1.547 K0.000 F100.000
G2 X-8.063 Y6.547 Z-0.500 I1.547 J0.563 K0.000 F100.000
G2 X-6.336 Y6.164 Z-0.500 I0.563 J-1.547 K0.000 F100.000
G1 X-6.336 Y6.164 Z-1.000 F200.000
G2 X-6.937 Y3.453 Z-1.000 I-1.164 J-1.164 K0.000 F100.000
G2 X-9.047 Y4.437 Z-1.000 I-0.563 J1.547 K0.000 F100.000
G2 X-8.063 Y6.547 Z-1.000 I1.547 J0.563 K0.000 F100.000
G2 X-6.336 Y6.164 Z-1.000 I0.563 J-1.547 K0.000 F100.000
G1 X-6.336 Y6.164 Z-1.500 F200.000
G2 X-6.937 Y3.453 Z-1.500 I-1.164 J-1.164 K0.000 F100.000
G2 X-9.047 Y4.437 Z-1.500 I-0.563 J1.547 K0.000 F100.000
G2 X-8.063 Y6.547 Z-1.500 I1.547 J0.563 K0.000 F100.000
G2 X-6.336 Y6.164 Z-1.500 I0.563 J-1.547 K0.000 F100.000
G1 X-6.336 Y6.164 Z-2.000 F200.000
G2 X-6.937 Y3.453 Z-2.000 I-1.164 J-1.164 K0.000 F100.000
G2 X-9.047 Y4.437 Z-2.000 I-0.563 J1.547 K0.000 F100.000
G2 X-8.063 Y6.547 Z-2.000 I1.547 J0.563 K0.000 F100.000
G2 X-6.336 Y6.164 Z-2.000 I0.563 J-1.547 K0.000 F100.000
G1 X-6.336 Y6.164 Z-2.500 F200.000
G2 X-6.937 Y3.453 Z-2.500 I-1.164 J-1.164 K0.000 F100.000
G2 X-9.047 Y4.437 Z-2.500 I-0.563 J1.547 K0.000 F100.000
G2 X-8.063 Y6.547 Z-2.500 I1.547 J0.563 K0.000 F100.000
G2 X-6.336 Y6.164 Z-2.500 I0.563 J-1.547 K0.000 F100.000
G1 X-6.336 Y6.164 Z-3.000 F200.000
G2 X-6.937 Y3.453 Z-3.000 I-1.164 J-1.164 K0.000 F100.000
G2 X-9.047 Y4.437 Z-3.000 I-0.563 J1.547 K0.000 F100.000
G2 X-8.063 Y6.547 Z-3.000 I1.547 J0.563 K0.000 F100.000
G2 X-6.336 Y6.164 Z-3.000 I0.563 J-1.547 K0.000 F100.000
G0 Z5.000
G0 Z5.000
(Finish operation: hole001)
(Begin operation: hole002)
(Path: hole002)
(hole002)
(Compensated Tool Path. Diameter: 1.7)
G0 Z5.000
G0 X-21.336 Y6.164
G0 Z3.000
G1 X-21.336 Y6.164 Z-0.500 F200.000
G2 X-21.937 Y3.453 Z-0.500 I-1.164 J-1.164 K0.000 F100.000
G2 X-24.047 Y4.437 Z-0.500 I-0.563 J1.547 K0.000 F100.000
G2 X-23.063 Y6.547 Z-0.500 I1.547 J0.563 K0.000 F100.000
G2 X-21.336 Y6.164 Z-0.500 I0.563 J-1.547 K0.000 F100.000
G1 X-21.336 Y6.164 Z-1.000 F200.000
G2 X-21.937 Y3.453 Z-1.000 I-1.164 J-1.164 K0.000 F100.000
G2 X-24.047 Y4.437 Z-1.000 I-0.563 J1.547 K0.000 F100.000
G2 X-23.063 Y6.547 Z-1.000 I1.547 J0.563 K0.000 F100.000
G2 X-21.336 Y6.164 Z-1.000 I0.563 J-1.547 K0.000 F100.000
G1 X-21.336 Y6.164 Z-1.500 F200.000
G2 X-21.937 Y3.453 Z-1.500 I-1.164 J-1.164 K0.000 F100.000
G2 X-24.047 Y4.437 Z-1.500 I-0.563 J1.547 K0.000 F100.000
G2 X-23.063 Y6.547 Z-1.500 I1.547 J0.563 K0.000 F100.000
G2 X-21.336 Y6.164 Z-1.500 I0.563 J-1.547 K0.000 F100.000
G1 X-21.336 Y6.164 Z-2.000 F200.000
G2 X-21.937 Y3.453 Z-2.000 I-1.164 J-1.164 K0.000 F100.000
G2 X-24.047 Y4.437 Z-2.000 I-0.563 J1.547 K0.000 F100.000
G2 X-23.063 Y6.547 Z-2.000 I1.547 J0.563 K0.000 F100.000
G2 X-21.336 Y6.164 Z-2.000 I0.563 J-1.547 K0.000 F100.000
G1 X-21.336 Y6.164 Z-2.500 F200.000
G2 X-21.937 Y3.453 Z-2.500 I-1.164 J-1.164 K0.000 F100.000
G2 X-24.047 Y4.437 Z-2.500 I-0.563 J1.547 K0.000 F100.000
G2 X-23.063 Y6.547 Z-2.500 I1.547 J0.563 K0.000 F100.000
G2 X-21.336 Y6.164 Z-2.500 I0.563 J-1.547 K0.000 F100.000
G1 X-21.336 Y6.164 Z-3.000 F200.000
G2 X-21.937 Y3.453 Z-3.000 I-1.164 J-1.164 K0.000 F100.000
G2 X-24.047 Y4.437 Z-3.000 I-0.563 J1.547 K0.000 F100.000
G2 X-23.063 Y6.547 Z-3.000 I1.547 J0.563 K0.000 F100.000
G2 X-21.336 Y6.164 Z-3.000 I0.563 J-1.547 K0.000 F100.000
G0 Z5.000
G0 Z5.000
(Finish operation: hole002)
(Begin operation: hole003)
(Path: hole003)
(hole003)
(Compensated Tool Path. Diameter: 1.7)
G0 Z5.000
G0 X-9.190 Y30.810
G0 Z3.000
G1 X-9.190 Y30.810 Z-0.500 F200.000
G2 X-9.561 Y28.941 Z-0.500 I-0.810 J-0.810 K0.000 F100.000
G2 X-10.439 Y31.059 Z-0.500 I-0.439 J1.059 K0.000 F100.000
G2 X-9.190 Y30.810 Z-0.500 I0.439 J-1.059 K0.000 F100.000
G1 X-9.190 Y30.810 Z-1.000 F200.000
G2 X-9.561 Y28.941 Z-1.000 I-0.810 J-0.810 K0.000 F100.000
G2 X-10.439 Y31.059 Z-1.000 I-0.439 J1.059 K0.000 F100.000
G2 X-9.190 Y30.810 Z-1.000 I0.439 J-1.059 K0.000 F100.000
G1 X-9.190 Y30.810 Z-1.500 F200.000
G2 X-9.561 Y28.941 Z-1.500 I-0.810 J-0.810 K0.000 F100.000
G2 X-10.439 Y31.059 Z-1.500 I-0.439 J1.059 K0.000 F100.000
G2 X-9.190 Y30.810 Z-1.500 I0.439 J-1.059 K0.000 F100.000
G1 X-9.190 Y30.810 Z-2.000 F200.000
G2 X-9.561 Y28.941 Z-2.000 I-0.810 J-0.810 K0.000 F100.000
G2 X-10.439 Y31.059 Z-2.000 I-0.439 J1.059 K0.000 F100.000
G2 X-9.190 Y30.810 Z-2.000 I0.439 J-1.059 K0.000 F100.000
G1 X-9.190 Y30.810 Z-2.500 F200.000
G2 X-9.561 Y28.941 Z-2.500 I-0.810 J-0.810 K0.000 F100.000
G2 X-10.439 Y31.059 Z-2.500 I-0.439 J1.059 K0.000 F100.000
G2 X-9.190 Y30.810 Z-2.500 I0.439 J-1.059 K0.000 F100.000
G1 X-9.190 Y30.810 Z-3.000 F200.000
G2 X-9.561 Y28.941 Z-3.000 I-0.810 J-0.810 K0.000 F100.000
G2 X-10.439 Y31.059 Z-3.000 I-0.439 J1.059 K0.000 F100.000
G2 X-9.190 Y30.810 Z-3.000 I0.439 J-1.059 K0.000 F100.000
G0 Z5.000
G0 Z5.000
(Finish operation: hole003)
(Begin operation: hole004)
(Path: hole004)
(hole004)
(Compensated Tool Path. Diameter: 1.7)
G0 Z5.000
G0 X-19.190 Y30.810
G0 Z3.000
G1 X-19.190 Y30.810 Z-0.500 F200.000
G2 X-19.561 Y28.941 Z-0.500 I-0.810 J-0.810 K0.000 F100.000
G2 X-20.439 Y31.059 Z-0.500 I-0.439 J1.059 K0.000 F100.000
G2 X-19.190 Y30.810 Z-0.500 I0.439 J-1.059 K0.000 F100.000
G1 X-19.190 Y30.810 Z-1.000 F200.000
G2 X-19.561 Y28.941 Z-1.000 I-0.810 J-0.810 K0.000 F100.000
G2 X-20.439 Y31.059 Z-1.000 I-0.439 J1.059 K0.000 F100.000
G2 X-19.190 Y30.810 Z-1.000 I0.439 J-1.059 K0.000 F100.000
G1 X-19.190 Y30.810 Z-1.500 F200.000
G2 X-19.561 Y28.941 Z-1.500 I-0.810 J-0.810 K0.000 F100.000
G2 X-20.439 Y31.059 Z-1.500 I-0.439 J1.059 K0.000 F100.000
G2 X-19.190 Y30.810 Z-1.500 I0.439 J-1.059 K0.000 F100.000
G1 X-19.190 Y30.810 Z-2.000 F200.000
G2 X-19.561 Y28.941 Z-2.000 I-0.810 J-0.810 K0.000 F100.000
G2 X-20.439 Y31.059 Z-2.000 I-0.439 J1.059 K0.000 F100.000
G2 X-19.190 Y30.810 Z-2.000 I0.439 J-1.059 K0.000 F100.000
G1 X-19.190 Y30.810 Z-2.500 F200.000
G2 X-19.561 Y28.941 Z-2.500 I-0.810 J-0.810 K0.000 F100.000
G2 X-20.439 Y31.059 Z-2.500 I-0.439 J1.059 K0.000 F100.000
G2 X-19.190 Y30.810 Z-2.500 I0.439 J-1.059 K0.000 F100.000
G1 X-19.190 Y30.810 Z-3.000 F200.000
G2 X-19.561 Y28.941 Z-3.000 I-0.810 J-0.810 K0.000 F100.000
G2 X-20.439 Y31.059 Z-3.000 I-0.439 J1.059 K0.000 F100.000
G2 X-19.190 Y30.810 Z-3.000 I0.439 J-1.059 K0.000 F100.000
G0 Z5.000
G0 Z5.000
(Finish operation: hole004)
(Begin operation: hole005)
(Path: hole005)
(hole005)
(Compensated Tool Path. Diameter: 1.7)
G0 Z5.000
G0 X-9.190 Y50.810
G0 Z3.000
G1 X-9.190 Y50.810 Z-0.500 F200.000
G2 X-9.561 Y48.941 Z-0.500 I-0.810 J-0.810 K0.000 F100.000
G2 X-10.439 Y51.059 Z-0.500 I-0.439 J1.059 K0.000 F100.000
G2 X-9.190 Y50.810 Z-0.500 I0.439 J-1.059 K0.000 F100.000
G1 X-9.190 Y50.810 Z-1.000 F200.000
G2 X-9.561 Y48.941 Z-1.000 I-0.810 J-0.810 K0.000 F100.000
G2 X-10.439 Y51.059 Z-1.000 I-0.439 J1.059 K0.000 F100.000
G2 X-9.190 Y50.810 Z-1.000 I0.439 J-1.059 K0.000 F100.000
G1 X-9.190 Y50.810 Z-1.500 F200.000
G2 X-9.561 Y48.941 Z-1.500 I-0.810 J-0.810 K0.000 F100.000
G2 X-10.439 Y51.059 Z-1.500 I-0.439 J1.059 K0.000 F100.000
G2 X-9.190 Y50.810 Z-1.500 I0.439 J-1.059 K0.000 F100.000
G1 X-9.190 Y50.810 Z-2.000 F200.000
G2 X-9.561 Y48.941 Z-2.000 I-0.810 J-0.810 K0.000 F100.000
G2 X-10.439 Y51.059 Z-2.000 I-0.439 J1.059 K0.000 F100.000
G2 X-9.190 Y50.810 Z-2.000 I0.439 J-1.059 K0.000 F100.000
G1 X-9.190 Y50.810 Z-2.500 F200.000
G2 X-9.561 Y48.941 Z-2.500 I-0.810 J-0.810 K0.000 F100.000
G2 X-10.439 Y51.059 Z-2.500 I-0.439 J1.059 K0.000 F100.000
G2 X-9.190 Y50.810 Z-2.500 I0.439 J-1.059 K0.000 F100.000
G1 X-9.190 Y50.810 Z-3.000 F200.000
G2 X-9.561 Y48.941 Z-3.000 I-0.810 J-0.810 K0.000 F100.000
G2 X-10.439 Y51.059 Z-3.000 I-0.439 J1.059 K0.000 F100.000
G2 X-9.190 Y50.810 Z-3.000 I0.439 J-1.059 K0.000 F100.000
G0 Z5.000
G0 Z5.000
(Finish operation: hole005)
(Begin operation: hole006)
(Path: hole006)
(hole006)
(Compensated Tool Path. Diameter: 1.7)
G0 Z5.000
G0 X-19.190 Y50.810
G0 Z3.000
G1 X-19.190 Y50.810 Z-0.500 F200.000
G2 X-19.561 Y48.941 Z-0.500 I-0.810 J-0.810 K0.000 F100.000
G2 X-20.439 Y51.059 Z-0.500 I-0.439 J1.059 K0.000 F100.000
G2 X-19.190 Y50.810 Z-0.500 I0.439 J-1.059 K0.000 F100.000
G1 X-19.190 Y50.810 Z-1.000 F200.000
G2 X-19.561 Y48.941 Z-1.000 I-0.810 J-0.810 K0.000 F100.000
G2 X-20.439 Y51.059 Z-1.000 I-0.439 J1.059 K0.000 F100.000
G2 X-19.190 Y50.810 Z-1.000 I0.439 J-1.059 K0.000 F100.000
G1 X-19.190 Y50.810 Z-1.500 F200.000
G2 X-19.561 Y48.941 Z-1.500 I-0.810 J-0.810 K0.000 F100.000
G2 X-20.439 Y51.059 Z-1.500 I-0.439 J1.059 K0.000 F100.000
G2 X-19.190 Y50.810 Z-1.500 I0.439 J-1.059 K0.000 F100.000
G1 X-19.190 Y50.810 Z-2.000 F200.000
G2 X-19.561 Y48.941 Z-2.000 I-0.810 J-0.810 K0.000 F100.000
G2 X-20.439 Y51.059 Z-2.000 I-0.439 J1.059 K0.000 F100.000
G2 X-19.190 Y50.810 Z-2.000 I0.439 J-1.059 K0.000 F100.000
G1 X-19.190 Y50.810 Z-2.500 F200.000
G2 X-19.561 Y48.941 Z-2.500 I-0.810 J-0.810 K0.000 F100.000
G2 X-20.439 Y51.059 Z-2.500 I-0.439 J1.059 K0.000 F100.000
G2 X-19.190 Y50.810 Z-2.500 I0.439 J-1.059 K0.000 F100.000
G1 X-19.190 Y50.810 Z-3.000 F200.000
G2 X-19.561 Y48.941 Z-3.000 I-0.810 J-0.810 K0.000 F100.000
G2 X-20.439 Y51.059 Z-3.000 I-0.439 J1.059 K0.000 F100.000
G2 X-19.190 Y50.810 Z-3.000 I0.439 J-1.059 K0.000 F100.000
G0 Z5.000
G0 Z5.000
(Finish operation: hole006)
(Begin operation: kukuruza-1.7-7-3.177)
(Path: kukuruza-1.7-7-3.177)
(kukuruza-1.7-7-3.177)
(Begin toolchange)
( M6 T19 )
M3 S1200
(Finish operation: kukuruza-1.7-7-3.177)
(Begin operation: DressupTag)
(Path: DressupTag)
G0 Z5.000
G0 X-4.159 Y55.122 Z5.000
G0 X-4.159 Y55.122 Z3.000
G1 X-4.159 Y55.122 Z-0.500 F200.000
G2 X-4.150 Y55.000 Z-0.500 I-0.841 J-0.122 K0.000 F100.000
G1 X-4.150 Y12.900 Z-0.500 F100.000
G1 X-0.023 Y13.014 Z-0.500 F100.000
G2 X0.850 Y12.164 Z-0.500 I0.023 J-0.850 K0.000 F100.000
G1 X0.850 Y0.000 Z-0.500 F100.000
G2 X0.000 Y-0.850 Z-0.500 I-0.850 J-0.000 K0.000 F100.000
G1 X-30.000 Y-0.850 Z-0.500 F100.000
G2 X-30.850 Y0.000 Z-0.500 I-0.000 J0.850 K0.000 F100.000
G1 X-30.850 Y12.018 Z-0.500 F100.000
G2 X-30.000 Y12.868 Z-0.500 I0.850 J0.000 K0.000 F100.000
G1 X-25.850 Y12.868 Z-0.500 F100.000
G1 X-25.850 Y55.000 Z-0.500 F100.000
G2 X-25.000 Y55.850 Z-0.500 I0.850 J0.000 K0.000 F100.000
G1 X-5.000 Y55.850 Z-0.500 F100.000
G2 X-4.159 Y55.122 Z-0.500 I0.000 J-0.850 K0.000 F100.000
G1 X-4.159 Y55.122 Z-1.000 F200.000
G2 X-4.150 Y55.000 Z-1.000 I-0.841 J-0.122 K0.000 F100.000
G1 X-4.150 Y12.900 Z-1.000 F100.000
G1 X-0.023 Y13.014 Z-1.000 F100.000
G2 X0.850 Y12.164 Z-1.000 I0.023 J-0.850 K0.000 F100.000
G1 X0.850 Y0.000 Z-1.000 F100.000
G2 X0.000 Y-0.850 Z-1.000 I-0.850 J-0.000 K0.000 F100.000
G1 X-30.000 Y-0.850 Z-1.000 F100.000
G2 X-30.850 Y0.000 Z-1.000 I-0.000 J0.850 K0.000 F100.000
G1 X-30.850 Y12.018 Z-1.000 F100.000
G2 X-30.000 Y12.868 Z-1.000 I0.850 J0.000 K0.000 F100.000
G1 X-25.850 Y12.868 Z-1.000 F100.000
G1 X-25.850 Y55.000 Z-1.000 F100.000
G2 X-25.000 Y55.850 Z-1.000 I0.850 J0.000 K0.000 F100.000
G1 X-5.000 Y55.850 Z-1.000 F100.000
G2 X-4.159 Y55.122 Z-1.000 I0.000 J-0.850 K0.000 F100.000
G1 X-4.159 Y55.122 Z-1.500 F200.000
G2 X-4.150 Y55.000 Z-1.500 I-0.841 J-0.122 K0.000 F100.000
G1 X-4.150 Y12.900 Z-1.500 F100.000
G1 X-0.023 Y13.014 Z-1.500 F100.000
G2 X0.850 Y12.164 Z-1.500 I0.023 J-0.850 K0.000 F100.000
G1 X0.850 Y0.000 Z-1.500 F100.000
G2 X0.000 Y-0.850 Z-1.500 I-0.850 J-0.000 K0.000 F100.000
G1 X-30.000 Y-0.850 Z-1.500 F100.000
G2 X-30.850 Y0.000 Z-1.500 I-0.000 J0.850 K0.000 F100.000
G1 X-30.850 Y12.018 Z-1.500 F100.000
G2 X-30.000 Y12.868 Z-1.500 I0.850 J0.000 K0.000 F100.000
G1 X-25.850 Y12.868 Z-1.500 F100.000
G1 X-25.850 Y55.000 Z-1.500 F100.000
G2 X-25.000 Y55.850 Z-1.500 I0.850 J0.000 K0.000 F100.000
G1 X-5.000 Y55.850 Z-1.500 F100.000
G2 X-4.159 Y55.122 Z-1.500 I0.000 J-0.850 K0.000 F100.000
G1 X-4.159 Y55.122 Z-2.000 F200.000
G2 X-4.150 Y55.000 Z-2.000 I-0.841 J-0.122 K0.000 F100.000
G1 X-4.150 Y12.900 Z-2.000 F100.000
G1 X-0.023 Y13.014 Z-2.000 F100.000
G2 X0.850 Y12.164 Z-2.000 I0.023 J-0.850 K0.000 F100.000
G1 X0.850 Y0.000 Z-2.000 F100.000
G2 X0.000 Y-0.850 Z-2.000 I-0.850 J-0.000 K0.000 F100.000
G1 X-30.000 Y-0.850 Z-2.000 F100.000
G2 X-30.850 Y0.000 Z-2.000 I-0.000 J0.850 K0.000 F100.000
G1 X-30.850 Y12.018 Z-2.000 F100.000
G2 X-30.000 Y12.868 Z-2.000 I0.850 J0.000 K0.000 F100.000
G1 X-25.850 Y12.868 Z-2.000 F100.000
G1 X-25.850 Y55.000 Z-2.000 F100.000
G2 X-25.000 Y55.850 Z-2.000 I0.850 J0.000 K0.000 F100.000
G1 X-5.000 Y55.850 Z-2.000 F100.000
G2 X-4.159 Y55.122 Z-2.000 I0.000 J-0.850 K0.000 F100.000
G1 X-4.159 Y55.122 Z-2.500 F200.000
G2 X-4.150 Y55.000 Z-2.500 I-0.841 J-0.122 K0.000 F100.000
G1 X-4.150 Y12.900 Z-2.500 F100.000
G1 X-0.023 Y13.014 Z-2.500 F100.000
G2 X0.850 Y12.164 Z-2.500 I0.023 J-0.850 K0.000 F100.000
G1 X0.850 Y0.000 Z-2.500 F100.000
G2 X0.000 Y-0.850 Z-2.500 I-0.850 J-0.000 K0.000 F100.000
G1 X-30.000 Y-0.850 Z-2.500 F100.000
G2 X-30.850 Y0.000 Z-2.500 I-0.000 J0.850 K0.000 F100.000
G1 X-30.850 Y12.018 Z-2.500 F100.000
G2 X-30.000 Y12.868 Z-2.500 I0.850 J0.000 K0.000 F100.000
G1 X-25.850 Y12.868 Z-2.500 F100.000
G1 X-25.850 Y55.000 Z-2.500 F100.000
G2 X-25.000 Y55.850 Z-2.500 I0.850 J0.000 K0.000 F100.000
G1 X-5.000 Y55.850 Z-2.500 F100.000
G2 X-4.159 Y55.122 Z-2.500 I0.000 J-0.850 K0.000 F100.000
G1 X-4.159 Y55.122 Z-3.000 F200.000
G2 X-4.150 Y55.000 Z-3.000 I-0.841 J-0.122 K0.000 F100.000
G1 X-4.150 Y12.900 Z-3.000 F100.000
G1 X-0.023 Y13.014 Z-3.000 F100.000
G2 X0.850 Y12.164 Z-3.000 I0.023 J-0.850 K0.000 F100.000
G1 X0.850 Y0.000 Z-3.000 F100.000
G2 X0.000 Y-0.850 Z-3.000 I-0.850 J-0.000 K0.000 F100.000
G1 X-30.000 Y-0.850 Z-3.000 F100.000
G2 X-30.850 Y0.000 Z-3.000 I-0.000 J0.850 K0.000 F100.000
G1 X-30.850 Y12.018 Z-3.000 F100.000
G2 X-30.000 Y12.868 Z-3.000 I0.850 J0.000 K0.000 F100.000
G1 X-25.850 Y12.868 Z-3.000 F100.000
G1 X-25.850 Y55.000 Z-3.000 F100.000
G2 X-25.000 Y55.850 Z-3.000 I0.850 J0.000 K0.000 F100.000
G1 X-5.000 Y55.850 Z-3.000 F100.000
G2 X-4.159 Y55.122 Z-3.000 I0.000 J-0.850 K0.000 F100.000
G0 X-4.159 Y55.122 Z5.000
(Finish operation: DressupTag)
(Begin postamble)
M5
G17 G90
M2
