(Exported by FreeCAD)
(Post Processor: grbl_post)
(Output Time:2023-07-09 14:13:46.576622)
(Begin preamble)
G17 G90
G21
(Begin operation: G54)
(Path: G54)
G54
G0 Z5.000
(Finish operation: G54)
(Begin operation: kukuruza-1.7-7-3.176)
(Path: kukuruza-1.7-7-3.176)
(kukuruza-1.7-7-3.176)
(Begin toolchange)
( M6 T2 )
M3 S1200
(Finish operation: kukuruza-1.7-7-3.176)
(Begin operation: MillFace001)
(Path: MillFace001)
(MillFace001)
G0 Z5.000
G0 X-15.100 Y8.950
G0 Z3.000
G1 X-15.100 Y8.950 Z-0.500 F200.000
G1 X-16.900 Y8.950 Z-0.500 F100.000
G1 X-16.900 Y0.850 Z-0.500 F100.000
G1 X-15.100 Y0.850 Z-0.500 F100.000
G1 X-15.100 Y8.950 Z-0.500 F100.000
G0 Z5.000
G0 X-15.780 Y8.270 Z5.000
G0 X-15.780 Y8.270 Z3.000
G1 X-15.780 Y8.270 Z-0.500 F200.000
G1 X-16.220 Y8.270 Z-0.500 F100.000
G1 X-16.220 Y1.530 Z-0.500 F100.000
G1 X-15.780 Y1.530 Z-0.500 F100.000
G1 X-15.780 Y8.270 Z-0.500 F100.000
G1 X-15.780 Y8.270 Z-1.000 F200.000
G1 X-16.220 Y8.270 Z-1.000 F100.000
G1 X-16.220 Y1.530 Z-1.000 F100.000
G1 X-15.780 Y1.530 Z-1.000 F100.000
G1 X-15.780 Y8.270 Z-1.000 F100.000
G0 Z5.000
G0 X-15.100 Z5.000
G0 X-15.100 Z3.000
G1 X-15.100 Y8.270 Z-1.000 F200.000
G1 X-15.100 Y8.950 Z-1.000 F100.000
G1 X-16.900 Y8.950 Z-1.000 F100.000
G1 X-16.900 Y0.850 Z-1.000 F100.000
G1 X-15.100 Y0.850 Z-1.000 F100.000
G1 X-15.100 Y8.270 Z-1.000 F100.000
G1 X-15.100 Y8.270 Z-1.500 F200.000
G1 X-15.100 Y8.950 Z-1.500 F100.000
G1 X-16.900 Y8.950 Z-1.500 F100.000
G1 X-16.900 Y0.850 Z-1.500 F100.000
G1 X-15.100 Y0.850 Z-1.500 F100.000
G1 X-15.100 Y8.270 Z-1.500 F100.000
G0 Z5.000
G0 X-15.780 Z5.000
G0 X-15.780 Z3.000
G1 X-15.780 Y8.270 Z-1.500 F200.000
G1 X-16.220 Y8.270 Z-1.500 F100.000
G1 X-16.220 Y1.530 Z-1.500 F100.000
G1 X-15.780 Y1.530 Z-1.500 F100.000
G1 X-15.780 Y8.270 Z-1.500 F100.000
G0 Z5.000
G0 Z5.000
(Finish operation: MillFace001)
(Begin operation: MillFace002)
(Path: MillFace002)
(MillFace002)
G0 Z5.000
G0 X-55.100 Y8.950
G0 Z3.000
G1 X-55.100 Y8.950 Z-0.500 F200.000
G1 X-56.900 Y8.950 Z-0.500 F100.000
G1 X-56.900 Y0.850 Z-0.500 F100.000
G1 X-55.100 Y0.850 Z-0.500 F100.000
G1 X-55.100 Y8.950 Z-0.500 F100.000
G0 Z5.000
G0 X-55.780 Y8.270 Z5.000
G0 X-55.780 Y8.270 Z3.000
G1 X-55.780 Y8.270 Z-0.500 F200.000
G1 X-56.220 Y8.270 Z-0.500 F100.000
G1 X-56.220 Y1.530 Z-0.500 F100.000
G1 X-55.780 Y1.530 Z-0.500 F100.000
G1 X-55.780 Y8.270 Z-0.500 F100.000
G1 X-55.780 Y8.270 Z-1.000 F200.000
G1 X-56.220 Y8.270 Z-1.000 F100.000
G1 X-56.220 Y1.530 Z-1.000 F100.000
G1 X-55.780 Y1.530 Z-1.000 F100.000
G1 X-55.780 Y8.270 Z-1.000 F100.000
G0 Z5.000
G0 X-55.100 Z5.000
G0 X-55.100 Z3.000
G1 X-55.100 Y8.270 Z-1.000 F200.000
G1 X-55.100 Y8.950 Z-1.000 F100.000
G1 X-56.900 Y8.950 Z-1.000 F100.000
G1 X-56.900 Y0.850 Z-1.000 F100.000
G1 X-55.100 Y0.850 Z-1.000 F100.000
G1 X-55.100 Y8.270 Z-1.000 F100.000
G1 X-55.100 Y8.270 Z-1.500 F200.000
G1 X-55.100 Y8.950 Z-1.500 F100.000
G1 X-56.900 Y8.950 Z-1.500 F100.000
G1 X-56.900 Y0.850 Z-1.500 F100.000
G1 X-55.100 Y0.850 Z-1.500 F100.000
G1 X-55.100 Y8.270 Z-1.500 F100.000
G0 Z5.000
G0 X-55.780 Z5.000
G0 X-55.780 Z3.000
G1 X-55.780 Y8.270 Z-1.500 F200.000
G1 X-56.220 Y8.270 Z-1.500 F100.000
G1 X-56.220 Y1.530 Z-1.500 F100.000
G1 X-55.780 Y1.530 Z-1.500 F100.000
G1 X-55.780 Y8.270 Z-1.500 F100.000
G0 Z5.000
G0 Z5.000
(Finish operation: MillFace002)
(Begin operation: MillFace003)
(Path: MillFace003)
(MillFace003)
G0 Z5.000
G0 X-95.100 Y8.950
G0 Z3.000
G1 X-95.100 Y8.950 Z-0.500 F200.000
G1 X-96.900 Y8.950 Z-0.500 F100.000
G1 X-96.900 Y0.850 Z-0.500 F100.000
G1 X-95.100 Y0.850 Z-0.500 F100.000
G1 X-95.100 Y8.950 Z-0.500 F100.000
G0 Z5.000
G0 X-95.780 Y8.270 Z5.000
G0 X-95.780 Y8.270 Z3.000
G1 X-95.780 Y8.270 Z-0.500 F200.000
G1 X-96.220 Y8.270 Z-0.500 F100.000
G1 X-96.220 Y1.530 Z-0.500 F100.000
G1 X-95.780 Y1.530 Z-0.500 F100.000
G1 X-95.780 Y8.270 Z-0.500 F100.000
G1 X-95.780 Y8.270 Z-1.000 F200.000
G1 X-96.220 Y8.270 Z-1.000 F100.000
G1 X-96.220 Y1.530 Z-1.000 F100.000
G1 X-95.780 Y1.530 Z-1.000 F100.000
G1 X-95.780 Y8.270 Z-1.000 F100.000
G0 Z5.000
G0 X-95.100 Z5.000
G0 X-95.100 Z3.000
G1 X-95.100 Y8.270 Z-1.000 F200.000
G1 X-95.100 Y8.950 Z-1.000 F100.000
G1 X-96.900 Y8.950 Z-1.000 F100.000
G1 X-96.900 Y0.850 Z-1.000 F100.000
G1 X-95.100 Y0.850 Z-1.000 F100.000
G1 X-95.100 Y8.270 Z-1.000 F100.000
G1 X-95.100 Y8.270 Z-1.500 F200.000
G1 X-95.100 Y8.950 Z-1.500 F100.000
G1 X-96.900 Y8.950 Z-1.500 F100.000
G1 X-96.900 Y0.850 Z-1.500 F100.000
G1 X-95.100 Y0.850 Z-1.500 F100.000
G1 X-95.100 Y8.270 Z-1.500 F100.000
G0 Z5.000
G0 X-95.780 Z5.000
G0 X-95.780 Z3.000
G1 X-95.780 Y8.270 Z-1.500 F200.000
G1 X-96.220 Y8.270 Z-1.500 F100.000
G1 X-96.220 Y1.530 Z-1.500 F100.000
G1 X-95.780 Y1.530 Z-1.500 F100.000
G1 X-95.780 Y8.270 Z-1.500 F100.000
G0 Z5.000
G0 Z5.000
(Finish operation: MillFace003)
(Begin operation: MillFace004)
(Path: MillFace004)
(MillFace004)
G0 Z5.000
G0 X-135.100 Y8.950
G0 Z3.000
G1 X-135.100 Y8.950 Z-0.500 F200.000
G1 X-136.900 Y8.950 Z-0.500 F100.000
G1 X-136.900 Y0.850 Z-0.500 F100.000
G1 X-135.100 Y0.850 Z-0.500 F100.000
G1 X-135.100 Y8.950 Z-0.500 F100.000
G0 Z5.000
G0 X-135.780 Y8.270 Z5.000
G0 X-135.780 Y8.270 Z3.000
G1 X-135.780 Y8.270 Z-0.500 F200.000
G1 X-136.220 Y8.270 Z-0.500 F100.000
G1 X-136.220 Y1.530 Z-0.500 F100.000
G1 X-135.780 Y1.530 Z-0.500 F100.000
G1 X-135.780 Y8.270 Z-0.500 F100.000
G1 X-135.780 Y8.270 Z-1.000 F200.000
G1 X-136.220 Y8.270 Z-1.000 F100.000
G1 X-136.220 Y1.530 Z-1.000 F100.000
G1 X-135.780 Y1.530 Z-1.000 F100.000
G1 X-135.780 Y8.270 Z-1.000 F100.000
G0 Z5.000
G0 Y8.950 Z5.000
G0 Y8.950 Z3.000
G1 X-135.780 Y8.950 Z-1.000 F200.000
G1 X-136.900 Y8.950 Z-1.000 F100.000
G1 X-136.900 Y0.850 Z-1.000 F100.000
G1 X-135.100 Y0.850 Z-1.000 F100.000
G1 X-135.100 Y8.950 Z-1.000 F100.000
G1 X-135.780 Y8.950 Z-1.000 F100.000
G1 X-135.780 Y8.950 Z-1.500 F200.000
G1 X-136.900 Y8.950 Z-1.500 F100.000
G1 X-136.900 Y0.850 Z-1.500 F100.000
G1 X-135.100 Y0.850 Z-1.500 F100.000
G1 X-135.100 Y8.950 Z-1.500 F100.000
G1 X-135.780 Y8.950 Z-1.500 F100.000
G0 Z5.000
G0 Y8.270 Z5.000
G0 Y8.270 Z3.000
G1 X-135.780 Y8.270 Z-1.500 F200.000
G1 X-136.220 Y8.270 Z-1.500 F100.000
G1 X-136.220 Y1.530 Z-1.500 F100.000
G1 X-135.780 Y1.530 Z-1.500 F100.000
G1 X-135.780 Y8.270 Z-1.500 F100.000
G0 Z5.000
G0 Z5.000
(Finish operation: MillFace004)
(Begin operation: Circuit)
(Path: Circuit)
(Circuit)
(Compensated Tool Path. Diameter: 1.7)
G0 Z5.000
G0 X0.601 Y10.401
G0 Z3.000
G1 X0.601 Y10.401 Z-0.500 F200.000
G2 X0.850 Y9.800 Z-0.500 I-0.601 J-0.601 K0.000 F100.000
G1 X0.850 Y0.000 Z-0.500 F100.000
G2 X-0.000 Y-0.850 Z-0.500 I-0.850 J-0.000 K0.000 F100.000
G1 X-14.250 Y-0.850 Z-0.500 F100.000
G2 X-14.712 Y-0.713 Z-0.500 I0.000 J0.850 K0.000 F100.000
G2 X-15.121 Y0.175 Z-0.500 I0.563 J0.798 K0.000 F100.000
G3 X-16.904 Y-0.083 Z-0.500 I-0.884 J-0.181 K0.000 F100.000
G2 X-17.750 Y-0.850 Z-0.500 I-0.846 J0.083 K0.000 F100.000
G1 X-54.250 Y-0.850 Z-0.500 F100.000
G2 X-54.712 Y-0.713 Z-0.500 I0.000 J0.850 K0.000 F100.000
G2 X-55.121 Y0.175 Z-0.500 I0.563 J0.798 K0.000 F100.000
G3 X-56.904 Y-0.083 Z-0.500 I-0.884 J-0.181 K0.000 F100.000
G2 X-57.750 Y-0.850 Z-0.500 I-0.846 J0.083 K0.000 F100.000
G1 X-94.250 Y-0.850 Z-0.500 F100.000
G2 X-94.712 Y-0.713 Z-0.500 I0.000 J0.850 K0.000 F100.000
G2 X-95.121 Y0.175 Z-0.500 I0.563 J0.798 K0.000 F100.000
G3 X-96.904 Y-0.083 Z-0.500 I-0.884 J-0.181 K0.000 F100.000
G2 X-97.750 Y-0.850 Z-0.500 I-0.846 J0.083 K0.000 F100.000
G1 X-134.250 Y-0.850 Z-0.500 F100.000
G2 X-134.712 Y-0.713 Z-0.500 I0.000 J0.850 K0.000 F100.000
G2 X-135.121 Y0.175 Z-0.500 I0.563 J0.798 K0.000 F100.000
G3 X-136.904 Y-0.083 Z-0.500 I-0.884 J-0.181 K0.000 F100.000
G2 X-137.750 Y-0.850 Z-0.500 I-0.846 J0.083 K0.000 F100.000
G1 X-152.000 Y-0.850 Z-0.500 F100.000
G2 X-152.850 Y0.000 Z-0.500 I-0.000 J0.850 K0.000 F100.000
G1 X-152.850 Y9.800 Z-0.500 F100.000
G2 X-152.000 Y10.650 Z-0.500 I0.850 J0.000 K0.000 F100.000
G1 X-137.750 Y10.650 Z-0.500 F100.000
G2 X-137.292 Y10.516 Z-0.500 I-0.000 J-0.850 K0.000 F100.000
G2 X-136.876 Y9.614 Z-0.500 I-0.567 J-0.809 K0.000 F100.000
G3 X-135.095 Y9.889 Z-0.500 I0.881 J0.194 K0.000 F100.000
G2 X-134.250 Y10.650 Z-0.500 I0.845 J-0.089 K0.000 F100.000
G1 X-97.750 Y10.650 Z-0.500 F100.000
G2 X-97.292 Y10.516 Z-0.500 I0.000 J-0.850 K0.000 F100.000
G2 X-96.876 Y9.614 Z-0.500 I-0.567 J-0.809 K0.000 F100.000
G3 X-95.095 Y9.889 Z-0.500 I0.881 J0.194 K0.000 F100.000
G2 X-94.250 Y10.650 Z-0.500 I0.845 J-0.089 K0.000 F100.000
G1 X-57.750 Y10.650 Z-0.500 F100.000
G2 X-57.292 Y10.516 Z-0.500 I-0.000 J-0.850 K0.000 F100.000
G2 X-56.876 Y9.614 Z-0.500 I-0.567 J-0.809 K0.000 F100.000
G3 X-55.095 Y9.889 Z-0.500 I0.881 J0.194 K0.000 F100.000
G2 X-54.250 Y10.650 Z-0.500 I0.845 J-0.089 K0.000 F100.000
G1 X-17.750 Y10.650 Z-0.500 F100.000
G2 X-17.292 Y10.516 Z-0.500 I-0.000 J-0.850 K0.000 F100.000
G2 X-16.876 Y9.614 Z-0.500 I-0.567 J-0.809 K0.000 F100.000
G3 X-15.095 Y9.889 Z-0.500 I0.881 J0.194 K0.000 F100.000
G2 X-14.250 Y10.650 Z-0.500 I0.845 J-0.089 K0.000 F100.000
G1 X-0.000 Y10.650 Z-0.500 F100.000
G2 X0.601 Y10.401 Z-0.500 I0.000 J-0.850 K0.000 F100.000
G1 X0.601 Y10.401 Z-1.000 F200.000
G2 X0.850 Y9.800 Z-1.000 I-0.601 J-0.601 K0.000 F100.000
G1 X0.850 Y0.000 Z-1.000 F100.000
G2 X-0.000 Y-0.850 Z-1.000 I-0.850 J-0.000 K0.000 F100.000
G1 X-14.250 Y-0.850 Z-1.000 F100.000
G2 X-14.712 Y-0.713 Z-1.000 I0.000 J0.850 K0.000 F100.000
G2 X-15.121 Y0.175 Z-1.000 I0.563 J0.798 K0.000 F100.000
G3 X-16.904 Y-0.083 Z-1.000 I-0.884 J-0.181 K0.000 F100.000
G2 X-17.750 Y-0.850 Z-1.000 I-0.846 J0.083 K0.000 F100.000
G1 X-54.250 Y-0.850 Z-1.000 F100.000
G2 X-54.712 Y-0.713 Z-1.000 I0.000 J0.850 K0.000 F100.000
G2 X-55.121 Y0.175 Z-1.000 I0.563 J0.798 K0.000 F100.000
G3 X-56.904 Y-0.083 Z-1.000 I-0.884 J-0.181 K0.000 F100.000
G2 X-57.750 Y-0.850 Z-1.000 I-0.846 J0.083 K0.000 F100.000
G1 X-94.250 Y-0.850 Z-1.000 F100.000
G2 X-94.712 Y-0.713 Z-1.000 I0.000 J0.850 K0.000 F100.000
G2 X-95.121 Y0.175 Z-1.000 I0.563 J0.798 K0.000 F100.000
G3 X-96.904 Y-0.083 Z-1.000 I-0.884 J-0.181 K0.000 F100.000
G2 X-97.750 Y-0.850 Z-1.000 I-0.846 J0.083 K0.000 F100.000
G1 X-134.250 Y-0.850 Z-1.000 F100.000
G2 X-134.712 Y-0.713 Z-1.000 I0.000 J0.850 K0.000 F100.000
G2 X-135.121 Y0.175 Z-1.000 I0.563 J0.798 K0.000 F100.000
G3 X-136.904 Y-0.083 Z-1.000 I-0.884 J-0.181 K0.000 F100.000
G2 X-137.750 Y-0.850 Z-1.000 I-0.846 J0.083 K0.000 F100.000
G1 X-152.000 Y-0.850 Z-1.000 F100.000
G2 X-152.850 Y0.000 Z-1.000 I-0.000 J0.850 K0.000 F100.000
G1 X-152.850 Y9.800 Z-1.000 F100.000
G2 X-152.000 Y10.650 Z-1.000 I0.850 J0.000 K0.000 F100.000
G1 X-137.750 Y10.650 Z-1.000 F100.000
G2 X-137.292 Y10.516 Z-1.000 I-0.000 J-0.850 K0.000 F100.000
G2 X-136.876 Y9.614 Z-1.000 I-0.567 J-0.809 K0.000 F100.000
G3 X-135.095 Y9.889 Z-1.000 I0.881 J0.194 K0.000 F100.000
G2 X-134.250 Y10.650 Z-1.000 I0.845 J-0.089 K0.000 F100.000
G1 X-97.750 Y10.650 Z-1.000 F100.000
G2 X-97.292 Y10.516 Z-1.000 I0.000 J-0.850 K0.000 F100.000
G2 X-96.876 Y9.614 Z-1.000 I-0.567 J-0.809 K0.000 F100.000
G3 X-95.095 Y9.889 Z-1.000 I0.881 J0.194 K0.000 F100.000
G2 X-94.250 Y10.650 Z-1.000 I0.845 J-0.089 K0.000 F100.000
G1 X-57.750 Y10.650 Z-1.000 F100.000
G2 X-57.292 Y10.516 Z-1.000 I-0.000 J-0.850 K0.000 F100.000
G2 X-56.876 Y9.614 Z-1.000 I-0.567 J-0.809 K0.000 F100.000
G3 X-55.095 Y9.889 Z-1.000 I0.881 J0.194 K0.000 F100.000
G2 X-54.250 Y10.650 Z-1.000 I0.845 J-0.089 K0.000 F100.000
G1 X-17.750 Y10.650 Z-1.000 F100.000
G2 X-17.292 Y10.516 Z-1.000 I-0.000 J-0.850 K0.000 F100.000
G2 X-16.876 Y9.614 Z-1.000 I-0.567 J-0.809 K0.000 F100.000
G3 X-15.095 Y9.889 Z-1.000 I0.881 J0.194 K0.000 F100.000
G2 X-14.250 Y10.650 Z-1.000 I0.845 J-0.089 K0.000 F100.000
G1 X-0.000 Y10.650 Z-1.000 F100.000
G2 X0.601 Y10.401 Z-1.000 I0.000 J-0.850 K0.000 F100.000
G1 X0.601 Y10.401 Z-1.500 F200.000
G2 X0.850 Y9.800 Z-1.500 I-0.601 J-0.601 K0.000 F100.000
G1 X0.850 Y0.000 Z-1.500 F100.000
G2 X-0.000 Y-0.850 Z-1.500 I-0.850 J-0.000 K0.000 F100.000
G1 X-14.250 Y-0.850 Z-1.500 F100.000
G2 X-14.712 Y-0.713 Z-1.500 I0.000 J0.850 K0.000 F100.000
G2 X-15.121 Y0.175 Z-1.500 I0.563 J0.798 K0.000 F100.000
G3 X-16.904 Y-0.083 Z-1.500 I-0.884 J-0.181 K0.000 F100.000
G2 X-17.750 Y-0.850 Z-1.500 I-0.846 J0.083 K0.000 F100.000
G1 X-54.250 Y-0.850 Z-1.500 F100.000
G2 X-54.712 Y-0.713 Z-1.500 I0.000 J0.850 K0.000 F100.000
G2 X-55.121 Y0.175 Z-1.500 I0.563 J0.798 K0.000 F100.000
G3 X-56.904 Y-0.083 Z-1.500 I-0.884 J-0.181 K0.000 F100.000
G2 X-57.750 Y-0.850 Z-1.500 I-0.846 J0.083 K0.000 F100.000
G1 X-94.250 Y-0.850 Z-1.500 F100.000
G2 X-94.712 Y-0.713 Z-1.500 I0.000 J0.850 K0.000 F100.000
G2 X-95.121 Y0.175 Z-1.500 I0.563 J0.798 K0.000 F100.000
G3 X-96.904 Y-0.083 Z-1.500 I-0.884 J-0.181 K0.000 F100.000
G2 X-97.750 Y-0.850 Z-1.500 I-0.846 J0.083 K0.000 F100.000
G1 X-134.250 Y-0.850 Z-1.500 F100.000
G2 X-134.712 Y-0.713 Z-1.500 I0.000 J0.850 K0.000 F100.000
G2 X-135.121 Y0.175 Z-1.500 I0.563 J0.798 K0.000 F100.000
G3 X-136.904 Y-0.083 Z-1.500 I-0.884 J-0.181 K0.000 F100.000
G2 X-137.750 Y-0.850 Z-1.500 I-0.846 J0.083 K0.000 F100.000
G1 X-152.000 Y-0.850 Z-1.500 F100.000
G2 X-152.850 Y0.000 Z-1.500 I-0.000 J0.850 K0.000 F100.000
G1 X-152.850 Y9.800 Z-1.500 F100.000
G2 X-152.000 Y10.650 Z-1.500 I0.850 J0.000 K0.000 F100.000
G1 X-137.750 Y10.650 Z-1.500 F100.000
G2 X-137.292 Y10.516 Z-1.500 I-0.000 J-0.850 K0.000 F100.000
G2 X-136.876 Y9.614 Z-1.500 I-0.567 J-0.809 K0.000 F100.000
G3 X-135.095 Y9.889 Z-1.500 I0.881 J0.194 K0.000 F100.000
G2 X-134.250 Y10.650 Z-1.500 I0.845 J-0.089 K0.000 F100.000
G1 X-97.750 Y10.650 Z-1.500 F100.000
G2 X-97.292 Y10.516 Z-1.500 I0.000 J-0.850 K0.000 F100.000
G2 X-96.876 Y9.614 Z-1.500 I-0.567 J-0.809 K0.000 F100.000
G3 X-95.095 Y9.889 Z-1.500 I0.881 J0.194 K0.000 F100.000
G2 X-94.250 Y10.650 Z-1.500 I0.845 J-0.089 K0.000 F100.000
G1 X-57.750 Y10.650 Z-1.500 F100.000
G2 X-57.292 Y10.516 Z-1.500 I-0.000 J-0.850 K0.000 F100.000
G2 X-56.876 Y9.614 Z-1.500 I-0.567 J-0.809 K0.000 F100.000
G3 X-55.095 Y9.889 Z-1.500 I0.881 J0.194 K0.000 F100.000
G2 X-54.250 Y10.650 Z-1.500 I0.845 J-0.089 K0.000 F100.000
G1 X-17.750 Y10.650 Z-1.500 F100.000
G2 X-17.292 Y10.516 Z-1.500 I-0.000 J-0.850 K0.000 F100.000
G2 X-16.876 Y9.614 Z-1.500 I-0.567 J-0.809 K0.000 F100.000
G3 X-15.095 Y9.889 Z-1.500 I0.881 J0.194 K0.000 F100.000
G2 X-14.250 Y10.650 Z-1.500 I0.845 J-0.089 K0.000 F100.000
G1 X-0.000 Y10.650 Z-1.500 F100.000
G2 X0.601 Y10.401 Z-1.500 I0.000 J-0.850 K0.000 F100.000
G1 X0.601 Y10.401 Z-2.000 F200.000
G2 X0.850 Y9.800 Z-2.000 I-0.601 J-0.601 K0.000 F100.000
G1 X0.850 Y0.000 Z-2.000 F100.000
G2 X-0.000 Y-0.850 Z-2.000 I-0.850 J-0.000 K0.000 F100.000
G1 X-14.250 Y-0.850 Z-2.000 F100.000
G2 X-14.712 Y-0.713 Z-2.000 I0.000 J0.850 K0.000 F100.000
G2 X-15.121 Y0.175 Z-2.000 I0.563 J0.798 K0.000 F100.000
G3 X-16.904 Y-0.083 Z-2.000 I-0.884 J-0.181 K0.000 F100.000
G2 X-17.750 Y-0.850 Z-2.000 I-0.846 J0.083 K0.000 F100.000
G1 X-54.250 Y-0.850 Z-2.000 F100.000
G2 X-54.712 Y-0.713 Z-2.000 I0.000 J0.850 K0.000 F100.000
G2 X-55.121 Y0.175 Z-2.000 I0.563 J0.798 K0.000 F100.000
G3 X-56.904 Y-0.083 Z-2.000 I-0.884 J-0.181 K0.000 F100.000
G2 X-57.750 Y-0.850 Z-2.000 I-0.846 J0.083 K0.000 F100.000
G1 X-94.250 Y-0.850 Z-2.000 F100.000
G2 X-94.712 Y-0.713 Z-2.000 I0.000 J0.850 K0.000 F100.000
G2 X-95.121 Y0.175 Z-2.000 I0.563 J0.798 K0.000 F100.000
G3 X-96.904 Y-0.083 Z-2.000 I-0.884 J-0.181 K0.000 F100.000
G2 X-97.750 Y-0.850 Z-2.000 I-0.846 J0.083 K0.000 F100.000
G1 X-134.250 Y-0.850 Z-2.000 F100.000
G2 X-134.712 Y-0.713 Z-2.000 I0.000 J0.850 K0.000 F100.000
G2 X-135.121 Y0.175 Z-2.000 I0.563 J0.798 K0.000 F100.000
G3 X-136.904 Y-0.083 Z-2.000 I-0.884 J-0.181 K0.000 F100.000
G2 X-137.750 Y-0.850 Z-2.000 I-0.846 J0.083 K0.000 F100.000
G1 X-152.000 Y-0.850 Z-2.000 F100.000
G2 X-152.850 Y0.000 Z-2.000 I-0.000 J0.850 K0.000 F100.000
G1 X-152.850 Y9.800 Z-2.000 F100.000
G2 X-152.000 Y10.650 Z-2.000 I0.850 J0.000 K0.000 F100.000
G1 X-137.750 Y10.650 Z-2.000 F100.000
G2 X-137.292 Y10.516 Z-2.000 I-0.000 J-0.850 K0.000 F100.000
G2 X-136.876 Y9.614 Z-2.000 I-0.567 J-0.809 K0.000 F100.000
G3 X-135.095 Y9.889 Z-2.000 I0.881 J0.194 K0.000 F100.000
G2 X-134.250 Y10.650 Z-2.000 I0.845 J-0.089 K0.000 F100.000
G1 X-97.750 Y10.650 Z-2.000 F100.000
G2 X-97.292 Y10.516 Z-2.000 I0.000 J-0.850 K0.000 F100.000
G2 X-96.876 Y9.614 Z-2.000 I-0.567 J-0.809 K0.000 F100.000
G3 X-95.095 Y9.889 Z-2.000 I0.881 J0.194 K0.000 F100.000
G2 X-94.250 Y10.650 Z-2.000 I0.845 J-0.089 K0.000 F100.000
G1 X-57.750 Y10.650 Z-2.000 F100.000
G2 X-57.292 Y10.516 Z-2.000 I-0.000 J-0.850 K0.000 F100.000
G2 X-56.876 Y9.614 Z-2.000 I-0.567 J-0.809 K0.000 F100.000
G3 X-55.095 Y9.889 Z-2.000 I0.881 J0.194 K0.000 F100.000
G2 X-54.250 Y10.650 Z-2.000 I0.845 J-0.089 K0.000 F100.000
G1 X-17.750 Y10.650 Z-2.000 F100.000
G2 X-17.292 Y10.516 Z-2.000 I-0.000 J-0.850 K0.000 F100.000
G2 X-16.876 Y9.614 Z-2.000 I-0.567 J-0.809 K0.000 F100.000
G3 X-15.095 Y9.889 Z-2.000 I0.881 J0.194 K0.000 F100.000
G2 X-14.250 Y10.650 Z-2.000 I0.845 J-0.089 K0.000 F100.000
G1 X-0.000 Y10.650 Z-2.000 F100.000
G2 X0.601 Y10.401 Z-2.000 I0.000 J-0.850 K0.000 F100.000
G1 X0.601 Y10.401 Z-2.500 F200.000
G2 X0.850 Y9.800 Z-2.500 I-0.601 J-0.601 K0.000 F100.000
G1 X0.850 Y0.000 Z-2.500 F100.000
G2 X-0.000 Y-0.850 Z-2.500 I-0.850 J-0.000 K0.000 F100.000
G1 X-14.250 Y-0.850 Z-2.500 F100.000
G2 X-14.712 Y-0.713 Z-2.500 I0.000 J0.850 K0.000 F100.000
G2 X-15.121 Y0.175 Z-2.500 I0.563 J0.798 K0.000 F100.000
G3 X-16.904 Y-0.083 Z-2.500 I-0.884 J-0.181 K0.000 F100.000
G2 X-17.750 Y-0.850 Z-2.500 I-0.846 J0.083 K0.000 F100.000
G1 X-54.250 Y-0.850 Z-2.500 F100.000
G2 X-54.712 Y-0.713 Z-2.500 I0.000 J0.850 K0.000 F100.000
G2 X-55.121 Y0.175 Z-2.500 I0.563 J0.798 K0.000 F100.000
G3 X-56.904 Y-0.083 Z-2.500 I-0.884 J-0.181 K0.000 F100.000
G2 X-57.750 Y-0.850 Z-2.500 I-0.846 J0.083 K0.000 F100.000
G1 X-94.250 Y-0.850 Z-2.500 F100.000
G2 X-94.712 Y-0.713 Z-2.500 I0.000 J0.850 K0.000 F100.000
G2 X-95.121 Y0.175 Z-2.500 I0.563 J0.798 K0.000 F100.000
G3 X-96.904 Y-0.083 Z-2.500 I-0.884 J-0.181 K0.000 F100.000
G2 X-97.750 Y-0.850 Z-2.500 I-0.846 J0.083 K0.000 F100.000
G1 X-134.250 Y-0.850 Z-2.500 F100.000
G2 X-134.712 Y-0.713 Z-2.500 I0.000 J0.850 K0.000 F100.000
G2 X-135.121 Y0.175 Z-2.500 I0.563 J0.798 K0.000 F100.000
G3 X-136.904 Y-0.083 Z-2.500 I-0.884 J-0.181 K0.000 F100.000
G2 X-137.750 Y-0.850 Z-2.500 I-0.846 J0.083 K0.000 F100.000
G1 X-152.000 Y-0.850 Z-2.500 F100.000
G2 X-152.850 Y0.000 Z-2.500 I-0.000 J0.850 K0.000 F100.000
G1 X-152.850 Y9.800 Z-2.500 F100.000
G2 X-152.000 Y10.650 Z-2.500 I0.850 J0.000 K0.000 F100.000
G1 X-137.750 Y10.650 Z-2.500 F100.000
G2 X-137.292 Y10.516 Z-2.500 I-0.000 J-0.850 K0.000 F100.000
G2 X-136.876 Y9.614 Z-2.500 I-0.567 J-0.809 K0.000 F100.000
G3 X-135.095 Y9.889 Z-2.500 I0.881 J0.194 K0.000 F100.000
G2 X-134.250 Y10.650 Z-2.500 I0.845 J-0.089 K0.000 F100.000
G1 X-97.750 Y10.650 Z-2.500 F100.000
G2 X-97.292 Y10.516 Z-2.500 I0.000 J-0.850 K0.000 F100.000
G2 X-96.876 Y9.614 Z-2.500 I-0.567 J-0.809 K0.000 F100.000
G3 X-95.095 Y9.889 Z-2.500 I0.881 J0.194 K0.000 F100.000
G2 X-94.250 Y10.650 Z-2.500 I0.845 J-0.089 K0.000 F100.000
G1 X-57.750 Y10.650 Z-2.500 F100.000
G2 X-57.292 Y10.516 Z-2.500 I-0.000 J-0.850 K0.000 F100.000
G2 X-56.876 Y9.614 Z-2.500 I-0.567 J-0.809 K0.000 F100.000
G3 X-55.095 Y9.889 Z-2.500 I0.881 J0.194 K0.000 F100.000
G2 X-54.250 Y10.650 Z-2.500 I0.845 J-0.089 K0.000 F100.000
G1 X-17.750 Y10.650 Z-2.500 F100.000
G2 X-17.292 Y10.516 Z-2.500 I-0.000 J-0.850 K0.000 F100.000
G2 X-16.876 Y9.614 Z-2.500 I-0.567 J-0.809 K0.000 F100.000
G3 X-15.095 Y9.889 Z-2.500 I0.881 J0.194 K0.000 F100.000
G2 X-14.250 Y10.650 Z-2.500 I0.845 J-0.089 K0.000 F100.000
G1 X-0.000 Y10.650 Z-2.500 F100.000
G2 X0.601 Y10.401 Z-2.500 I0.000 J-0.850 K0.000 F100.000
G1 X0.601 Y10.401 Z-3.000 F200.000
G2 X0.850 Y9.800 Z-3.000 I-0.601 J-0.601 K0.000 F100.000
G1 X0.850 Y0.000 Z-3.000 F100.000
G2 X-0.000 Y-0.850 Z-3.000 I-0.850 J-0.000 K0.000 F100.000
G1 X-14.250 Y-0.850 Z-3.000 F100.000
G2 X-14.712 Y-0.713 Z-3.000 I0.000 J0.850 K0.000 F100.000
G2 X-15.121 Y0.175 Z-3.000 I0.563 J0.798 K0.000 F100.000
G3 X-16.904 Y-0.083 Z-3.000 I-0.884 J-0.181 K0.000 F100.000
G2 X-17.750 Y-0.850 Z-3.000 I-0.846 J0.083 K0.000 F100.000
G1 X-54.250 Y-0.850 Z-3.000 F100.000
G2 X-54.712 Y-0.713 Z-3.000 I0.000 J0.850 K0.000 F100.000
G2 X-55.121 Y0.175 Z-3.000 I0.563 J0.798 K0.000 F100.000
G3 X-56.904 Y-0.083 Z-3.000 I-0.884 J-0.181 K0.000 F100.000
G2 X-57.750 Y-0.850 Z-3.000 I-0.846 J0.083 K0.000 F100.000
G1 X-94.250 Y-0.850 Z-3.000 F100.000
G2 X-94.712 Y-0.713 Z-3.000 I0.000 J0.850 K0.000 F100.000
G2 X-95.121 Y0.175 Z-3.000 I0.563 J0.798 K0.000 F100.000
G3 X-96.904 Y-0.083 Z-3.000 I-0.884 J-0.181 K0.000 F100.000
G2 X-97.750 Y-0.850 Z-3.000 I-0.846 J0.083 K0.000 F100.000
G1 X-134.250 Y-0.850 Z-3.000 F100.000
G2 X-134.712 Y-0.713 Z-3.000 I0.000 J0.850 K0.000 F100.000
G2 X-135.121 Y0.175 Z-3.000 I0.563 J0.798 K0.000 F100.000
G3 X-136.904 Y-0.083 Z-3.000 I-0.884 J-0.181 K0.000 F100.000
G2 X-137.750 Y-0.850 Z-3.000 I-0.846 J0.083 K0.000 F100.000
G1 X-152.000 Y-0.850 Z-3.000 F100.000
G2 X-152.850 Y0.000 Z-3.000 I-0.000 J0.850 K0.000 F100.000
G1 X-152.850 Y9.800 Z-3.000 F100.000
G2 X-152.000 Y10.650 Z-3.000 I0.850 J0.000 K0.000 F100.000
G1 X-137.750 Y10.650 Z-3.000 F100.000
G2 X-137.292 Y10.516 Z-3.000 I-0.000 J-0.850 K0.000 F100.000
G2 X-136.876 Y9.614 Z-3.000 I-0.567 J-0.809 K0.000 F100.000
G3 X-135.095 Y9.889 Z-3.000 I0.881 J0.194 K0.000 F100.000
G2 X-134.250 Y10.650 Z-3.000 I0.845 J-0.089 K0.000 F100.000
G1 X-97.750 Y10.650 Z-3.000 F100.000
G2 X-97.292 Y10.516 Z-3.000 I0.000 J-0.850 K0.000 F100.000
G2 X-96.876 Y9.614 Z-3.000 I-0.567 J-0.809 K0.000 F100.000
G3 X-95.095 Y9.889 Z-3.000 I0.881 J0.194 K0.000 F100.000
G2 X-94.250 Y10.650 Z-3.000 I0.845 J-0.089 K0.000 F100.000
G1 X-57.750 Y10.650 Z-3.000 F100.000
G2 X-57.292 Y10.516 Z-3.000 I-0.000 J-0.850 K0.000 F100.000
G2 X-56.876 Y9.614 Z-3.000 I-0.567 J-0.809 K0.000 F100.000
G3 X-55.095 Y9.889 Z-3.000 I0.881 J0.194 K0.000 F100.000
G2 X-54.250 Y10.650 Z-3.000 I0.845 J-0.089 K0.000 F100.000
G1 X-17.750 Y10.650 Z-3.000 F100.000
G2 X-17.292 Y10.516 Z-3.000 I-0.000 J-0.850 K0.000 F100.000
G2 X-16.876 Y9.614 Z-3.000 I-0.567 J-0.809 K0.000 F100.000
G3 X-15.095 Y9.889 Z-3.000 I0.881 J0.194 K0.000 F100.000
G2 X-14.250 Y10.650 Z-3.000 I0.845 J-0.089 K0.000 F100.000
G1 X-0.000 Y10.650 Z-3.000 F100.000
G2 X0.601 Y10.401 Z-3.000 I0.000 J-0.850 K0.000 F100.000
G1 X0.601 Y10.401 Z-3.100 F200.000
G2 X0.850 Y9.800 Z-3.100 I-0.601 J-0.601 K0.000 F100.000
G1 X0.850 Y0.000 Z-3.100 F100.000
G2 X-0.000 Y-0.850 Z-3.100 I-0.850 J-0.000 K0.000 F100.000
G1 X-14.250 Y-0.850 Z-3.100 F100.000
G2 X-14.712 Y-0.713 Z-3.100 I0.000 J0.850 K0.000 F100.000
G2 X-15.121 Y0.175 Z-3.100 I0.563 J0.798 K0.000 F100.000
G3 X-16.904 Y-0.083 Z-3.100 I-0.884 J-0.181 K0.000 F100.000
G2 X-17.750 Y-0.850 Z-3.100 I-0.846 J0.083 K0.000 F100.000
G1 X-54.250 Y-0.850 Z-3.100 F100.000
G2 X-54.712 Y-0.713 Z-3.100 I0.000 J0.850 K0.000 F100.000
G2 X-55.121 Y0.175 Z-3.100 I0.563 J0.798 K0.000 F100.000
G3 X-56.904 Y-0.083 Z-3.100 I-0.884 J-0.181 K0.000 F100.000
G2 X-57.750 Y-0.850 Z-3.100 I-0.846 J0.083 K0.000 F100.000
G1 X-94.250 Y-0.850 Z-3.100 F100.000
G2 X-94.712 Y-0.713 Z-3.100 I0.000 J0.850 K0.000 F100.000
G2 X-95.121 Y0.175 Z-3.100 I0.563 J0.798 K0.000 F100.000
G3 X-96.904 Y-0.083 Z-3.100 I-0.884 J-0.181 K0.000 F100.000
G2 X-97.750 Y-0.850 Z-3.100 I-0.846 J0.083 K0.000 F100.000
G1 X-134.250 Y-0.850 Z-3.100 F100.000
G2 X-134.712 Y-0.713 Z-3.100 I0.000 J0.850 K0.000 F100.000
G2 X-135.121 Y0.175 Z-3.100 I0.563 J0.798 K0.000 F100.000
G3 X-136.904 Y-0.083 Z-3.100 I-0.884 J-0.181 K0.000 F100.000
G2 X-137.750 Y-0.850 Z-3.100 I-0.846 J0.083 K0.000 F100.000
G1 X-152.000 Y-0.850 Z-3.100 F100.000
G2 X-152.850 Y0.000 Z-3.100 I-0.000 J0.850 K0.000 F100.000
G1 X-152.850 Y9.800 Z-3.100 F100.000
G2 X-152.000 Y10.650 Z-3.100 I0.850 J0.000 K0.000 F100.000
G1 X-137.750 Y10.650 Z-3.100 F100.000
G2 X-137.292 Y10.516 Z-3.100 I-0.000 J-0.850 K0.000 F100.000
G2 X-136.876 Y9.614 Z-3.100 I-0.567 J-0.809 K0.000 F100.000
G3 X-135.095 Y9.889 Z-3.100 I0.881 J0.194 K0.000 F100.000
G2 X-134.250 Y10.650 Z-3.100 I0.845 J-0.089 K0.000 F100.000
G1 X-97.750 Y10.650 Z-3.100 F100.000
G2 X-97.292 Y10.516 Z-3.100 I0.000 J-0.850 K0.000 F100.000
G2 X-96.876 Y9.614 Z-3.100 I-0.567 J-0.809 K0.000 F100.000
G3 X-95.095 Y9.889 Z-3.100 I0.881 J0.194 K0.000 F100.000
G2 X-94.250 Y10.650 Z-3.100 I0.845 J-0.089 K0.000 F100.000
G1 X-57.750 Y10.650 Z-3.100 F100.000
G2 X-57.292 Y10.516 Z-3.100 I-0.000 J-0.850 K0.000 F100.000
G2 X-56.876 Y9.614 Z-3.100 I-0.567 J-0.809 K0.000 F100.000
G3 X-55.095 Y9.889 Z-3.100 I0.881 J0.194 K0.000 F100.000
G2 X-54.250 Y10.650 Z-3.100 I0.845 J-0.089 K0.000 F100.000
G1 X-17.750 Y10.650 Z-3.100 F100.000
G2 X-17.292 Y10.516 Z-3.100 I-0.000 J-0.850 K0.000 F100.000
G2 X-16.876 Y9.614 Z-3.100 I-0.567 J-0.809 K0.000 F100.000
G3 X-15.095 Y9.889 Z-3.100 I0.881 J0.194 K0.000 F100.000
G2 X-14.250 Y10.650 Z-3.100 I0.845 J-0.089 K0.000 F100.000
G1 X-0.000 Y10.650 Z-3.100 F100.000
G2 X0.601 Y10.401 Z-3.100 I0.000 J-0.850 K0.000 F100.000
G0 Z5.000
G0 Z5.000
(Finish operation: Circuit)
(Begin postamble)
M5
G17 G90
M2
