(Exported by FreeCAD)
(Post Processor: grbl_post)
(Output Time:2023-07-02 18:15:40.883977)
(Begin preamble)
G17 G90
G21
(Begin operation: G54)
(Path: G54)
G54
G0 Z5.000
(Finish operation: G54)
(Begin operation: kukuruza-1.7-7-3.176)
(Path: kukuruza-1.7-7-3.176)
(kukuruza-1.7-7-3.176)
(Begin toolchange)
( M6 T2 )
M3 S1200
(Finish operation: kukuruza-1.7-7-3.176)
(Begin operation: Hole001)
(Path: Hole001)
(Hole001)
(Compensated Tool Path. Diameter: 1.7)
G0 Z5.000
G0 X-29.529 Y3.338
G0 Z3.000
G1 X-29.529 Y3.338 Z-0.500 F200.000
G2 X-29.706 Y2.301 Z-0.500 I-0.456 J-0.456 K0.000 F100.000
G2 X-30.566 Y2.602 Z-0.500 I-0.280 J0.581 K0.000 F100.000
G2 X-30.265 Y3.463 Z-0.500 I0.581 J0.280 K0.000 F100.000
G2 X-29.529 Y3.338 Z-0.500 I0.280 J-0.581 K0.000 F100.000
G1 X-29.529 Y3.338 Z-1.000 F200.000
G2 X-29.706 Y2.301 Z-1.000 I-0.456 J-0.456 K0.000 F100.000
G2 X-30.566 Y2.602 Z-1.000 I-0.280 J0.581 K0.000 F100.000
G2 X-30.265 Y3.463 Z-1.000 I0.581 J0.280 K0.000 F100.000
G2 X-29.529 Y3.338 Z-1.000 I0.280 J-0.581 K0.000 F100.000
G1 X-29.529 Y3.338 Z-1.500 F200.000
G2 X-29.706 Y2.301 Z-1.500 I-0.456 J-0.456 K0.000 F100.000
G2 X-30.566 Y2.602 Z-1.500 I-0.280 J0.581 K0.000 F100.000
G2 X-30.265 Y3.463 Z-1.500 I0.581 J0.280 K0.000 F100.000
G2 X-29.529 Y3.338 Z-1.500 I0.280 J-0.581 K0.000 F100.000
G1 X-29.529 Y3.338 Z-2.000 F200.000
G2 X-29.706 Y2.301 Z-2.000 I-0.456 J-0.456 K0.000 F100.000
G2 X-30.566 Y2.602 Z-2.000 I-0.280 J0.581 K0.000 F100.000
G2 X-30.265 Y3.463 Z-2.000 I0.581 J0.280 K0.000 F100.000
G2 X-29.529 Y3.338 Z-2.000 I0.280 J-0.581 K0.000 F100.000
G1 X-29.529 Y3.338 Z-2.500 F200.000
G2 X-29.706 Y2.301 Z-2.500 I-0.456 J-0.456 K0.000 F100.000
G2 X-30.566 Y2.602 Z-2.500 I-0.280 J0.581 K0.000 F100.000
G2 X-30.265 Y3.463 Z-2.500 I0.581 J0.280 K0.000 F100.000
G2 X-29.529 Y3.338 Z-2.500 I0.280 J-0.581 K0.000 F100.000
G1 X-29.529 Y3.338 Z-3.000 F200.000
G2 X-29.706 Y2.301 Z-3.000 I-0.456 J-0.456 K0.000 F100.000
G2 X-30.566 Y2.602 Z-3.000 I-0.280 J0.581 K0.000 F100.000
G2 X-30.265 Y3.463 Z-3.000 I0.581 J0.280 K0.000 F100.000
G2 X-29.529 Y3.338 Z-3.000 I0.280 J-0.581 K0.000 F100.000
G0 Z5.000
G0 Z5.000
(Finish operation: Hole001)
(Begin operation: Hole002)
(Path: Hole002)
(Hole002)
(Compensated Tool Path. Diameter: 1.7)
G0 Z5.000
G0 X-29.529 Y11.338
G0 Z3.000
G1 X-29.529 Y11.338 Z-0.500 F200.000
G2 X-29.706 Y10.301 Z-0.500 I-0.456 J-0.456 K0.000 F100.000
G2 X-30.566 Y10.602 Z-0.500 I-0.280 J0.581 K0.000 F100.000
G2 X-30.265 Y11.463 Z-0.500 I0.581 J0.280 K0.000 F100.000
G2 X-29.529 Y11.338 Z-0.500 I0.280 J-0.581 K0.000 F100.000
G1 X-29.529 Y11.338 Z-1.000 F200.000
G2 X-29.706 Y10.301 Z-1.000 I-0.456 J-0.456 K0.000 F100.000
G2 X-30.566 Y10.602 Z-1.000 I-0.280 J0.581 K0.000 F100.000
G2 X-30.265 Y11.463 Z-1.000 I0.581 J0.280 K0.000 F100.000
G2 X-29.529 Y11.338 Z-1.000 I0.280 J-0.581 K0.000 F100.000
G1 X-29.529 Y11.338 Z-1.500 F200.000
G2 X-29.706 Y10.301 Z-1.500 I-0.456 J-0.456 K0.000 F100.000
G2 X-30.566 Y10.602 Z-1.500 I-0.280 J0.581 K0.000 F100.000
G2 X-30.265 Y11.463 Z-1.500 I0.581 J0.280 K0.000 F100.000
G2 X-29.529 Y11.338 Z-1.500 I0.280 J-0.581 K0.000 F100.000
G1 X-29.529 Y11.338 Z-2.000 F200.000
G2 X-29.706 Y10.301 Z-2.000 I-0.456 J-0.456 K0.000 F100.000
G2 X-30.566 Y10.602 Z-2.000 I-0.280 J0.581 K0.000 F100.000
G2 X-30.265 Y11.463 Z-2.000 I0.581 J0.280 K0.000 F100.000
G2 X-29.529 Y11.338 Z-2.000 I0.280 J-0.581 K0.000 F100.000
G1 X-29.529 Y11.338 Z-2.500 F200.000
G2 X-29.706 Y10.301 Z-2.500 I-0.456 J-0.456 K0.000 F100.000
G2 X-30.566 Y10.602 Z-2.500 I-0.280 J0.581 K0.000 F100.000
G2 X-30.265 Y11.463 Z-2.500 I0.581 J0.280 K0.000 F100.000
G2 X-29.529 Y11.338 Z-2.500 I0.280 J-0.581 K0.000 F100.000
G1 X-29.529 Y11.338 Z-3.000 F200.000
G2 X-29.706 Y10.301 Z-3.000 I-0.456 J-0.456 K0.000 F100.000
G2 X-30.566 Y10.602 Z-3.000 I-0.280 J0.581 K0.000 F100.000
G2 X-30.265 Y11.463 Z-3.000 I0.581 J0.280 K0.000 F100.000
G2 X-29.529 Y11.338 Z-3.000 I0.280 J-0.581 K0.000 F100.000
G0 Z5.000
G0 Z5.000
(Finish operation: Hole002)
(Begin operation: Hole003)
(Path: Hole003)
(Hole003)
(Compensated Tool Path. Diameter: 1.7)
G0 Z5.000
G0 X-9.175 Y50.692
G0 Z3.000
G1 X-9.175 Y50.692 Z-0.500 F200.000
G2 X-9.547 Y48.823 Z-0.500 I-0.810 J-0.810 K0.000 F100.000
G2 X-10.424 Y50.941 Z-0.500 I-0.439 J1.059 K0.000 F100.000
G2 X-9.175 Y50.692 Z-0.500 I0.439 J-1.059 K0.000 F100.000
G1 X-9.175 Y50.692 Z-1.000 F200.000
G2 X-9.547 Y48.823 Z-1.000 I-0.810 J-0.810 K0.000 F100.000
G2 X-10.424 Y50.941 Z-1.000 I-0.439 J1.059 K0.000 F100.000
G2 X-9.175 Y50.692 Z-1.000 I0.439 J-1.059 K0.000 F100.000
G1 X-9.175 Y50.692 Z-1.500 F200.000
G2 X-9.547 Y48.823 Z-1.500 I-0.810 J-0.810 K0.000 F100.000
G2 X-10.424 Y50.941 Z-1.500 I-0.439 J1.059 K0.000 F100.000
G2 X-9.175 Y50.692 Z-1.500 I0.439 J-1.059 K0.000 F100.000
G1 X-9.175 Y50.692 Z-2.000 F200.000
G2 X-9.547 Y48.823 Z-2.000 I-0.810 J-0.810 K0.000 F100.000
G2 X-10.424 Y50.941 Z-2.000 I-0.439 J1.059 K0.000 F100.000
G2 X-9.175 Y50.692 Z-2.000 I0.439 J-1.059 K0.000 F100.000
G1 X-9.175 Y50.692 Z-2.500 F200.000
G2 X-9.547 Y48.823 Z-2.500 I-0.810 J-0.810 K0.000 F100.000
G2 X-10.424 Y50.941 Z-2.500 I-0.439 J1.059 K0.000 F100.000
G2 X-9.175 Y50.692 Z-2.500 I0.439 J-1.059 K0.000 F100.000
G1 X-9.175 Y50.692 Z-3.000 F200.000
G2 X-9.547 Y48.823 Z-3.000 I-0.810 J-0.810 K0.000 F100.000
G2 X-10.424 Y50.941 Z-3.000 I-0.439 J1.059 K0.000 F100.000
G2 X-9.175 Y50.692 Z-3.000 I0.439 J-1.059 K0.000 F100.000
G0 Z5.000
G0 Z5.000
(Finish operation: Hole003)
(Begin operation: Hole004)
(Path: Hole004)
(Hole004)
(Compensated Tool Path. Diameter: 1.7)
G0 Z5.000
G0 X-69.529 Y3.338
G0 Z3.000
G1 X-69.529 Y3.338 Z-0.500 F200.000
G2 X-69.706 Y2.301 Z-0.500 I-0.456 J-0.456 K0.000 F100.000
G2 X-70.265 Y3.463 Z-0.500 I-0.280 J0.581 K0.000 F100.000
G2 X-69.529 Y3.338 Z-0.500 I0.280 J-0.581 K0.000 F100.000
G1 X-69.529 Y3.338 Z-1.000 F200.000
G2 X-69.706 Y2.301 Z-1.000 I-0.456 J-0.456 K0.000 F100.000
G2 X-70.265 Y3.463 Z-1.000 I-0.280 J0.581 K0.000 F100.000
G2 X-69.529 Y3.338 Z-1.000 I0.280 J-0.581 K0.000 F100.000
G1 X-69.529 Y3.338 Z-1.500 F200.000
G2 X-69.706 Y2.301 Z-1.500 I-0.456 J-0.456 K0.000 F100.000
G2 X-70.265 Y3.463 Z-1.500 I-0.280 J0.581 K0.000 F100.000
G2 X-69.529 Y3.338 Z-1.500 I0.280 J-0.581 K0.000 F100.000
G1 X-69.529 Y3.338 Z-2.000 F200.000
G2 X-69.706 Y2.301 Z-2.000 I-0.456 J-0.456 K0.000 F100.000
G2 X-70.265 Y3.463 Z-2.000 I-0.280 J0.581 K0.000 F100.000
G2 X-69.529 Y3.338 Z-2.000 I0.280 J-0.581 K0.000 F100.000
G1 X-69.529 Y3.338 Z-2.500 F200.000
G2 X-69.706 Y2.301 Z-2.500 I-0.456 J-0.456 K0.000 F100.000
G2 X-70.265 Y3.463 Z-2.500 I-0.280 J0.581 K0.000 F100.000
G2 X-69.529 Y3.338 Z-2.500 I0.280 J-0.581 K0.000 F100.000
G1 X-69.529 Y3.338 Z-3.000 F200.000
G2 X-69.706 Y2.301 Z-3.000 I-0.456 J-0.456 K0.000 F100.000
G2 X-70.265 Y3.463 Z-3.000 I-0.280 J0.581 K0.000 F100.000
G2 X-69.529 Y3.338 Z-3.000 I0.280 J-0.581 K0.000 F100.000
G0 Z5.000
G0 Z5.000
(Finish operation: Hole004)
(Begin operation: Hole005)
(Path: Hole005)
(Hole005)
(Compensated Tool Path. Diameter: 1.7)
G0 Z5.000
G0 X-69.529 Y11.338
G0 Z3.000
G1 X-69.529 Y11.338 Z-0.500 F200.000
G2 X-69.706 Y10.301 Z-0.500 I-0.456 J-0.456 K0.000 F100.000
G2 X-70.265 Y11.463 Z-0.500 I-0.280 J0.581 K0.000 F100.000
G2 X-69.529 Y11.338 Z-0.500 I0.280 J-0.581 K0.000 F100.000
G1 X-69.529 Y11.338 Z-1.000 F200.000
G2 X-69.706 Y10.301 Z-1.000 I-0.456 J-0.456 K0.000 F100.000
G2 X-70.265 Y11.463 Z-1.000 I-0.280 J0.581 K0.000 F100.000
G2 X-69.529 Y11.338 Z-1.000 I0.280 J-0.581 K0.000 F100.000
G1 X-69.529 Y11.338 Z-1.500 F200.000
G2 X-69.706 Y10.301 Z-1.500 I-0.456 J-0.456 K0.000 F100.000
G2 X-70.265 Y11.463 Z-1.500 I-0.280 J0.581 K0.000 F100.000
G2 X-69.529 Y11.338 Z-1.500 I0.280 J-0.581 K0.000 F100.000
G1 X-69.529 Y11.338 Z-2.000 F200.000
G2 X-69.706 Y10.301 Z-2.000 I-0.456 J-0.456 K0.000 F100.000
G2 X-70.265 Y11.463 Z-2.000 I-0.280 J0.581 K0.000 F100.000
G2 X-69.529 Y11.338 Z-2.000 I0.280 J-0.581 K0.000 F100.000
G1 X-69.529 Y11.338 Z-2.500 F200.000
G2 X-69.706 Y10.301 Z-2.500 I-0.456 J-0.456 K0.000 F100.000
G2 X-70.265 Y11.463 Z-2.500 I-0.280 J0.581 K0.000 F100.000
G2 X-69.529 Y11.338 Z-2.500 I0.280 J-0.581 K0.000 F100.000
G1 X-69.529 Y11.338 Z-3.000 F200.000
G2 X-69.706 Y10.301 Z-3.000 I-0.456 J-0.456 K0.000 F100.000
G2 X-70.265 Y11.463 Z-3.000 I-0.280 J0.581 K0.000 F100.000
G2 X-69.529 Y11.338 Z-3.000 I0.280 J-0.581 K0.000 F100.000
G0 Z5.000
G0 Z5.000
(Finish operation: Hole005)
(Begin operation: Hole006)
(Path: Hole006)
(Hole006)
(Compensated Tool Path. Diameter: 1.7)
G0 Z5.000
G0 X-109.529 Y3.338
G0 Z3.000
G1 X-109.529 Y3.338 Z-0.500 F200.000
G2 X-109.706 Y2.301 Z-0.500 I-0.456 J-0.456 K0.000 F100.000
G2 X-110.265 Y3.463 Z-0.500 I-0.280 J0.581 K0.000 F100.000
G2 X-109.529 Y3.338 Z-0.500 I0.280 J-0.581 K0.000 F100.000
G1 X-109.529 Y3.338 Z-1.000 F200.000
G2 X-109.706 Y2.301 Z-1.000 I-0.456 J-0.456 K0.000 F100.000
G2 X-110.265 Y3.463 Z-1.000 I-0.280 J0.581 K0.000 F100.000
G2 X-109.529 Y3.338 Z-1.000 I0.280 J-0.581 K0.000 F100.000
G1 X-109.529 Y3.338 Z-1.500 F200.000
G2 X-109.706 Y2.301 Z-1.500 I-0.456 J-0.456 K0.000 F100.000
G2 X-110.265 Y3.463 Z-1.500 I-0.280 J0.581 K0.000 F100.000
G2 X-109.529 Y3.338 Z-1.500 I0.280 J-0.581 K0.000 F100.000
G1 X-109.529 Y3.338 Z-2.000 F200.000
G2 X-109.706 Y2.301 Z-2.000 I-0.456 J-0.456 K0.000 F100.000
G2 X-110.265 Y3.463 Z-2.000 I-0.280 J0.581 K0.000 F100.000
G2 X-109.529 Y3.338 Z-2.000 I0.280 J-0.581 K0.000 F100.000
G1 X-109.529 Y3.338 Z-2.500 F200.000
G2 X-109.706 Y2.301 Z-2.500 I-0.456 J-0.456 K0.000 F100.000
G2 X-110.265 Y3.463 Z-2.500 I-0.280 J0.581 K0.000 F100.000
G2 X-109.529 Y3.338 Z-2.500 I0.280 J-0.581 K0.000 F100.000
G1 X-109.529 Y3.338 Z-3.000 F200.000
G2 X-109.706 Y2.301 Z-3.000 I-0.456 J-0.456 K0.000 F100.000
G2 X-110.265 Y3.463 Z-3.000 I-0.280 J0.581 K0.000 F100.000
G2 X-109.529 Y3.338 Z-3.000 I0.280 J-0.581 K0.000 F100.000
G0 Z5.000
G0 Z5.000
(Finish operation: Hole006)
(Begin operation: Hole007)
(Path: Hole007)
(Hole007)
(Compensated Tool Path. Diameter: 1.7)
G0 Z5.000
G0 X-109.529 Y11.338
G0 Z3.000
G1 X-109.529 Y11.338 Z-0.500 F200.000
G2 X-109.706 Y10.301 Z-0.500 I-0.456 J-0.456 K0.000 F100.000
G2 X-110.265 Y11.463 Z-0.500 I-0.280 J0.581 K0.000 F100.000
G2 X-109.529 Y11.338 Z-0.500 I0.280 J-0.581 K0.000 F100.000
G1 X-109.529 Y11.338 Z-1.000 F200.000
G2 X-109.706 Y10.301 Z-1.000 I-0.456 J-0.456 K0.000 F100.000
G2 X-110.265 Y11.463 Z-1.000 I-0.280 J0.581 K0.000 F100.000
G2 X-109.529 Y11.338 Z-1.000 I0.280 J-0.581 K0.000 F100.000
G1 X-109.529 Y11.338 Z-1.500 F200.000
G2 X-109.706 Y10.301 Z-1.500 I-0.456 J-0.456 K0.000 F100.000
G2 X-110.265 Y11.463 Z-1.500 I-0.280 J0.581 K0.000 F100.000
G2 X-109.529 Y11.338 Z-1.500 I0.280 J-0.581 K0.000 F100.000
G1 X-109.529 Y11.338 Z-2.000 F200.000
G2 X-109.706 Y10.301 Z-2.000 I-0.456 J-0.456 K0.000 F100.000
G2 X-110.265 Y11.463 Z-2.000 I-0.280 J0.581 K0.000 F100.000
G2 X-109.529 Y11.338 Z-2.000 I0.280 J-0.581 K0.000 F100.000
G1 X-109.529 Y11.338 Z-2.500 F200.000
G2 X-109.706 Y10.301 Z-2.500 I-0.456 J-0.456 K0.000 F100.000
G2 X-110.265 Y11.463 Z-2.500 I-0.280 J0.581 K0.000 F100.000
G2 X-109.529 Y11.338 Z-2.500 I0.280 J-0.581 K0.000 F100.000
G1 X-109.529 Y11.338 Z-3.000 F200.000
G2 X-109.706 Y10.301 Z-3.000 I-0.456 J-0.456 K0.000 F100.000
G2 X-110.265 Y11.463 Z-3.000 I-0.280 J0.581 K0.000 F100.000
G2 X-109.529 Y11.338 Z-3.000 I0.280 J-0.581 K0.000 F100.000
G0 Z5.000
G0 Z5.000
(Finish operation: Hole007)
(Begin operation: Hole008)
(Path: Hole008)
(Hole008)
(Compensated Tool Path. Diameter: 1.7)
G0 Z5.000
G0 X-149.529 Y3.338
G0 Z3.000
G1 X-149.529 Y3.338 Z-0.500 F200.000
G2 X-149.706 Y2.301 Z-0.500 I-0.456 J-0.456 K0.000 F100.000
G2 X-150.265 Y3.463 Z-0.500 I-0.280 J0.581 K0.000 F100.000
G2 X-149.529 Y3.338 Z-0.500 I0.280 J-0.581 K0.000 F100.000
G1 X-149.529 Y3.338 Z-1.000 F200.000
G2 X-149.706 Y2.301 Z-1.000 I-0.456 J-0.456 K0.000 F100.000
G2 X-150.265 Y3.463 Z-1.000 I-0.280 J0.581 K0.000 F100.000
G2 X-149.529 Y3.338 Z-1.000 I0.280 J-0.581 K0.000 F100.000
G1 X-149.529 Y3.338 Z-1.500 F200.000
G2 X-149.706 Y2.301 Z-1.500 I-0.456 J-0.456 K0.000 F100.000
G2 X-150.265 Y3.463 Z-1.500 I-0.280 J0.581 K0.000 F100.000
G2 X-149.529 Y3.338 Z-1.500 I0.280 J-0.581 K0.000 F100.000
G1 X-149.529 Y3.338 Z-2.000 F200.000
G2 X-149.706 Y2.301 Z-2.000 I-0.456 J-0.456 K0.000 F100.000
G2 X-150.265 Y3.463 Z-2.000 I-0.280 J0.581 K0.000 F100.000
G2 X-149.529 Y3.338 Z-2.000 I0.280 J-0.581 K0.000 F100.000
G1 X-149.529 Y3.338 Z-2.500 F200.000
G2 X-149.706 Y2.301 Z-2.500 I-0.456 J-0.456 K0.000 F100.000
G2 X-150.265 Y3.463 Z-2.500 I-0.280 J0.581 K0.000 F100.000
G2 X-149.529 Y3.338 Z-2.500 I0.280 J-0.581 K0.000 F100.000
G1 X-149.529 Y3.338 Z-3.000 F200.000
G2 X-149.706 Y2.301 Z-3.000 I-0.456 J-0.456 K0.000 F100.000
G2 X-150.265 Y3.463 Z-3.000 I-0.280 J0.581 K0.000 F100.000
G2 X-149.529 Y3.338 Z-3.000 I0.280 J-0.581 K0.000 F100.000
G0 Z5.000
G0 Z5.000
(Finish operation: Hole008)
(Begin operation: Hole009)
(Path: Hole009)
(Hole009)
(Compensated Tool Path. Diameter: 1.7)
G0 Z5.000
G0 X-149.529 Y11.338
G0 Z3.000
G1 X-149.529 Y11.338 Z-0.500 F200.000
G2 X-149.706 Y10.301 Z-0.500 I-0.456 J-0.456 K0.000 F100.000
G2 X-150.265 Y11.463 Z-0.500 I-0.280 J0.581 K0.000 F100.000
G2 X-149.529 Y11.338 Z-0.500 I0.280 J-0.581 K0.000 F100.000
G1 X-149.529 Y11.338 Z-1.000 F200.000
G2 X-149.706 Y10.301 Z-1.000 I-0.456 J-0.456 K0.000 F100.000
G2 X-150.265 Y11.463 Z-1.000 I-0.280 J0.581 K0.000 F100.000
G2 X-149.529 Y11.338 Z-1.000 I0.280 J-0.581 K0.000 F100.000
G1 X-149.529 Y11.338 Z-1.500 F200.000
G2 X-149.706 Y10.301 Z-1.500 I-0.456 J-0.456 K0.000 F100.000
G2 X-150.265 Y11.463 Z-1.500 I-0.280 J0.581 K0.000 F100.000
G2 X-149.529 Y11.338 Z-1.500 I0.280 J-0.581 K0.000 F100.000
G1 X-149.529 Y11.338 Z-2.000 F200.000
G2 X-149.706 Y10.301 Z-2.000 I-0.456 J-0.456 K0.000 F100.000
G2 X-150.265 Y11.463 Z-2.000 I-0.280 J0.581 K0.000 F100.000
G2 X-149.529 Y11.338 Z-2.000 I0.280 J-0.581 K0.000 F100.000
G1 X-149.529 Y11.338 Z-2.500 F200.000
G2 X-149.706 Y10.301 Z-2.500 I-0.456 J-0.456 K0.000 F100.000
G2 X-150.265 Y11.463 Z-2.500 I-0.280 J0.581 K0.000 F100.000
G2 X-149.529 Y11.338 Z-2.500 I0.280 J-0.581 K0.000 F100.000
G1 X-149.529 Y11.338 Z-3.000 F200.000
G2 X-149.706 Y10.301 Z-3.000 I-0.456 J-0.456 K0.000 F100.000
G2 X-150.265 Y11.463 Z-3.000 I-0.280 J0.581 K0.000 F100.000
G2 X-149.529 Y11.338 Z-3.000 I0.280 J-0.581 K0.000 F100.000
G0 Z5.000
G0 Z5.000
(Finish operation: Hole009)
(Begin operation: Hole010)
(Path: Hole010)
(Hole010)
(Compensated Tool Path. Diameter: 1.7)
G0 Z5.000
G0 X-149.175 Y50.692
G0 Z3.000
G1 X-149.175 Y50.692 Z-0.500 F200.000
G2 X-149.547 Y48.823 Z-0.500 I-0.810 J-0.810 K0.000 F100.000
G2 X-150.424 Y50.941 Z-0.500 I-0.439 J1.059 K0.000 F100.000
G2 X-149.175 Y50.692 Z-0.500 I0.439 J-1.059 K0.000 F100.000
G1 X-149.175 Y50.692 Z-1.000 F200.000
G2 X-149.547 Y48.823 Z-1.000 I-0.810 J-0.810 K0.000 F100.000
G2 X-150.424 Y50.941 Z-1.000 I-0.439 J1.059 K0.000 F100.000
G2 X-149.175 Y50.692 Z-1.000 I0.439 J-1.059 K0.000 F100.000
G1 X-149.175 Y50.692 Z-1.500 F200.000
G2 X-149.547 Y48.823 Z-1.500 I-0.810 J-0.810 K0.000 F100.000
G2 X-150.424 Y50.941 Z-1.500 I-0.439 J1.059 K0.000 F100.000
G2 X-149.175 Y50.692 Z-1.500 I0.439 J-1.059 K0.000 F100.000
G1 X-149.175 Y50.692 Z-2.000 F200.000
G2 X-149.547 Y48.823 Z-2.000 I-0.810 J-0.810 K0.000 F100.000
G2 X-150.424 Y50.941 Z-2.000 I-0.439 J1.059 K0.000 F100.000
G2 X-149.175 Y50.692 Z-2.000 I0.439 J-1.059 K0.000 F100.000
G1 X-149.175 Y50.692 Z-2.500 F200.000
G2 X-149.547 Y48.823 Z-2.500 I-0.810 J-0.810 K0.000 F100.000
G2 X-150.424 Y50.941 Z-2.500 I-0.439 J1.059 K0.000 F100.000
G2 X-149.175 Y50.692 Z-2.500 I0.439 J-1.059 K0.000 F100.000
G1 X-149.175 Y50.692 Z-3.000 F200.000
G2 X-149.547 Y48.823 Z-3.000 I-0.810 J-0.810 K0.000 F100.000
G2 X-150.424 Y50.941 Z-3.000 I-0.439 J1.059 K0.000 F100.000
G2 X-149.175 Y50.692 Z-3.000 I0.439 J-1.059 K0.000 F100.000
G0 Z5.000
G0 Z5.000
(Finish operation: Hole010)
(Begin operation: DressupTag001)
(Path: DressupTag001)
G0 Z5.000
G0 X-103.835 Y24.032 Z5.000
G0 X-103.835 Y24.032 Z3.000
G1 X-103.835 Y24.032 Z-0.500 F200.000
G1 X-103.835 Y20.732 Z-0.500 F100.000
G1 X-124.135 Y20.732 Z-0.500 F100.000
G1 X-124.135 Y24.032 Z-0.500 F100.000
G1 X-103.835 Y24.032 Z-0.500 F100.000
G1 X-103.835 Y24.032 Z-1.000 F200.000
G1 X-103.835 Y20.732 Z-1.000 F100.000
G1 X-124.135 Y20.732 Z-1.000 F100.000
G1 X-124.135 Y24.032 Z-1.000 F100.000
G1 X-103.835 Y24.032 Z-1.000 F100.000
G1 X-103.835 Y24.032 Z-1.500 F200.000
G1 X-103.835 Y20.732 Z-1.500 F100.000
G1 X-124.135 Y20.732 Z-1.500 F100.000
G1 X-124.135 Y24.032 Z-1.500 F100.000
G1 X-103.835 Y24.032 Z-1.500 F100.000
G1 X-103.835 Y24.032 Z-2.000 F200.000
G1 X-103.835 Y20.732 Z-2.000 F100.000
G1 X-124.135 Y20.732 Z-2.000 F100.000
G1 X-124.135 Y24.032 Z-2.000 F100.000
G1 X-103.835 Y24.032 Z-2.000 F100.000
G1 X-103.835 Y24.032 Z-2.500 F200.000
G1 X-103.835 Y20.732 Z-2.500 F100.000
G1 X-124.135 Y20.732 Z-2.500 F100.000
G1 X-124.135 Y24.032 Z-2.500 F100.000
G1 X-103.835 Y24.032 Z-2.500 F100.000
G1 X-103.835 Y24.032 Z-3.000 F200.000
G1 X-103.835 Y20.732 Z-3.000 F100.000
G1 X-107.810 Y20.732 Z-3.000 F100.000
G1 X-107.810 Y20.732 Z-2.800 F200.000
G1 X-110.010 Y20.732 Z-2.800 F100.000
G1 X-110.010 Y20.732 Z-3.000 F200.000
G1 X-117.960 Y20.732 Z-3.000 F100.000
G1 X-117.960 Y20.732 Z-2.800 F200.000
G1 X-120.160 Y20.732 Z-2.800 F100.000
G1 X-120.160 Y20.732 Z-3.000 F200.000
G1 X-124.135 Y20.732 Z-3.000 F100.000
G1 X-124.135 Y24.032 Z-3.000 F100.000
G1 X-120.160 Y24.032 Z-3.000 F100.000
G1 X-120.160 Y24.032 Z-2.800 F200.000
G1 X-117.960 Y24.032 Z-2.800 F100.000
G1 X-117.960 Y24.032 Z-3.000 F200.000
G1 X-110.010 Y24.032 Z-3.000 F100.000
G1 X-110.010 Y24.032 Z-2.800 F200.000
G1 X-107.810 Y24.032 Z-2.800 F100.000
G1 X-107.810 Y24.032 Z-3.000 F200.000
G1 X-103.835 Y24.032 Z-3.000 F100.000
G0 X-103.835 Y24.032 Z5.000
(Finish operation: DressupTag001)
(Begin operation: DressupTag)
(Path: DressupTag)
G0 Z5.000
G0 X0.616 Y60.483 Z5.000
G0 X0.616 Y60.483 Z3.000
G1 X0.616 Y60.483 Z-0.500 F200.000
G2 X0.865 Y59.882 Z-0.500 I-0.601 J-0.601 K0.000 F100.000
G1 X0.865 Y24.882 Z-0.500 F100.000
G2 X0.015 Y24.032 Z-0.500 I-0.850 J-0.000 K0.000 F100.000
G1 X-19.135 Y24.032 Z-0.500 F100.000
G1 X-19.135 Y15.732 Z-0.500 F100.000
G1 X0.015 Y15.732 Z-0.500 F100.000
G2 X0.865 Y14.882 Z-0.500 I0.000 J-0.850 K0.000 F100.000
G1 X0.865 Y3.882 Z-0.500 F100.000
G2 X-3.930 Y-0.966 Z-0.500 I-4.851 J0.003 K0.000 F100.000
G1 X-155.985 Y-0.968 Z-0.500 F100.000
G2 X-160.833 Y3.826 Z-0.500 I0.003 J4.851 K0.000 F100.000
G1 X-160.835 Y59.882 Z-0.500 F100.000
G2 X-159.985 Y60.732 Z-0.500 I0.850 J0.000 K0.000 F100.000
G1 X0.015 Y60.732 Z-0.500 F100.000
G2 X0.616 Y60.483 Z-0.500 I0.000 J-0.850 K0.000 F100.000
G1 X0.616 Y60.483 Z-1.000 F200.000
G2 X0.865 Y59.882 Z-1.000 I-0.601 J-0.601 K0.000 F100.000
G1 X0.865 Y24.882 Z-1.000 F100.000
G2 X0.015 Y24.032 Z-1.000 I-0.850 J-0.000 K0.000 F100.000
G1 X-19.135 Y24.032 Z-1.000 F100.000
G1 X-19.135 Y15.732 Z-1.000 F100.000
G1 X0.015 Y15.732 Z-1.000 F100.000
G2 X0.865 Y14.882 Z-1.000 I0.000 J-0.850 K0.000 F100.000
G1 X0.865 Y3.882 Z-1.000 F100.000
G2 X-3.930 Y-0.966 Z-1.000 I-4.851 J0.003 K0.000 F100.000
G1 X-155.985 Y-0.968 Z-1.000 F100.000
G2 X-160.833 Y3.826 Z-1.000 I0.003 J4.851 K0.000 F100.000
G1 X-160.835 Y59.882 Z-1.000 F100.000
G2 X-159.985 Y60.732 Z-1.000 I0.850 J0.000 K0.000 F100.000
G1 X0.015 Y60.732 Z-1.000 F100.000
G2 X0.616 Y60.483 Z-1.000 I0.000 J-0.850 K0.000 F100.000
G1 X0.616 Y60.483 Z-1.500 F200.000
G2 X0.865 Y59.882 Z-1.500 I-0.601 J-0.601 K0.000 F100.000
G1 X0.865 Y24.882 Z-1.500 F100.000
G2 X0.015 Y24.032 Z-1.500 I-0.850 J-0.000 K0.000 F100.000
G1 X-19.135 Y24.032 Z-1.500 F100.000
G1 X-19.135 Y15.732 Z-1.500 F100.000
G1 X0.015 Y15.732 Z-1.500 F100.000
G2 X0.865 Y14.882 Z-1.500 I0.000 J-0.850 K0.000 F100.000
G1 X0.865 Y3.882 Z-1.500 F100.000
G2 X-3.930 Y-0.966 Z-1.500 I-4.851 J0.003 K0.000 F100.000
G1 X-155.985 Y-0.968 Z-1.500 F100.000
G2 X-160.833 Y3.826 Z-1.500 I0.003 J4.851 K0.000 F100.000
G1 X-160.835 Y59.882 Z-1.500 F100.000
G2 X-159.985 Y60.732 Z-1.500 I0.850 J0.000 K0.000 F100.000
G1 X0.015 Y60.732 Z-1.500 F100.000
G2 X0.616 Y60.483 Z-1.500 I0.000 J-0.850 K0.000 F100.000
G1 X0.616 Y60.483 Z-2.000 F200.000
G2 X0.865 Y59.882 Z-2.000 I-0.601 J-0.601 K0.000 F100.000
G1 X0.865 Y24.882 Z-2.000 F100.000
G2 X0.015 Y24.032 Z-2.000 I-0.850 J-0.000 K0.000 F100.000
G1 X-19.135 Y24.032 Z-2.000 F100.000
G1 X-19.135 Y15.732 Z-2.000 F100.000
G1 X0.015 Y15.732 Z-2.000 F100.000
G2 X0.865 Y14.882 Z-2.000 I0.000 J-0.850 K0.000 F100.000
G1 X0.865 Y3.882 Z-2.000 F100.000
G2 X-3.930 Y-0.966 Z-2.000 I-4.851 J0.003 K0.000 F100.000
G1 X-155.985 Y-0.968 Z-2.000 F100.000
G2 X-160.833 Y3.826 Z-2.000 I0.003 J4.851 K0.000 F100.000
G1 X-160.835 Y59.882 Z-2.000 F100.000
G2 X-159.985 Y60.732 Z-2.000 I0.850 J0.000 K0.000 F100.000
G1 X0.015 Y60.732 Z-2.000 F100.000
G2 X0.616 Y60.483 Z-2.000 I0.000 J-0.850 K0.000 F100.000
G1 X0.616 Y60.483 Z-2.500 F200.000
G2 X0.865 Y59.882 Z-2.500 I-0.601 J-0.601 K0.000 F100.000
G1 X0.865 Y24.882 Z-2.500 F100.000
G2 X0.015 Y24.032 Z-2.500 I-0.850 J-0.000 K0.000 F100.000
G1 X-19.135 Y24.032 Z-2.500 F100.000
G1 X-19.135 Y15.732 Z-2.500 F100.000
G1 X0.015 Y15.732 Z-2.500 F100.000
G2 X0.865 Y14.882 Z-2.500 I0.000 J-0.850 K0.000 F100.000
G1 X0.865 Y3.882 Z-2.500 F100.000
G2 X-3.930 Y-0.966 Z-2.500 I-4.851 J0.003 K0.000 F100.000
G1 X-155.985 Y-0.968 Z-2.500 F100.000
G2 X-160.833 Y3.826 Z-2.500 I0.003 J4.851 K0.000 F100.000
G1 X-160.835 Y59.882 Z-2.500 F100.000
G2 X-159.985 Y60.732 Z-2.500 I0.850 J0.000 K0.000 F100.000
G1 X0.015 Y60.732 Z-2.500 F100.000
G2 X0.616 Y60.483 Z-2.500 I0.000 J-0.850 K0.000 F100.000
G1 X0.616 Y60.483 Z-3.000 F200.000
G2 X0.865 Y59.882 Z-3.000 I-0.601 J-0.601 K0.000 F100.000
G1 X0.865 Y24.882 Z-3.000 F100.000
G2 X0.015 Y24.032 Z-3.000 I-0.850 J-0.000 K0.000 F100.000
G1 X-19.135 Y24.032 Z-3.000 F100.000
G1 X-19.135 Y15.732 Z-3.000 F100.000
G1 X0.015 Y15.732 Z-3.000 F100.000
G2 X0.865 Y14.882 Z-3.000 I0.000 J-0.850 K0.000 F100.000
G1 X0.865 Y3.882 Z-3.000 F100.000
G2 X-3.930 Y-0.966 Z-3.000 I-4.851 J0.003 K0.000 F100.000
G1 X-38.594 Y-0.967 Z-3.000 F100.000
G1 X-38.594 Y-0.967 Z-2.800 F200.000
G1 X-45.294 Y-0.967 Z-2.800 F100.000
G1 X-45.294 Y-0.967 Z-3.000 F200.000
G1 X-114.621 Y-0.968 Z-3.000 F100.000
G1 X-114.621 Y-0.968 Z-2.800 F200.000
G1 X-121.321 Y-0.968 Z-2.800 F100.000
G1 X-121.321 Y-0.968 Z-3.000 F200.000
G1 X-155.985 Y-0.968 Z-3.000 F100.000
G2 X-160.833 Y3.826 Z-3.000 I0.003 J4.851 K0.000 F100.000
G1 X-160.835 Y59.882 Z-3.000 F100.000
G2 X-159.985 Y60.732 Z-3.000 I0.850 J0.000 K0.000 F100.000
G1 X-123.335 Y60.732 Z-3.000 F100.000
G1 X-123.335 Y60.732 Z-2.800 F200.000
G1 X-116.635 Y60.732 Z-2.800 F100.000
G1 X-116.635 Y60.732 Z-3.000 F200.000
G1 X-43.335 Y60.732 Z-3.000 F100.000
G1 X-43.335 Y60.732 Z-2.800 F200.000
G1 X-36.635 Y60.732 Z-2.800 F100.000
G1 X-36.635 Y60.732 Z-3.000 F200.000
G1 X0.015 Y60.732 Z-3.000 F100.000
G2 X0.616 Y60.483 Z-3.000 I0.000 J-0.850 K0.000 F100.000
G0 X0.616 Y60.483 Z5.000
(Finish operation: DressupTag)
(Begin postamble)
M5
G17 G90
M2
