(Exported by FreeCAD)
(Post Processor: grbl_post)
(Output Time:2023-07-06 20:02:48.755680)
(Begin preamble)
G17 G90
G21
(Begin operation: G54)
(Path: G54)
G54
G0 Z5.000
(Finish operation: G54)
(Begin operation: kukuruza-1.7-7-3.176)
(Path: kukuruza-1.7-7-3.176)
(kukuruza-1.7-7-3.176)
(Begin toolchange)
( M6 T2 )
M3 S1200
(Finish operation: kukuruza-1.7-7-3.176)
(Begin operation: Hole001)
(Path: Hole001)
(Hole001)
(Compensated Tool Path. Diameter: 1.7)
G0 Z5.000
G0 X-9.340 Y3.681
G0 Z3.000
G1 X-9.340 Y3.681 Z-0.500 F200.000
G2 X-9.696 Y2.196 Z-0.500 I-0.633 J-0.633 K0.000 F100.000
G1 X-9.882 Y2.156 Z-0.500 F100.000
G2 X-10.238 Y3.903 Z-0.500 I-0.091 J0.891 K0.000 F100.000
G2 X-9.340 Y3.681 Z-0.500 I0.265 J-0.855 K0.000 F100.000
G1 X-9.340 Y3.681 Z-1.000 F200.000
G2 X-9.696 Y2.196 Z-1.000 I-0.633 J-0.633 K0.000 F100.000
G1 X-9.882 Y2.156 Z-1.000 F100.000
G2 X-10.238 Y3.903 Z-1.000 I-0.091 J0.891 K0.000 F100.000
G2 X-9.340 Y3.681 Z-1.000 I0.265 J-0.855 K0.000 F100.000
G1 X-9.340 Y3.681 Z-1.500 F200.000
G2 X-9.696 Y2.196 Z-1.500 I-0.633 J-0.633 K0.000 F100.000
G1 X-9.882 Y2.156 Z-1.500 F100.000
G2 X-10.238 Y3.903 Z-1.500 I-0.091 J0.891 K0.000 F100.000
G2 X-9.340 Y3.681 Z-1.500 I0.265 J-0.855 K0.000 F100.000
G1 X-9.340 Y3.681 Z-2.000 F200.000
G2 X-9.696 Y2.196 Z-2.000 I-0.633 J-0.633 K0.000 F100.000
G1 X-9.882 Y2.156 Z-2.000 F100.000
G2 X-10.238 Y3.903 Z-2.000 I-0.091 J0.891 K0.000 F100.000
G2 X-9.340 Y3.681 Z-2.000 I0.265 J-0.855 K0.000 F100.000
G1 X-9.340 Y3.681 Z-2.500 F200.000
G2 X-9.696 Y2.196 Z-2.500 I-0.633 J-0.633 K0.000 F100.000
G1 X-9.882 Y2.156 Z-2.500 F100.000
G2 X-10.238 Y3.903 Z-2.500 I-0.091 J0.891 K0.000 F100.000
G2 X-9.340 Y3.681 Z-2.500 I0.265 J-0.855 K0.000 F100.000
G1 X-9.340 Y3.681 Z-3.000 F200.000
G2 X-9.696 Y2.196 Z-3.000 I-0.633 J-0.633 K0.000 F100.000
G1 X-9.882 Y2.156 Z-3.000 F100.000
G2 X-10.238 Y3.903 Z-3.000 I-0.091 J0.891 K0.000 F100.000
G2 X-9.340 Y3.681 Z-3.000 I0.265 J-0.855 K0.000 F100.000
G0 Z5.000
G0 Z5.000
(Finish operation: Hole001)
(Begin operation: Hole002)
(Path: Hole002)
(Hole002)
(Compensated Tool Path. Diameter: 1.7)
G0 Z5.000
G0 X-9.340 Y11.681
G0 Z3.000
G1 X-9.340 Y11.681 Z-0.500 F200.000
G2 X-9.696 Y10.196 Z-0.500 I-0.633 J-0.633 K0.000 F100.000
G1 X-9.882 Y10.156 Z-0.500 F100.000
G2 X-10.238 Y11.903 Z-0.500 I-0.091 J0.891 K0.000 F100.000
G2 X-9.340 Y11.681 Z-0.500 I0.265 J-0.855 K0.000 F100.000
G1 X-9.340 Y11.681 Z-1.000 F200.000
G2 X-9.696 Y10.196 Z-1.000 I-0.633 J-0.633 K0.000 F100.000
G1 X-9.882 Y10.156 Z-1.000 F100.000
G2 X-10.238 Y11.903 Z-1.000 I-0.091 J0.891 K0.000 F100.000
G2 X-9.340 Y11.681 Z-1.000 I0.265 J-0.855 K0.000 F100.000
G1 X-9.340 Y11.681 Z-1.500 F200.000
G2 X-9.696 Y10.196 Z-1.500 I-0.633 J-0.633 K0.000 F100.000
G1 X-9.882 Y10.156 Z-1.500 F100.000
G2 X-10.238 Y11.903 Z-1.500 I-0.091 J0.891 K0.000 F100.000
G2 X-9.340 Y11.681 Z-1.500 I0.265 J-0.855 K0.000 F100.000
G1 X-9.340 Y11.681 Z-2.000 F200.000
G2 X-9.696 Y10.196 Z-2.000 I-0.633 J-0.633 K0.000 F100.000
G1 X-9.882 Y10.156 Z-2.000 F100.000
G2 X-10.238 Y11.903 Z-2.000 I-0.091 J0.891 K0.000 F100.000
G2 X-9.340 Y11.681 Z-2.000 I0.265 J-0.855 K0.000 F100.000
G1 X-9.340 Y11.681 Z-2.500 F200.000
G2 X-9.696 Y10.196 Z-2.500 I-0.633 J-0.633 K0.000 F100.000
G1 X-9.882 Y10.156 Z-2.500 F100.000
G2 X-10.238 Y11.903 Z-2.500 I-0.091 J0.891 K0.000 F100.000
G2 X-9.340 Y11.681 Z-2.500 I0.265 J-0.855 K0.000 F100.000
G1 X-9.340 Y11.681 Z-3.000 F200.000
G2 X-9.696 Y10.196 Z-3.000 I-0.633 J-0.633 K0.000 F100.000
G1 X-9.882 Y10.156 Z-3.000 F100.000
G2 X-10.238 Y11.903 Z-3.000 I-0.091 J0.891 K0.000 F100.000
G2 X-9.340 Y11.681 Z-3.000 I0.265 J-0.855 K0.000 F100.000
G0 Z5.000
G0 Z5.000
(Finish operation: Hole002)
(Begin operation: Hole003)
(Path: Hole003)
(Hole003)
(Compensated Tool Path. Diameter: 1.7)
G0 Z5.000
G0 X-9.340 Y23.681
G0 Z3.000
G1 X-9.340 Y23.681 Z-0.500 F200.000
G2 X-9.696 Y22.196 Z-0.500 I-0.633 J-0.633 K0.000 F100.000
G1 X-9.882 Y22.156 Z-0.500 F100.000
G2 X-10.238 Y23.903 Z-0.500 I-0.091 J0.891 K0.000 F100.000
G2 X-9.340 Y23.681 Z-0.500 I0.265 J-0.855 K0.000 F100.000
G1 X-9.340 Y23.681 Z-1.000 F200.000
G2 X-9.696 Y22.196 Z-1.000 I-0.633 J-0.633 K0.000 F100.000
G1 X-9.882 Y22.156 Z-1.000 F100.000
G2 X-10.238 Y23.903 Z-1.000 I-0.091 J0.891 K0.000 F100.000
G2 X-9.340 Y23.681 Z-1.000 I0.265 J-0.855 K0.000 F100.000
G1 X-9.340 Y23.681 Z-1.500 F200.000
G2 X-9.696 Y22.196 Z-1.500 I-0.633 J-0.633 K0.000 F100.000
G1 X-9.882 Y22.156 Z-1.500 F100.000
G2 X-10.238 Y23.903 Z-1.500 I-0.091 J0.891 K0.000 F100.000
G2 X-9.340 Y23.681 Z-1.500 I0.265 J-0.855 K0.000 F100.000
G1 X-9.340 Y23.681 Z-2.000 F200.000
G2 X-9.696 Y22.196 Z-2.000 I-0.633 J-0.633 K0.000 F100.000
G1 X-9.882 Y22.156 Z-2.000 F100.000
G2 X-10.238 Y23.903 Z-2.000 I-0.091 J0.891 K0.000 F100.000
G2 X-9.340 Y23.681 Z-2.000 I0.265 J-0.855 K0.000 F100.000
G1 X-9.340 Y23.681 Z-2.500 F200.000
G2 X-9.696 Y22.196 Z-2.500 I-0.633 J-0.633 K0.000 F100.000
G1 X-9.882 Y22.156 Z-2.500 F100.000
G2 X-10.238 Y23.903 Z-2.500 I-0.091 J0.891 K0.000 F100.000
G2 X-9.340 Y23.681 Z-2.500 I0.265 J-0.855 K0.000 F100.000
G1 X-9.340 Y23.681 Z-3.000 F200.000
G2 X-9.696 Y22.196 Z-3.000 I-0.633 J-0.633 K0.000 F100.000
G1 X-9.882 Y22.156 Z-3.000 F100.000
G2 X-10.238 Y23.903 Z-3.000 I-0.091 J0.891 K0.000 F100.000
G2 X-9.340 Y23.681 Z-3.000 I0.265 J-0.855 K0.000 F100.000
G0 Z5.000
G0 Z5.000
(Finish operation: Hole003)
(Begin operation: Hole004)
(Path: Hole004)
(Hole004)
(Compensated Tool Path. Diameter: 1.7)
G0 Z5.000
G0 X-9.340 Y31.681
G0 Z3.000
G1 X-9.340 Y31.681 Z-0.500 F200.000
G2 X-9.696 Y30.196 Z-0.500 I-0.633 J-0.633 K0.000 F100.000
G1 X-9.882 Y30.156 Z-0.500 F100.000
G2 X-10.238 Y31.903 Z-0.500 I-0.091 J0.891 K0.000 F100.000
G2 X-9.340 Y31.681 Z-0.500 I0.265 J-0.855 K0.000 F100.000
G1 X-9.340 Y31.681 Z-1.000 F200.000
G2 X-9.696 Y30.196 Z-1.000 I-0.633 J-0.633 K0.000 F100.000
G1 X-9.882 Y30.156 Z-1.000 F100.000
G2 X-10.238 Y31.903 Z-1.000 I-0.091 J0.891 K0.000 F100.000
G2 X-9.340 Y31.681 Z-1.000 I0.265 J-0.855 K0.000 F100.000
G1 X-9.340 Y31.681 Z-1.500 F200.000
G2 X-9.696 Y30.196 Z-1.500 I-0.633 J-0.633 K0.000 F100.000
G1 X-9.882 Y30.156 Z-1.500 F100.000
G2 X-10.238 Y31.903 Z-1.500 I-0.091 J0.891 K0.000 F100.000
G2 X-9.340 Y31.681 Z-1.500 I0.265 J-0.855 K0.000 F100.000
G1 X-9.340 Y31.681 Z-2.000 F200.000
G2 X-9.696 Y30.196 Z-2.000 I-0.633 J-0.633 K0.000 F100.000
G1 X-9.882 Y30.156 Z-2.000 F100.000
G2 X-10.238 Y31.903 Z-2.000 I-0.091 J0.891 K0.000 F100.000
G2 X-9.340 Y31.681 Z-2.000 I0.265 J-0.855 K0.000 F100.000
G1 X-9.340 Y31.681 Z-2.500 F200.000
G2 X-9.696 Y30.196 Z-2.500 I-0.633 J-0.633 K0.000 F100.000
G1 X-9.882 Y30.156 Z-2.500 F100.000
G2 X-10.238 Y31.903 Z-2.500 I-0.091 J0.891 K0.000 F100.000
G2 X-9.340 Y31.681 Z-2.500 I0.265 J-0.855 K0.000 F100.000
G1 X-9.340 Y31.681 Z-3.000 F200.000
G2 X-9.696 Y30.196 Z-3.000 I-0.633 J-0.633 K0.000 F100.000
G1 X-9.882 Y30.156 Z-3.000 F100.000
G2 X-10.238 Y31.903 Z-3.000 I-0.091 J0.891 K0.000 F100.000
G2 X-9.340 Y31.681 Z-3.000 I0.265 J-0.855 K0.000 F100.000
G0 Z5.000
G0 Z5.000
(Finish operation: Hole004)
(Begin operation: Hole005)
(Path: Hole005)
(Hole005)
(Compensated Tool Path. Diameter: 1.7)
G0 Z5.000
G0 X-9.127 Y46.893
G0 Z3.000
G1 X-9.127 Y46.893 Z-0.500 F200.000
G2 X-9.515 Y44.942 Z-0.500 I-0.846 J-0.846 K0.000 F100.000
G2 X-10.430 Y47.152 Z-0.500 I-0.458 J1.105 K0.000 F100.000
G2 X-9.127 Y46.893 Z-0.500 I0.458 J-1.105 K0.000 F100.000
G1 X-9.127 Y46.893 Z-1.000 F200.000
G2 X-9.515 Y44.942 Z-1.000 I-0.846 J-0.846 K0.000 F100.000
G2 X-10.430 Y47.152 Z-1.000 I-0.458 J1.105 K0.000 F100.000
G2 X-9.127 Y46.893 Z-1.000 I0.458 J-1.105 K0.000 F100.000
G1 X-9.127 Y46.893 Z-1.500 F200.000
G2 X-9.515 Y44.942 Z-1.500 I-0.846 J-0.846 K0.000 F100.000
G2 X-10.430 Y47.152 Z-1.500 I-0.458 J1.105 K0.000 F100.000
G2 X-9.127 Y46.893 Z-1.500 I0.458 J-1.105 K0.000 F100.000
G1 X-9.127 Y46.893 Z-2.000 F200.000
G2 X-9.515 Y44.942 Z-2.000 I-0.846 J-0.846 K0.000 F100.000
G2 X-10.430 Y47.152 Z-2.000 I-0.458 J1.105 K0.000 F100.000
G2 X-9.127 Y46.893 Z-2.000 I0.458 J-1.105 K0.000 F100.000
G1 X-9.127 Y46.893 Z-2.500 F200.000
G2 X-9.515 Y44.942 Z-2.500 I-0.846 J-0.846 K0.000 F100.000
G2 X-10.430 Y47.152 Z-2.500 I-0.458 J1.105 K0.000 F100.000
G2 X-9.127 Y46.893 Z-2.500 I0.458 J-1.105 K0.000 F100.000
G1 X-9.127 Y46.893 Z-3.000 F200.000
G2 X-9.515 Y44.942 Z-3.000 I-0.846 J-0.846 K0.000 F100.000
G2 X-10.430 Y47.152 Z-3.000 I-0.458 J1.105 K0.000 F100.000
G2 X-9.127 Y46.893 Z-3.000 I0.458 J-1.105 K0.000 F100.000
G0 Z5.000
G0 Z5.000
(Finish operation: Hole005)
(Begin operation: Hole006)
(Path: Hole006)
(Hole006)
(Compensated Tool Path. Diameter: 1.7)
G0 Z5.000
G0 X-49.340 Y3.681
G0 Z3.000
G1 X-49.340 Y3.681 Z-0.500 F200.000
G2 X-49.696 Y2.196 Z-0.500 I-0.633 J-0.633 K0.000 F100.000
G1 X-49.882 Y2.156 Z-0.500 F100.000
G2 X-50.238 Y3.903 Z-0.500 I-0.091 J0.891 K0.000 F100.000
G2 X-49.340 Y3.681 Z-0.500 I0.265 J-0.855 K0.000 F100.000
G1 X-49.340 Y3.681 Z-1.000 F200.000
G2 X-49.696 Y2.196 Z-1.000 I-0.633 J-0.633 K0.000 F100.000
G1 X-49.882 Y2.156 Z-1.000 F100.000
G2 X-50.238 Y3.903 Z-1.000 I-0.091 J0.891 K0.000 F100.000
G2 X-49.340 Y3.681 Z-1.000 I0.265 J-0.855 K0.000 F100.000
G1 X-49.340 Y3.681 Z-1.500 F200.000
G2 X-49.696 Y2.196 Z-1.500 I-0.633 J-0.633 K0.000 F100.000
G1 X-49.882 Y2.156 Z-1.500 F100.000
G2 X-50.238 Y3.903 Z-1.500 I-0.091 J0.891 K0.000 F100.000
G2 X-49.340 Y3.681 Z-1.500 I0.265 J-0.855 K0.000 F100.000
G1 X-49.340 Y3.681 Z-2.000 F200.000
G2 X-49.696 Y2.196 Z-2.000 I-0.633 J-0.633 K0.000 F100.000
G1 X-49.882 Y2.156 Z-2.000 F100.000
G2 X-50.238 Y3.903 Z-2.000 I-0.091 J0.891 K0.000 F100.000
G2 X-49.340 Y3.681 Z-2.000 I0.265 J-0.855 K0.000 F100.000
G1 X-49.340 Y3.681 Z-2.500 F200.000
G2 X-49.696 Y2.196 Z-2.500 I-0.633 J-0.633 K0.000 F100.000
G1 X-49.882 Y2.156 Z-2.500 F100.000
G2 X-50.238 Y3.903 Z-2.500 I-0.091 J0.891 K0.000 F100.000
G2 X-49.340 Y3.681 Z-2.500 I0.265 J-0.855 K0.000 F100.000
G1 X-49.340 Y3.681 Z-3.000 F200.000
G2 X-49.696 Y2.196 Z-3.000 I-0.633 J-0.633 K0.000 F100.000
G1 X-49.882 Y2.156 Z-3.000 F100.000
G2 X-50.238 Y3.903 Z-3.000 I-0.091 J0.891 K0.000 F100.000
G2 X-49.340 Y3.681 Z-3.000 I0.265 J-0.855 K0.000 F100.000
G0 Z5.000
G0 Z5.000
(Finish operation: Hole006)
(Begin operation: Hole007)
(Path: Hole007)
(Hole007)
(Compensated Tool Path. Diameter: 1.7)
G0 Z5.000
G0 X-49.340 Y11.681
G0 Z3.000
G1 X-49.340 Y11.681 Z-0.500 F200.000
G2 X-49.696 Y10.196 Z-0.500 I-0.633 J-0.633 K0.000 F100.000
G1 X-49.882 Y10.156 Z-0.500 F100.000
G2 X-50.238 Y11.903 Z-0.500 I-0.091 J0.891 K0.000 F100.000
G2 X-49.340 Y11.681 Z-0.500 I0.265 J-0.855 K0.000 F100.000
G1 X-49.340 Y11.681 Z-1.000 F200.000
G2 X-49.696 Y10.196 Z-1.000 I-0.633 J-0.633 K0.000 F100.000
G1 X-49.882 Y10.156 Z-1.000 F100.000
G2 X-50.238 Y11.903 Z-1.000 I-0.091 J0.891 K0.000 F100.000
G2 X-49.340 Y11.681 Z-1.000 I0.265 J-0.855 K0.000 F100.000
G1 X-49.340 Y11.681 Z-1.500 F200.000
G2 X-49.696 Y10.196 Z-1.500 I-0.633 J-0.633 K0.000 F100.000
G1 X-49.882 Y10.156 Z-1.500 F100.000
G2 X-50.238 Y11.903 Z-1.500 I-0.091 J0.891 K0.000 F100.000
G2 X-49.340 Y11.681 Z-1.500 I0.265 J-0.855 K0.000 F100.000
G1 X-49.340 Y11.681 Z-2.000 F200.000
G2 X-49.696 Y10.196 Z-2.000 I-0.633 J-0.633 K0.000 F100.000
G1 X-49.882 Y10.156 Z-2.000 F100.000
G2 X-50.238 Y11.903 Z-2.000 I-0.091 J0.891 K0.000 F100.000
G2 X-49.340 Y11.681 Z-2.000 I0.265 J-0.855 K0.000 F100.000
G1 X-49.340 Y11.681 Z-2.500 F200.000
G2 X-49.696 Y10.196 Z-2.500 I-0.633 J-0.633 K0.000 F100.000
G1 X-49.882 Y10.156 Z-2.500 F100.000
G2 X-50.238 Y11.903 Z-2.500 I-0.091 J0.891 K0.000 F100.000
G2 X-49.340 Y11.681 Z-2.500 I0.265 J-0.855 K0.000 F100.000
G1 X-49.340 Y11.681 Z-3.000 F200.000
G2 X-49.696 Y10.196 Z-3.000 I-0.633 J-0.633 K0.000 F100.000
G1 X-49.882 Y10.156 Z-3.000 F100.000
G2 X-50.238 Y11.903 Z-3.000 I-0.091 J0.891 K0.000 F100.000
G2 X-49.340 Y11.681 Z-3.000 I0.265 J-0.855 K0.000 F100.000
G0 Z5.000
G0 Z5.000
(Finish operation: Hole007)
(Begin operation: Hole008)
(Path: Hole008)
(Hole008)
(Compensated Tool Path. Diameter: 1.7)
G0 Z5.000
G0 X-49.340 Y23.681
G0 Z3.000
G1 X-49.340 Y23.681 Z-0.500 F200.000
G2 X-49.696 Y22.196 Z-0.500 I-0.633 J-0.633 K0.000 F100.000
G1 X-49.882 Y22.156 Z-0.500 F100.000
G2 X-50.238 Y23.903 Z-0.500 I-0.091 J0.891 K0.000 F100.000
G2 X-49.340 Y23.681 Z-0.500 I0.265 J-0.855 K0.000 F100.000
G1 X-49.340 Y23.681 Z-1.000 F200.000
G2 X-49.696 Y22.196 Z-1.000 I-0.633 J-0.633 K0.000 F100.000
G1 X-49.882 Y22.156 Z-1.000 F100.000
G2 X-50.238 Y23.903 Z-1.000 I-0.091 J0.891 K0.000 F100.000
G2 X-49.340 Y23.681 Z-1.000 I0.265 J-0.855 K0.000 F100.000
G1 X-49.340 Y23.681 Z-1.500 F200.000
G2 X-49.696 Y22.196 Z-1.500 I-0.633 J-0.633 K0.000 F100.000
G1 X-49.882 Y22.156 Z-1.500 F100.000
G2 X-50.238 Y23.903 Z-1.500 I-0.091 J0.891 K0.000 F100.000
G2 X-49.340 Y23.681 Z-1.500 I0.265 J-0.855 K0.000 F100.000
G1 X-49.340 Y23.681 Z-2.000 F200.000
G2 X-49.696 Y22.196 Z-2.000 I-0.633 J-0.633 K0.000 F100.000
G1 X-49.882 Y22.156 Z-2.000 F100.000
G2 X-50.238 Y23.903 Z-2.000 I-0.091 J0.891 K0.000 F100.000
G2 X-49.340 Y23.681 Z-2.000 I0.265 J-0.855 K0.000 F100.000
G1 X-49.340 Y23.681 Z-2.500 F200.000
G2 X-49.696 Y22.196 Z-2.500 I-0.633 J-0.633 K0.000 F100.000
G1 X-49.882 Y22.156 Z-2.500 F100.000
G2 X-50.238 Y23.903 Z-2.500 I-0.091 J0.891 K0.000 F100.000
G2 X-49.340 Y23.681 Z-2.500 I0.265 J-0.855 K0.000 F100.000
G1 X-49.340 Y23.681 Z-3.000 F200.000
G2 X-49.696 Y22.196 Z-3.000 I-0.633 J-0.633 K0.000 F100.000
G1 X-49.882 Y22.156 Z-3.000 F100.000
G2 X-50.238 Y23.903 Z-3.000 I-0.091 J0.891 K0.000 F100.000
G2 X-49.340 Y23.681 Z-3.000 I0.265 J-0.855 K0.000 F100.000
G0 Z5.000
G0 Z5.000
(Finish operation: Hole008)
(Begin operation: Hole009)
(Path: Hole009)
(Hole009)
(Compensated Tool Path. Diameter: 1.7)
G0 Z5.000
G0 X-49.340 Y31.681
G0 Z3.000
G1 X-49.340 Y31.681 Z-0.500 F200.000
G2 X-49.696 Y30.196 Z-0.500 I-0.633 J-0.633 K0.000 F100.000
G1 X-49.882 Y30.156 Z-0.500 F100.000
G2 X-50.238 Y31.903 Z-0.500 I-0.091 J0.891 K0.000 F100.000
G2 X-49.340 Y31.681 Z-0.500 I0.265 J-0.855 K0.000 F100.000
G1 X-49.340 Y31.681 Z-1.000 F200.000
G2 X-49.696 Y30.196 Z-1.000 I-0.633 J-0.633 K0.000 F100.000
G1 X-49.882 Y30.156 Z-1.000 F100.000
G2 X-50.238 Y31.903 Z-1.000 I-0.091 J0.891 K0.000 F100.000
G2 X-49.340 Y31.681 Z-1.000 I0.265 J-0.855 K0.000 F100.000
G1 X-49.340 Y31.681 Z-1.500 F200.000
G2 X-49.696 Y30.196 Z-1.500 I-0.633 J-0.633 K0.000 F100.000
G1 X-49.882 Y30.156 Z-1.500 F100.000
G2 X-50.238 Y31.903 Z-1.500 I-0.091 J0.891 K0.000 F100.000
G2 X-49.340 Y31.681 Z-1.500 I0.265 J-0.855 K0.000 F100.000
G1 X-49.340 Y31.681 Z-2.000 F200.000
G2 X-49.696 Y30.196 Z-2.000 I-0.633 J-0.633 K0.000 F100.000
G1 X-49.882 Y30.156 Z-2.000 F100.000
G2 X-50.238 Y31.903 Z-2.000 I-0.091 J0.891 K0.000 F100.000
G2 X-49.340 Y31.681 Z-2.000 I0.265 J-0.855 K0.000 F100.000
G1 X-49.340 Y31.681 Z-2.500 F200.000
G2 X-49.696 Y30.196 Z-2.500 I-0.633 J-0.633 K0.000 F100.000
G1 X-49.882 Y30.156 Z-2.500 F100.000
G2 X-50.238 Y31.903 Z-2.500 I-0.091 J0.891 K0.000 F100.000
G2 X-49.340 Y31.681 Z-2.500 I0.265 J-0.855 K0.000 F100.000
G1 X-49.340 Y31.681 Z-3.000 F200.000
G2 X-49.696 Y30.196 Z-3.000 I-0.633 J-0.633 K0.000 F100.000
G1 X-49.882 Y30.156 Z-3.000 F100.000
G2 X-50.238 Y31.903 Z-3.000 I-0.091 J0.891 K0.000 F100.000
G2 X-49.340 Y31.681 Z-3.000 I0.265 J-0.855 K0.000 F100.000
G0 Z5.000
G0 Z5.000
(Finish operation: Hole009)
(Begin operation: Hole010)
(Path: Hole010)
(Hole010)
(Compensated Tool Path. Diameter: 1.7)
G0 Z5.000
G0 X-89.339 Y3.681
G0 Z3.000
G1 X-89.339 Y3.681 Z-0.500 F200.000
G2 X-89.707 Y2.192 Z-0.500 I-0.633 J-0.633 K0.000 F100.000
G2 X-90.828 Y2.782 Z-0.500 I-0.266 J0.856 K0.000 F100.000
G2 X-90.238 Y3.903 Z-0.500 I0.856 J0.266 K0.000 F100.000
G2 X-89.339 Y3.681 Z-0.500 I0.266 J-0.856 K0.000 F100.000
G1 X-89.339 Y3.681 Z-1.000 F200.000
G2 X-89.707 Y2.192 Z-1.000 I-0.633 J-0.633 K0.000 F100.000
G2 X-90.828 Y2.782 Z-1.000 I-0.266 J0.856 K0.000 F100.000
G2 X-90.238 Y3.903 Z-1.000 I0.856 J0.266 K0.000 F100.000
G2 X-89.339 Y3.681 Z-1.000 I0.266 J-0.856 K0.000 F100.000
G1 X-89.339 Y3.681 Z-1.500 F200.000
G2 X-89.707 Y2.192 Z-1.500 I-0.633 J-0.633 K0.000 F100.000
G2 X-90.828 Y2.782 Z-1.500 I-0.266 J0.856 K0.000 F100.000
G2 X-90.238 Y3.903 Z-1.500 I0.856 J0.266 K0.000 F100.000
G2 X-89.339 Y3.681 Z-1.500 I0.266 J-0.856 K0.000 F100.000
G1 X-89.339 Y3.681 Z-2.000 F200.000
G2 X-89.707 Y2.192 Z-2.000 I-0.633 J-0.633 K0.000 F100.000
G2 X-90.828 Y2.782 Z-2.000 I-0.266 J0.856 K0.000 F100.000
G2 X-90.238 Y3.903 Z-2.000 I0.856 J0.266 K0.000 F100.000
G2 X-89.339 Y3.681 Z-2.000 I0.266 J-0.856 K0.000 F100.000
G1 X-89.339 Y3.681 Z-2.500 F200.000
G2 X-89.707 Y2.192 Z-2.500 I-0.633 J-0.633 K0.000 F100.000
G2 X-90.828 Y2.782 Z-2.500 I-0.266 J0.856 K0.000 F100.000
G2 X-90.238 Y3.903 Z-2.500 I0.856 J0.266 K0.000 F100.000
G2 X-89.339 Y3.681 Z-2.500 I0.266 J-0.856 K0.000 F100.000
G1 X-89.339 Y3.681 Z-3.000 F200.000
G2 X-89.707 Y2.192 Z-3.000 I-0.633 J-0.633 K0.000 F100.000
G2 X-90.828 Y2.782 Z-3.000 I-0.266 J0.856 K0.000 F100.000
G2 X-90.238 Y3.903 Z-3.000 I0.856 J0.266 K0.000 F100.000
G2 X-89.339 Y3.681 Z-3.000 I0.266 J-0.856 K0.000 F100.000
G0 Z5.000
G0 Z5.000
(Finish operation: Hole010)
(Begin operation: Hole011)
(Path: Hole011)
(Hole011)
(Compensated Tool Path. Diameter: 1.7)
G0 Z5.000
G0 X-89.339 Y11.681
G0 Z3.000
G1 X-89.339 Y11.681 Z-0.500 F200.000
G2 X-89.707 Y10.192 Z-0.500 I-0.633 J-0.633 K0.000 F100.000
G2 X-90.828 Y10.782 Z-0.500 I-0.266 J0.856 K0.000 F100.000
G2 X-90.238 Y11.903 Z-0.500 I0.856 J0.266 K0.000 F100.000
G2 X-89.339 Y11.681 Z-0.500 I0.266 J-0.856 K0.000 F100.000
G1 X-89.339 Y11.681 Z-1.000 F200.000
G2 X-89.707 Y10.192 Z-1.000 I-0.633 J-0.633 K0.000 F100.000
G2 X-90.828 Y10.782 Z-1.000 I-0.266 J0.856 K0.000 F100.000
G2 X-90.238 Y11.903 Z-1.000 I0.856 J0.266 K0.000 F100.000
G2 X-89.339 Y11.681 Z-1.000 I0.266 J-0.856 K0.000 F100.000
G1 X-89.339 Y11.681 Z-1.500 F200.000
G2 X-89.707 Y10.192 Z-1.500 I-0.633 J-0.633 K0.000 F100.000
G2 X-90.828 Y10.782 Z-1.500 I-0.266 J0.856 K0.000 F100.000
G2 X-90.238 Y11.903 Z-1.500 I0.856 J0.266 K0.000 F100.000
G2 X-89.339 Y11.681 Z-1.500 I0.266 J-0.856 K0.000 F100.000
G1 X-89.339 Y11.681 Z-2.000 F200.000
G2 X-89.707 Y10.192 Z-2.000 I-0.633 J-0.633 K0.000 F100.000
G2 X-90.828 Y10.782 Z-2.000 I-0.266 J0.856 K0.000 F100.000
G2 X-90.238 Y11.903 Z-2.000 I0.856 J0.266 K0.000 F100.000
G2 X-89.339 Y11.681 Z-2.000 I0.266 J-0.856 K0.000 F100.000
G1 X-89.339 Y11.681 Z-2.500 F200.000
G2 X-89.707 Y10.192 Z-2.500 I-0.633 J-0.633 K0.000 F100.000
G2 X-90.828 Y10.782 Z-2.500 I-0.266 J0.856 K0.000 F100.000
G2 X-90.238 Y11.903 Z-2.500 I0.856 J0.266 K0.000 F100.000
G2 X-89.339 Y11.681 Z-2.500 I0.266 J-0.856 K0.000 F100.000
G1 X-89.339 Y11.681 Z-3.000 F200.000
G2 X-89.707 Y10.192 Z-3.000 I-0.633 J-0.633 K0.000 F100.000
G2 X-90.828 Y10.782 Z-3.000 I-0.266 J0.856 K0.000 F100.000
G2 X-90.238 Y11.903 Z-3.000 I0.856 J0.266 K0.000 F100.000
G2 X-89.339 Y11.681 Z-3.000 I0.266 J-0.856 K0.000 F100.000
G0 Z5.000
G0 Z5.000
(Finish operation: Hole011)
(Begin operation: Hole012)
(Path: Hole012)
(Hole012)
(Compensated Tool Path. Diameter: 1.7)
G0 Z5.000
G0 X-89.339 Y23.681
G0 Z3.000
G1 X-89.339 Y23.681 Z-0.500 F200.000
G2 X-89.707 Y22.192 Z-0.500 I-0.633 J-0.633 K0.000 F100.000
G2 X-90.828 Y22.782 Z-0.500 I-0.266 J0.856 K0.000 F100.000
G2 X-90.238 Y23.903 Z-0.500 I0.856 J0.266 K0.000 F100.000
G2 X-89.339 Y23.681 Z-0.500 I0.266 J-0.856 K0.000 F100.000
G1 X-89.339 Y23.681 Z-1.000 F200.000
G2 X-89.707 Y22.192 Z-1.000 I-0.633 J-0.633 K0.000 F100.000
G2 X-90.828 Y22.782 Z-1.000 I-0.266 J0.856 K0.000 F100.000
G2 X-90.238 Y23.903 Z-1.000 I0.856 J0.266 K0.000 F100.000
G2 X-89.339 Y23.681 Z-1.000 I0.266 J-0.856 K0.000 F100.000
G1 X-89.339 Y23.681 Z-1.500 F200.000
G2 X-89.707 Y22.192 Z-1.500 I-0.633 J-0.633 K0.000 F100.000
G2 X-90.828 Y22.782 Z-1.500 I-0.266 J0.856 K0.000 F100.000
G2 X-90.238 Y23.903 Z-1.500 I0.856 J0.266 K0.000 F100.000
G2 X-89.339 Y23.681 Z-1.500 I0.266 J-0.856 K0.000 F100.000
G1 X-89.339 Y23.681 Z-2.000 F200.000
G2 X-89.707 Y22.192 Z-2.000 I-0.633 J-0.633 K0.000 F100.000
G2 X-90.828 Y22.782 Z-2.000 I-0.266 J0.856 K0.000 F100.000
G2 X-90.238 Y23.903 Z-2.000 I0.856 J0.266 K0.000 F100.000
G2 X-89.339 Y23.681 Z-2.000 I0.266 J-0.856 K0.000 F100.000
G1 X-89.339 Y23.681 Z-2.500 F200.000
G2 X-89.707 Y22.192 Z-2.500 I-0.633 J-0.633 K0.000 F100.000
G2 X-90.828 Y22.782 Z-2.500 I-0.266 J0.856 K0.000 F100.000
G2 X-90.238 Y23.903 Z-2.500 I0.856 J0.266 K0.000 F100.000
G2 X-89.339 Y23.681 Z-2.500 I0.266 J-0.856 K0.000 F100.000
G1 X-89.339 Y23.681 Z-3.000 F200.000
G2 X-89.707 Y22.192 Z-3.000 I-0.633 J-0.633 K0.000 F100.000
G2 X-90.828 Y22.782 Z-3.000 I-0.266 J0.856 K0.000 F100.000
G2 X-90.238 Y23.903 Z-3.000 I0.856 J0.266 K0.000 F100.000
G2 X-89.339 Y23.681 Z-3.000 I0.266 J-0.856 K0.000 F100.000
G0 Z5.000
G0 Z5.000
(Finish operation: Hole012)
(Begin operation: Hole013)
(Path: Hole013)
(Hole013)
(Compensated Tool Path. Diameter: 1.7)
G0 Z5.000
G0 X-89.339 Y31.681
G0 Z3.000
G1 X-89.339 Y31.681 Z-0.500 F200.000
G2 X-89.707 Y30.192 Z-0.500 I-0.633 J-0.633 K0.000 F100.000
G2 X-90.828 Y30.782 Z-0.500 I-0.266 J0.856 K0.000 F100.000
G2 X-90.238 Y31.903 Z-0.500 I0.856 J0.266 K0.000 F100.000
G2 X-89.339 Y31.681 Z-0.500 I0.266 J-0.856 K0.000 F100.000
G1 X-89.339 Y31.681 Z-1.000 F200.000
G2 X-89.707 Y30.192 Z-1.000 I-0.633 J-0.633 K0.000 F100.000
G2 X-90.828 Y30.782 Z-1.000 I-0.266 J0.856 K0.000 F100.000
G2 X-90.238 Y31.903 Z-1.000 I0.856 J0.266 K0.000 F100.000
G2 X-89.339 Y31.681 Z-1.000 I0.266 J-0.856 K0.000 F100.000
G1 X-89.339 Y31.681 Z-1.500 F200.000
G2 X-89.707 Y30.192 Z-1.500 I-0.633 J-0.633 K0.000 F100.000
G2 X-90.828 Y30.782 Z-1.500 I-0.266 J0.856 K0.000 F100.000
G2 X-90.238 Y31.903 Z-1.500 I0.856 J0.266 K0.000 F100.000
G2 X-89.339 Y31.681 Z-1.500 I0.266 J-0.856 K0.000 F100.000
G1 X-89.339 Y31.681 Z-2.000 F200.000
G2 X-89.707 Y30.192 Z-2.000 I-0.633 J-0.633 K0.000 F100.000
G2 X-90.828 Y30.782 Z-2.000 I-0.266 J0.856 K0.000 F100.000
G2 X-90.238 Y31.903 Z-2.000 I0.856 J0.266 K0.000 F100.000
G2 X-89.339 Y31.681 Z-2.000 I0.266 J-0.856 K0.000 F100.000
G1 X-89.339 Y31.681 Z-2.500 F200.000
G2 X-89.707 Y30.192 Z-2.500 I-0.633 J-0.633 K0.000 F100.000
G2 X-90.828 Y30.782 Z-2.500 I-0.266 J0.856 K0.000 F100.000
G2 X-90.238 Y31.903 Z-2.500 I0.856 J0.266 K0.000 F100.000
G2 X-89.339 Y31.681 Z-2.500 I0.266 J-0.856 K0.000 F100.000
G1 X-89.339 Y31.681 Z-3.000 F200.000
G2 X-89.707 Y30.192 Z-3.000 I-0.633 J-0.633 K0.000 F100.000
G2 X-90.828 Y30.782 Z-3.000 I-0.266 J0.856 K0.000 F100.000
G2 X-90.238 Y31.903 Z-3.000 I0.856 J0.266 K0.000 F100.000
G2 X-89.339 Y31.681 Z-3.000 I0.266 J-0.856 K0.000 F100.000
G0 Z5.000
G0 Z5.000
(Finish operation: Hole013)
(Begin operation: Hole014)
(Path: Hole014)
(Hole014)
(Compensated Tool Path. Diameter: 1.7)
G0 Z5.000
G0 X-129.339 Y3.681
G0 Z3.000
G1 X-129.339 Y3.681 Z-0.500 F200.000
G2 X-129.707 Y2.192 Z-0.500 I-0.633 J-0.633 K0.000 F100.000
G2 X-130.828 Y2.782 Z-0.500 I-0.266 J0.856 K0.000 F100.000
G2 X-130.238 Y3.903 Z-0.500 I0.856 J0.266 K0.000 F100.000
G2 X-129.339 Y3.681 Z-0.500 I0.266 J-0.856 K0.000 F100.000
G1 X-129.339 Y3.681 Z-1.000 F200.000
G2 X-129.707 Y2.192 Z-1.000 I-0.633 J-0.633 K0.000 F100.000
G2 X-130.828 Y2.782 Z-1.000 I-0.266 J0.856 K0.000 F100.000
G2 X-130.238 Y3.903 Z-1.000 I0.856 J0.266 K0.000 F100.000
G2 X-129.339 Y3.681 Z-1.000 I0.266 J-0.856 K0.000 F100.000
G1 X-129.339 Y3.681 Z-1.500 F200.000
G2 X-129.707 Y2.192 Z-1.500 I-0.633 J-0.633 K0.000 F100.000
G2 X-130.828 Y2.782 Z-1.500 I-0.266 J0.856 K0.000 F100.000
G2 X-130.238 Y3.903 Z-1.500 I0.856 J0.266 K0.000 F100.000
G2 X-129.339 Y3.681 Z-1.500 I0.266 J-0.856 K0.000 F100.000
G1 X-129.339 Y3.681 Z-2.000 F200.000
G2 X-129.707 Y2.192 Z-2.000 I-0.633 J-0.633 K0.000 F100.000
G2 X-130.828 Y2.782 Z-2.000 I-0.266 J0.856 K0.000 F100.000
G2 X-130.238 Y3.903 Z-2.000 I0.856 J0.266 K0.000 F100.000
G2 X-129.339 Y3.681 Z-2.000 I0.266 J-0.856 K0.000 F100.000
G1 X-129.339 Y3.681 Z-2.500 F200.000
G2 X-129.707 Y2.192 Z-2.500 I-0.633 J-0.633 K0.000 F100.000
G2 X-130.828 Y2.782 Z-2.500 I-0.266 J0.856 K0.000 F100.000
G2 X-130.238 Y3.903 Z-2.500 I0.856 J0.266 K0.000 F100.000
G2 X-129.339 Y3.681 Z-2.500 I0.266 J-0.856 K0.000 F100.000
G1 X-129.339 Y3.681 Z-3.000 F200.000
G2 X-129.707 Y2.192 Z-3.000 I-0.633 J-0.633 K0.000 F100.000
G2 X-130.828 Y2.782 Z-3.000 I-0.266 J0.856 K0.000 F100.000
G2 X-130.238 Y3.903 Z-3.000 I0.856 J0.266 K0.000 F100.000
G2 X-129.339 Y3.681 Z-3.000 I0.266 J-0.856 K0.000 F100.000
G0 Z5.000
G0 Z5.000
(Finish operation: Hole014)
(Begin operation: Hole015)
(Path: Hole015)
(Hole015)
(Compensated Tool Path. Diameter: 1.7)
G0 Z5.000
G0 X-129.339 Y11.681
G0 Z3.000
G1 X-129.339 Y11.681 Z-0.500 F200.000
G2 X-129.707 Y10.192 Z-0.500 I-0.633 J-0.633 K0.000 F100.000
G2 X-130.828 Y10.782 Z-0.500 I-0.266 J0.856 K0.000 F100.000
G2 X-130.238 Y11.903 Z-0.500 I0.856 J0.266 K0.000 F100.000
G2 X-129.339 Y11.681 Z-0.500 I0.266 J-0.856 K0.000 F100.000
G1 X-129.339 Y11.681 Z-1.000 F200.000
G2 X-129.707 Y10.192 Z-1.000 I-0.633 J-0.633 K0.000 F100.000
G2 X-130.828 Y10.782 Z-1.000 I-0.266 J0.856 K0.000 F100.000
G2 X-130.238 Y11.903 Z-1.000 I0.856 J0.266 K0.000 F100.000
G2 X-129.339 Y11.681 Z-1.000 I0.266 J-0.856 K0.000 F100.000
G1 X-129.339 Y11.681 Z-1.500 F200.000
G2 X-129.707 Y10.192 Z-1.500 I-0.633 J-0.633 K0.000 F100.000
G2 X-130.828 Y10.782 Z-1.500 I-0.266 J0.856 K0.000 F100.000
G2 X-130.238 Y11.903 Z-1.500 I0.856 J0.266 K0.000 F100.000
G2 X-129.339 Y11.681 Z-1.500 I0.266 J-0.856 K0.000 F100.000
G1 X-129.339 Y11.681 Z-2.000 F200.000
G2 X-129.707 Y10.192 Z-2.000 I-0.633 J-0.633 K0.000 F100.000
G2 X-130.828 Y10.782 Z-2.000 I-0.266 J0.856 K0.000 F100.000
G2 X-130.238 Y11.903 Z-2.000 I0.856 J0.266 K0.000 F100.000
G2 X-129.339 Y11.681 Z-2.000 I0.266 J-0.856 K0.000 F100.000
G1 X-129.339 Y11.681 Z-2.500 F200.000
G2 X-129.707 Y10.192 Z-2.500 I-0.633 J-0.633 K0.000 F100.000
G2 X-130.828 Y10.782 Z-2.500 I-0.266 J0.856 K0.000 F100.000
G2 X-130.238 Y11.903 Z-2.500 I0.856 J0.266 K0.000 F100.000
G2 X-129.339 Y11.681 Z-2.500 I0.266 J-0.856 K0.000 F100.000
G1 X-129.339 Y11.681 Z-3.000 F200.000
G2 X-129.707 Y10.192 Z-3.000 I-0.633 J-0.633 K0.000 F100.000
G2 X-130.828 Y10.782 Z-3.000 I-0.266 J0.856 K0.000 F100.000
G2 X-130.238 Y11.903 Z-3.000 I0.856 J0.266 K0.000 F100.000
G2 X-129.339 Y11.681 Z-3.000 I0.266 J-0.856 K0.000 F100.000
G0 Z5.000
G0 Z5.000
(Finish operation: Hole015)
(Begin operation: Hole016)
(Path: Hole016)
(Hole016)
(Compensated Tool Path. Diameter: 1.7)
G0 Z5.000
G0 X-120.823 Y18.197
G0 Z3.000
G1 X-120.823 Y18.197 Z-0.500 F200.000
G1 X-120.823 Y15.897 Z-0.500 F100.000
G1 X-129.123 Y15.897 Z-0.500 F100.000
G1 X-129.123 Y18.197 Z-0.500 F100.000
G1 X-120.823 Y18.197 Z-0.500 F100.000
G1 X-120.823 Y18.197 Z-1.000 F200.000
G1 X-120.823 Y15.897 Z-1.000 F100.000
G1 X-129.123 Y15.897 Z-1.000 F100.000
G1 X-129.123 Y18.197 Z-1.000 F100.000
G1 X-120.823 Y18.197 Z-1.000 F100.000
G1 X-120.823 Y18.197 Z-1.500 F200.000
G1 X-120.823 Y15.897 Z-1.500 F100.000
G1 X-129.123 Y15.897 Z-1.500 F100.000
G1 X-129.123 Y18.197 Z-1.500 F100.000
G1 X-120.823 Y18.197 Z-1.500 F100.000
G1 X-120.823 Y18.197 Z-2.000 F200.000
G1 X-120.823 Y15.897 Z-2.000 F100.000
G1 X-129.123 Y15.897 Z-2.000 F100.000
G1 X-129.123 Y18.197 Z-2.000 F100.000
G1 X-120.823 Y18.197 Z-2.000 F100.000
G1 X-120.823 Y18.197 Z-2.500 F200.000
G1 X-120.823 Y15.897 Z-2.500 F100.000
G1 X-129.123 Y15.897 Z-2.500 F100.000
G1 X-129.123 Y18.197 Z-2.500 F100.000
G1 X-120.823 Y18.197 Z-2.500 F100.000
G1 X-120.823 Y18.197 Z-3.000 F200.000
G1 X-120.823 Y15.897 Z-3.000 F100.000
G1 X-129.123 Y15.897 Z-3.000 F100.000
G1 X-129.123 Y18.197 Z-3.000 F100.000
G1 X-120.823 Y18.197 Z-3.000 F100.000
G0 Z5.000
G0 Z5.000
(Finish operation: Hole016)
(Begin operation: Hole017)
(Path: Hole017)
(Hole017)
(Compensated Tool Path. Diameter: 1.7)
G0 Z5.000
G0 X-129.339 Y23.681
G0 Z3.000
G1 X-129.339 Y23.681 Z-0.500 F200.000
G2 X-129.707 Y22.192 Z-0.500 I-0.633 J-0.633 K0.000 F100.000
G2 X-130.828 Y22.782 Z-0.500 I-0.266 J0.856 K0.000 F100.000
G2 X-130.238 Y23.903 Z-0.500 I0.856 J0.266 K0.000 F100.000
G2 X-129.339 Y23.681 Z-0.500 I0.266 J-0.856 K0.000 F100.000
G1 X-129.339 Y23.681 Z-1.000 F200.000
G2 X-129.707 Y22.192 Z-1.000 I-0.633 J-0.633 K0.000 F100.000
G2 X-130.828 Y22.782 Z-1.000 I-0.266 J0.856 K0.000 F100.000
G2 X-130.238 Y23.903 Z-1.000 I0.856 J0.266 K0.000 F100.000
G2 X-129.339 Y23.681 Z-1.000 I0.266 J-0.856 K0.000 F100.000
G1 X-129.339 Y23.681 Z-1.500 F200.000
G2 X-129.707 Y22.192 Z-1.500 I-0.633 J-0.633 K0.000 F100.000
G2 X-130.828 Y22.782 Z-1.500 I-0.266 J0.856 K0.000 F100.000
G2 X-130.238 Y23.903 Z-1.500 I0.856 J0.266 K0.000 F100.000
G2 X-129.339 Y23.681 Z-1.500 I0.266 J-0.856 K0.000 F100.000
G1 X-129.339 Y23.681 Z-2.000 F200.000
G2 X-129.707 Y22.192 Z-2.000 I-0.633 J-0.633 K0.000 F100.000
G2 X-130.828 Y22.782 Z-2.000 I-0.266 J0.856 K0.000 F100.000
G2 X-130.238 Y23.903 Z-2.000 I0.856 J0.266 K0.000 F100.000
G2 X-129.339 Y23.681 Z-2.000 I0.266 J-0.856 K0.000 F100.000
G1 X-129.339 Y23.681 Z-2.500 F200.000
G2 X-129.707 Y22.192 Z-2.500 I-0.633 J-0.633 K0.000 F100.000
G2 X-130.828 Y22.782 Z-2.500 I-0.266 J0.856 K0.000 F100.000
G2 X-130.238 Y23.903 Z-2.500 I0.856 J0.266 K0.000 F100.000
G2 X-129.339 Y23.681 Z-2.500 I0.266 J-0.856 K0.000 F100.000
G1 X-129.339 Y23.681 Z-3.000 F200.000
G2 X-129.707 Y22.192 Z-3.000 I-0.633 J-0.633 K0.000 F100.000
G2 X-130.828 Y22.782 Z-3.000 I-0.266 J0.856 K0.000 F100.000
G2 X-130.238 Y23.903 Z-3.000 I0.856 J0.266 K0.000 F100.000
G2 X-129.339 Y23.681 Z-3.000 I0.266 J-0.856 K0.000 F100.000
G0 Z5.000
G0 Z5.000
(Finish operation: Hole017)
(Begin operation: Hole018)
(Path: Hole018)
(Hole018)
(Compensated Tool Path. Diameter: 1.7)
G0 Z5.000
G0 X-129.339 Y31.681
G0 Z3.000
G1 X-129.339 Y31.681 Z-0.500 F200.000
G2 X-129.707 Y30.192 Z-0.500 I-0.633 J-0.633 K0.000 F100.000
G2 X-130.828 Y30.782 Z-0.500 I-0.266 J0.856 K0.000 F100.000
G2 X-130.238 Y31.903 Z-0.500 I0.856 J0.266 K0.000 F100.000
G2 X-129.339 Y31.681 Z-0.500 I0.266 J-0.856 K0.000 F100.000
G1 X-129.339 Y31.681 Z-1.000 F200.000
G2 X-129.707 Y30.192 Z-1.000 I-0.633 J-0.633 K0.000 F100.000
G2 X-130.828 Y30.782 Z-1.000 I-0.266 J0.856 K0.000 F100.000
G2 X-130.238 Y31.903 Z-1.000 I0.856 J0.266 K0.000 F100.000
G2 X-129.339 Y31.681 Z-1.000 I0.266 J-0.856 K0.000 F100.000
G1 X-129.339 Y31.681 Z-1.500 F200.000
G2 X-129.707 Y30.192 Z-1.500 I-0.633 J-0.633 K0.000 F100.000
G2 X-130.828 Y30.782 Z-1.500 I-0.266 J0.856 K0.000 F100.000
G2 X-130.238 Y31.903 Z-1.500 I0.856 J0.266 K0.000 F100.000
G2 X-129.339 Y31.681 Z-1.500 I0.266 J-0.856 K0.000 F100.000
G1 X-129.339 Y31.681 Z-2.000 F200.000
G2 X-129.707 Y30.192 Z-2.000 I-0.633 J-0.633 K0.000 F100.000
G2 X-130.828 Y30.782 Z-2.000 I-0.266 J0.856 K0.000 F100.000
G2 X-130.238 Y31.903 Z-2.000 I0.856 J0.266 K0.000 F100.000
G2 X-129.339 Y31.681 Z-2.000 I0.266 J-0.856 K0.000 F100.000
G1 X-129.339 Y31.681 Z-2.500 F200.000
G2 X-129.707 Y30.192 Z-2.500 I-0.633 J-0.633 K0.000 F100.000
G2 X-130.828 Y30.782 Z-2.500 I-0.266 J0.856 K0.000 F100.000
G2 X-130.238 Y31.903 Z-2.500 I0.856 J0.266 K0.000 F100.000
G2 X-129.339 Y31.681 Z-2.500 I0.266 J-0.856 K0.000 F100.000
G1 X-129.339 Y31.681 Z-3.000 F200.000
G2 X-129.707 Y30.192 Z-3.000 I-0.633 J-0.633 K0.000 F100.000
G2 X-130.828 Y30.782 Z-3.000 I-0.266 J0.856 K0.000 F100.000
G2 X-130.238 Y31.903 Z-3.000 I0.856 J0.266 K0.000 F100.000
G2 X-129.339 Y31.681 Z-3.000 I0.266 J-0.856 K0.000 F100.000
G0 Z5.000
G0 Z5.000
(Finish operation: Hole018)
(Begin operation: Hole019)
(Path: Hole019)
(Hole019)
(Compensated Tool Path. Diameter: 1.7)
G0 Z5.000
G0 X-129.127 Y46.893
G0 Z3.000
G1 X-129.127 Y46.893 Z-0.500 F200.000
G2 X-129.515 Y44.942 Z-0.500 I-0.846 J-0.846 K0.000 F100.000
G2 X-130.430 Y47.152 Z-0.500 I-0.458 J1.105 K0.000 F100.000
G2 X-129.127 Y46.893 Z-0.500 I0.458 J-1.105 K0.000 F100.000
G1 X-129.127 Y46.893 Z-1.000 F200.000
G2 X-129.515 Y44.942 Z-1.000 I-0.846 J-0.846 K0.000 F100.000
G2 X-130.430 Y47.152 Z-1.000 I-0.458 J1.105 K0.000 F100.000
G2 X-129.127 Y46.893 Z-1.000 I0.458 J-1.105 K0.000 F100.000
G1 X-129.127 Y46.893 Z-1.500 F200.000
G2 X-129.515 Y44.942 Z-1.500 I-0.846 J-0.846 K0.000 F100.000
G2 X-130.430 Y47.152 Z-1.500 I-0.458 J1.105 K0.000 F100.000
G2 X-129.127 Y46.893 Z-1.500 I0.458 J-1.105 K0.000 F100.000
G1 X-129.127 Y46.893 Z-2.000 F200.000
G2 X-129.515 Y44.942 Z-2.000 I-0.846 J-0.846 K0.000 F100.000
G2 X-130.430 Y47.152 Z-2.000 I-0.458 J1.105 K0.000 F100.000
G2 X-129.127 Y46.893 Z-2.000 I0.458 J-1.105 K0.000 F100.000
G1 X-129.127 Y46.893 Z-2.500 F200.000
G2 X-129.515 Y44.942 Z-2.500 I-0.846 J-0.846 K0.000 F100.000
G2 X-130.430 Y47.152 Z-2.500 I-0.458 J1.105 K0.000 F100.000
G2 X-129.127 Y46.893 Z-2.500 I0.458 J-1.105 K0.000 F100.000
G1 X-129.127 Y46.893 Z-3.000 F200.000
G2 X-129.515 Y44.942 Z-3.000 I-0.846 J-0.846 K0.000 F100.000
G2 X-130.430 Y47.152 Z-3.000 I-0.458 J1.105 K0.000 F100.000
G2 X-129.127 Y46.893 Z-3.000 I0.458 J-1.105 K0.000 F100.000
G0 Z5.000
G0 Z5.000
(Finish operation: Hole019)
(Begin operation: DressupTag)
(Path: DressupTag)
G0 Z5.000
G0 X0.629 Y56.648 Z5.000
G0 X0.629 Y56.648 Z3.000
G1 X0.629 Y56.648 Z-0.500 F200.000
G2 X0.877 Y56.047 Z-0.500 I-0.601 J-0.601 K0.000 F100.000
G1 X0.877 Y4.109 Z-0.500 F100.000
G2 X-3.916 Y-0.801 Z-0.500 I-4.851 J-0.059 K0.000 F100.000
G1 X-135.973 Y-0.803 Z-0.500 F100.000
G2 X-140.821 Y3.992 Z-0.500 I0.003 J4.851 K0.000 F100.000
G1 X-140.823 Y56.047 Z-0.500 F100.000
G2 X-139.973 Y56.897 Z-0.500 I0.850 J0.000 K0.000 F100.000
G1 X0.027 Y56.897 Z-0.500 F100.000
G2 X0.629 Y56.648 Z-0.500 I0.000 J-0.850 K0.000 F100.000
G1 X0.629 Y56.648 Z-1.000 F200.000
G2 X0.877 Y56.047 Z-1.000 I-0.601 J-0.601 K0.000 F100.000
G1 X0.877 Y4.109 Z-1.000 F100.000
G2 X-3.916 Y-0.801 Z-1.000 I-4.851 J-0.059 K0.000 F100.000
G1 X-135.973 Y-0.803 Z-1.000 F100.000
G2 X-140.821 Y3.992 Z-1.000 I0.003 J4.851 K0.000 F100.000
G1 X-140.823 Y56.047 Z-1.000 F100.000
G2 X-139.973 Y56.897 Z-1.000 I0.850 J0.000 K0.000 F100.000
G1 X0.027 Y56.897 Z-1.000 F100.000
G2 X0.629 Y56.648 Z-1.000 I0.000 J-0.850 K0.000 F100.000
G1 X0.629 Y56.648 Z-1.500 F200.000
G2 X0.877 Y56.047 Z-1.500 I-0.601 J-0.601 K0.000 F100.000
G1 X0.877 Y4.109 Z-1.500 F100.000
G2 X-3.916 Y-0.801 Z-1.500 I-4.851 J-0.059 K0.000 F100.000
G1 X-135.973 Y-0.803 Z-1.500 F100.000
G2 X-140.821 Y3.992 Z-1.500 I0.003 J4.851 K0.000 F100.000
G1 X-140.823 Y56.047 Z-1.500 F100.000
G2 X-139.973 Y56.897 Z-1.500 I0.850 J0.000 K0.000 F100.000
G1 X0.027 Y56.897 Z-1.500 F100.000
G2 X0.629 Y56.648 Z-1.500 I0.000 J-0.850 K0.000 F100.000
G1 X0.629 Y56.648 Z-2.000 F200.000
G2 X0.877 Y56.047 Z-2.000 I-0.601 J-0.601 K0.000 F100.000
G1 X0.877 Y4.109 Z-2.000 F100.000
G2 X-3.916 Y-0.801 Z-2.000 I-4.851 J-0.059 K0.000 F100.000
G1 X-135.973 Y-0.803 Z-2.000 F100.000
G2 X-140.821 Y3.992 Z-2.000 I0.003 J4.851 K0.000 F100.000
G1 X-140.823 Y56.047 Z-2.000 F100.000
G2 X-139.973 Y56.897 Z-2.000 I0.850 J0.000 K0.000 F100.000
G1 X0.027 Y56.897 Z-2.000 F100.000
G2 X0.629 Y56.648 Z-2.000 I0.000 J-0.850 K0.000 F100.000
G1 X0.629 Y56.648 Z-2.500 F200.000
G2 X0.877 Y56.047 Z-2.500 I-0.601 J-0.601 K0.000 F100.000
G1 X0.877 Y4.109 Z-2.500 F100.000
G2 X-3.916 Y-0.801 Z-2.500 I-4.851 J-0.059 K0.000 F100.000
G1 X-135.973 Y-0.803 Z-2.500 F100.000
G2 X-140.821 Y3.992 Z-2.500 I0.003 J4.851 K0.000 F100.000
G1 X-140.823 Y56.047 Z-2.500 F100.000
G2 X-139.973 Y56.897 Z-2.500 I0.850 J0.000 K0.000 F100.000
G1 X0.027 Y56.897 Z-2.500 F100.000
G2 X0.629 Y56.648 Z-2.500 I0.000 J-0.850 K0.000 F100.000
G1 X0.629 Y56.648 Z-3.000 F200.000
G2 X0.877 Y56.047 Z-3.000 I-0.601 J-0.601 K0.000 F100.000
G1 X0.877 Y4.109 Z-3.000 F100.000
G2 X-3.916 Y-0.801 Z-3.000 I-4.851 J-0.059 K0.000 F100.000
G1 X-33.580 Y-0.801 Z-3.000 F100.000
G1 X-33.580 Y-0.801 Z-2.700 F200.000
G1 X-40.280 Y-0.801 Z-2.700 F100.000
G1 X-40.280 Y-0.801 Z-3.000 F200.000
G1 X-99.608 Y-0.802 Z-3.000 F100.000
G1 X-99.608 Y-0.802 Z-2.700 F200.000
G1 X-106.308 Y-0.802 Z-2.700 F100.000
G1 X-106.308 Y-0.802 Z-3.000 F200.000
G1 X-135.973 Y-0.803 Z-3.000 F100.000
G2 X-140.821 Y3.992 Z-3.000 I0.003 J4.851 K0.000 F100.000
G1 X-140.823 Y56.047 Z-3.000 F100.000
G2 X-139.973 Y56.897 Z-3.000 I0.850 J0.000 K0.000 F100.000
G1 X-108.323 Y56.897 Z-3.000 F100.000
G1 X-108.323 Y56.897 Z-2.700 F200.000
G1 X-101.623 Y56.897 Z-2.700 F100.000
G1 X-101.623 Y56.897 Z-3.000 F200.000
G1 X-38.323 Y56.897 Z-3.000 F100.000
G1 X-38.323 Y56.897 Z-2.700 F200.000
G1 X-31.623 Y56.897 Z-2.700 F100.000
G1 X-31.623 Y56.897 Z-3.000 F200.000
G1 X0.027 Y56.897 Z-3.000 F100.000
G2 X0.629 Y56.648 Z-3.000 I0.000 J-0.850 K0.000 F100.000
G0 X0.629 Y56.648 Z5.000
(Finish operation: DressupTag)
(Begin postamble)
M5
G17 G90
M2
