(Exported by FreeCAD)
(Post Processor: grbl_post)
(Output Time:2023-07-06 00:18:24.186019)
(Begin preamble)
G17 G90
G21
(Begin operation: G54)
(Path: G54)
G54
G0 Z5.000
(Finish operation: G54)
(Begin operation: kukuruza-1.7-7-3.176)
(Path: kukuruza-1.7-7-3.176)
(kukuruza-1.7-7-3.176)
(Begin toolchange)
( M6 T2 )
M3 S1200
(Finish operation: kukuruza-1.7-7-3.176)
(Begin operation: Hole0001)
(Path: Hole0001)
(Hole0001)
(Compensated Tool Path. Diameter: 1.7)
G0 Z5.000
G0 X-3.400 Y15.633
G0 Z3.000
G1 X-3.400 Y15.633 Z-0.500 F200.000
G2 X-3.751 Y14.150 Z-0.500 I-0.633 J-0.633 K0.000 F100.000
G2 X-4.316 Y15.850 Z-0.500 I-0.282 J0.850 K0.000 F100.000
G2 X-3.400 Y15.633 Z-0.500 I0.282 J-0.850 K0.000 F100.000
G1 X-3.400 Y15.633 Z-1.000 F200.000
G2 X-3.751 Y14.150 Z-1.000 I-0.633 J-0.633 K0.000 F100.000
G2 X-4.316 Y15.850 Z-1.000 I-0.282 J0.850 K0.000 F100.000
G2 X-3.400 Y15.633 Z-1.000 I0.282 J-0.850 K0.000 F100.000
G1 X-3.400 Y15.633 Z-1.500 F200.000
G2 X-3.751 Y14.150 Z-1.500 I-0.633 J-0.633 K0.000 F100.000
G2 X-4.316 Y15.850 Z-1.500 I-0.282 J0.850 K0.000 F100.000
G2 X-3.400 Y15.633 Z-1.500 I0.282 J-0.850 K0.000 F100.000
G1 X-3.400 Y15.633 Z-2.000 F200.000
G2 X-3.751 Y14.150 Z-2.000 I-0.633 J-0.633 K0.000 F100.000
G2 X-4.316 Y15.850 Z-2.000 I-0.282 J0.850 K0.000 F100.000
G2 X-3.400 Y15.633 Z-2.000 I0.282 J-0.850 K0.000 F100.000
G1 X-3.400 Y15.633 Z-2.500 F200.000
G2 X-3.751 Y14.150 Z-2.500 I-0.633 J-0.633 K0.000 F100.000
G2 X-4.316 Y15.850 Z-2.500 I-0.282 J0.850 K0.000 F100.000
G2 X-3.400 Y15.633 Z-2.500 I0.282 J-0.850 K0.000 F100.000
G1 X-3.400 Y15.633 Z-3.000 F200.000
G2 X-3.751 Y14.150 Z-3.000 I-0.633 J-0.633 K0.000 F100.000
G2 X-4.316 Y15.850 Z-3.000 I-0.282 J0.850 K0.000 F100.000
G2 X-3.400 Y15.633 Z-3.000 I0.282 J-0.850 K0.000 F100.000
G0 Z5.000
G0 Z5.000
(Finish operation: Hole0001)
(Begin operation: Hole0002)
(Path: Hole0002)
(Hole0002)
(Compensated Tool Path. Diameter: 1.7)
G0 Z5.000
G0 X-3.401 Y25.633
G0 Z3.000
G1 X-3.401 Y25.633 Z-0.500 F200.000
G2 X-3.949 Y24.108 Z-0.500 I-0.633 J-0.633 K0.000 F100.000
G2 X-4.124 Y25.891 Z-0.500 I-0.085 J0.892 K0.000 F100.000
G2 X-3.401 Y25.633 Z-0.500 I0.090 J-0.891 K0.000 F100.000
G1 X-3.401 Y25.633 Z-1.000 F200.000
G2 X-3.949 Y24.108 Z-1.000 I-0.633 J-0.633 K0.000 F100.000
G2 X-4.124 Y25.891 Z-1.000 I-0.085 J0.892 K0.000 F100.000
G2 X-3.401 Y25.633 Z-1.000 I0.090 J-0.891 K0.000 F100.000
G1 X-3.401 Y25.633 Z-1.500 F200.000
G2 X-3.949 Y24.108 Z-1.500 I-0.633 J-0.633 K0.000 F100.000
G2 X-4.124 Y25.891 Z-1.500 I-0.085 J0.892 K0.000 F100.000
G2 X-3.401 Y25.633 Z-1.500 I0.090 J-0.891 K0.000 F100.000
G1 X-3.401 Y25.633 Z-2.000 F200.000
G2 X-3.949 Y24.108 Z-2.000 I-0.633 J-0.633 K0.000 F100.000
G2 X-4.124 Y25.891 Z-2.000 I-0.085 J0.892 K0.000 F100.000
G2 X-3.401 Y25.633 Z-2.000 I0.090 J-0.891 K0.000 F100.000
G1 X-3.401 Y25.633 Z-2.500 F200.000
G2 X-3.949 Y24.108 Z-2.500 I-0.633 J-0.633 K0.000 F100.000
G2 X-4.124 Y25.891 Z-2.500 I-0.085 J0.892 K0.000 F100.000
G2 X-3.401 Y25.633 Z-2.500 I0.090 J-0.891 K0.000 F100.000
G1 X-3.401 Y25.633 Z-3.000 F200.000
G2 X-3.949 Y24.108 Z-3.000 I-0.633 J-0.633 K0.000 F100.000
G2 X-4.124 Y25.891 Z-3.000 I-0.085 J0.892 K0.000 F100.000
G2 X-3.401 Y25.633 Z-3.000 I0.090 J-0.891 K0.000 F100.000
G0 Z5.000
G0 Z5.000
(Finish operation: Hole0002)
(Begin operation: Hole0003)
(Path: Hole0003)
(Hole0003)
(Compensated Tool Path. Diameter: 1.7)
G0 Z5.000
G0 X-7.454 Y12.580
G0 Z3.000
G1 X-7.454 Y12.580 Z-0.500 F200.000
G2 X-9.089 Y6.476 Z-0.500 I-2.580 J-2.580 K0.000 F100.000
G2 X-10.978 Y13.524 Z-0.500 I-0.944 J3.524 K0.000 F100.000
G2 X-7.454 Y12.580 Z-0.500 I0.944 J-3.524 K0.000 F100.000
G1 X-7.454 Y12.580 Z-1.000 F200.000
G2 X-9.089 Y6.476 Z-1.000 I-2.580 J-2.580 K0.000 F100.000
G2 X-10.978 Y13.524 Z-1.000 I-0.944 J3.524 K0.000 F100.000
G2 X-7.454 Y12.580 Z-1.000 I0.944 J-3.524 K0.000 F100.000
G1 X-7.454 Y12.580 Z-1.500 F200.000
G2 X-9.089 Y6.476 Z-1.500 I-2.580 J-2.580 K0.000 F100.000
G2 X-10.978 Y13.524 Z-1.500 I-0.944 J3.524 K0.000 F100.000
G2 X-7.454 Y12.580 Z-1.500 I0.944 J-3.524 K0.000 F100.000
G1 X-7.454 Y12.580 Z-2.000 F200.000
G2 X-9.089 Y6.476 Z-2.000 I-2.580 J-2.580 K0.000 F100.000
G2 X-10.978 Y13.524 Z-2.000 I-0.944 J3.524 K0.000 F100.000
G2 X-7.454 Y12.580 Z-2.000 I0.944 J-3.524 K0.000 F100.000
G1 X-7.454 Y12.580 Z-2.500 F200.000
G2 X-9.089 Y6.476 Z-2.500 I-2.580 J-2.580 K0.000 F100.000
G2 X-10.978 Y13.524 Z-2.500 I-0.944 J3.524 K0.000 F100.000
G2 X-7.454 Y12.580 Z-2.500 I0.944 J-3.524 K0.000 F100.000
G1 X-7.454 Y12.580 Z-3.000 F200.000
G2 X-9.089 Y6.476 Z-3.000 I-2.580 J-2.580 K0.000 F100.000
G2 X-10.978 Y13.524 Z-3.000 I-0.944 J3.524 K0.000 F100.000
G2 X-7.454 Y12.580 Z-3.000 I0.944 J-3.524 K0.000 F100.000
G0 Z5.000
G0 Z5.000
(Finish operation: Hole0003)
(Begin operation: Hole0004)
(Path: Hole0004)
(Hole0004)
(Compensated Tool Path. Diameter: 1.7)
G0 Z5.000
G0 X-7.454 Y32.580
G0 Z3.000
G1 X-7.454 Y32.580 Z-0.500 F200.000
G2 X-9.089 Y26.476 Z-0.500 I-2.580 J-2.580 K0.000 F100.000
G2 X-10.978 Y33.524 Z-0.500 I-0.944 J3.524 K0.000 F100.000
G2 X-7.454 Y32.580 Z-0.500 I0.944 J-3.524 K0.000 F100.000
G1 X-7.454 Y32.580 Z-1.000 F200.000
G2 X-9.089 Y26.476 Z-1.000 I-2.580 J-2.580 K0.000 F100.000
G2 X-10.978 Y33.524 Z-1.000 I-0.944 J3.524 K0.000 F100.000
G2 X-7.454 Y32.580 Z-1.000 I0.944 J-3.524 K0.000 F100.000
G1 X-7.454 Y32.580 Z-1.500 F200.000
G2 X-9.089 Y26.476 Z-1.500 I-2.580 J-2.580 K0.000 F100.000
G2 X-10.978 Y33.524 Z-1.500 I-0.944 J3.524 K0.000 F100.000
G2 X-7.454 Y32.580 Z-1.500 I0.944 J-3.524 K0.000 F100.000
G1 X-7.454 Y32.580 Z-2.000 F200.000
G2 X-9.089 Y26.476 Z-2.000 I-2.580 J-2.580 K0.000 F100.000
G2 X-10.978 Y33.524 Z-2.000 I-0.944 J3.524 K0.000 F100.000
G2 X-7.454 Y32.580 Z-2.000 I0.944 J-3.524 K0.000 F100.000
G1 X-7.454 Y32.580 Z-2.500 F200.000
G2 X-9.089 Y26.476 Z-2.500 I-2.580 J-2.580 K0.000 F100.000
G2 X-10.978 Y33.524 Z-2.500 I-0.944 J3.524 K0.000 F100.000
G2 X-7.454 Y32.580 Z-2.500 I0.944 J-3.524 K0.000 F100.000
G1 X-7.454 Y32.580 Z-3.000 F200.000
G2 X-9.089 Y26.476 Z-3.000 I-2.580 J-2.580 K0.000 F100.000
G2 X-10.978 Y33.524 Z-3.000 I-0.944 J3.524 K0.000 F100.000
G2 X-7.454 Y32.580 Z-3.000 I0.944 J-3.524 K0.000 F100.000
G0 Z5.000
G0 Z5.000
(Finish operation: Hole0004)
(Begin operation: Hole0005)
(Path: Hole0005)
(Hole0005)
(Compensated Tool Path. Diameter: 1.7)
G0 Z5.000
G0 X-41.400 Y15.633
G0 Z3.000
G1 X-41.400 Y15.633 Z-0.500 F200.000
G2 X-41.751 Y14.150 Z-0.500 I-0.633 J-0.633 K0.000 F100.000
G2 X-42.316 Y15.850 Z-0.500 I-0.282 J0.850 K0.000 F100.000
G2 X-41.400 Y15.633 Z-0.500 I0.282 J-0.850 K0.000 F100.000
G1 X-41.400 Y15.633 Z-1.000 F200.000
G2 X-41.751 Y14.150 Z-1.000 I-0.633 J-0.633 K0.000 F100.000
G2 X-42.316 Y15.850 Z-1.000 I-0.282 J0.850 K0.000 F100.000
G2 X-41.400 Y15.633 Z-1.000 I0.282 J-0.850 K0.000 F100.000
G1 X-41.400 Y15.633 Z-1.500 F200.000
G2 X-41.751 Y14.150 Z-1.500 I-0.633 J-0.633 K0.000 F100.000
G2 X-42.316 Y15.850 Z-1.500 I-0.282 J0.850 K0.000 F100.000
G2 X-41.400 Y15.633 Z-1.500 I0.282 J-0.850 K0.000 F100.000
G1 X-41.400 Y15.633 Z-2.000 F200.000
G2 X-41.751 Y14.150 Z-2.000 I-0.633 J-0.633 K0.000 F100.000
G2 X-42.316 Y15.850 Z-2.000 I-0.282 J0.850 K0.000 F100.000
G2 X-41.400 Y15.633 Z-2.000 I0.282 J-0.850 K0.000 F100.000
G1 X-41.400 Y15.633 Z-2.500 F200.000
G2 X-41.751 Y14.150 Z-2.500 I-0.633 J-0.633 K0.000 F100.000
G2 X-42.316 Y15.850 Z-2.500 I-0.282 J0.850 K0.000 F100.000
G2 X-41.400 Y15.633 Z-2.500 I0.282 J-0.850 K0.000 F100.000
G1 X-41.400 Y15.633 Z-3.000 F200.000
G2 X-41.751 Y14.150 Z-3.000 I-0.633 J-0.633 K0.000 F100.000
G2 X-42.316 Y15.850 Z-3.000 I-0.282 J0.850 K0.000 F100.000
G2 X-41.400 Y15.633 Z-3.000 I0.282 J-0.850 K0.000 F100.000
G0 Z5.000
G0 Z5.000
(Finish operation: Hole0005)
(Begin operation: Hole0006)
(Path: Hole0006)
(Hole0006)
(Compensated Tool Path. Diameter: 1.7)
G0 Z5.000
G0 X-41.401 Y25.633
G0 Z3.000
G1 X-41.401 Y25.633 Z-0.500 F200.000
G2 X-41.949 Y24.108 Z-0.500 I-0.633 J-0.633 K0.000 F100.000
G2 X-42.124 Y25.891 Z-0.500 I-0.085 J0.892 K0.000 F100.000
G2 X-41.401 Y25.633 Z-0.500 I0.090 J-0.891 K0.000 F100.000
G1 X-41.401 Y25.633 Z-1.000 F200.000
G2 X-41.949 Y24.108 Z-1.000 I-0.633 J-0.633 K0.000 F100.000
G2 X-42.124 Y25.891 Z-1.000 I-0.085 J0.892 K0.000 F100.000
G2 X-41.401 Y25.633 Z-1.000 I0.090 J-0.891 K0.000 F100.000
G1 X-41.401 Y25.633 Z-1.500 F200.000
G2 X-41.949 Y24.108 Z-1.500 I-0.633 J-0.633 K0.000 F100.000
G2 X-42.124 Y25.891 Z-1.500 I-0.085 J0.892 K0.000 F100.000
G2 X-41.401 Y25.633 Z-1.500 I0.090 J-0.891 K0.000 F100.000
G1 X-41.401 Y25.633 Z-2.000 F200.000
G2 X-41.949 Y24.108 Z-2.000 I-0.633 J-0.633 K0.000 F100.000
G2 X-42.124 Y25.891 Z-2.000 I-0.085 J0.892 K0.000 F100.000
G2 X-41.401 Y25.633 Z-2.000 I0.090 J-0.891 K0.000 F100.000
G1 X-41.401 Y25.633 Z-2.500 F200.000
G2 X-41.949 Y24.108 Z-2.500 I-0.633 J-0.633 K0.000 F100.000
G2 X-42.124 Y25.891 Z-2.500 I-0.085 J0.892 K0.000 F100.000
G2 X-41.401 Y25.633 Z-2.500 I0.090 J-0.891 K0.000 F100.000
G1 X-41.401 Y25.633 Z-3.000 F200.000
G2 X-41.949 Y24.108 Z-3.000 I-0.633 J-0.633 K0.000 F100.000
G2 X-42.124 Y25.891 Z-3.000 I-0.085 J0.892 K0.000 F100.000
G2 X-41.401 Y25.633 Z-3.000 I0.090 J-0.891 K0.000 F100.000
G0 Z5.000
G0 Z5.000
(Finish operation: Hole0006)
(Begin operation: Hole0007)
(Path: Hole0007)
(Hole0007)
(Compensated Tool Path. Diameter: 1.7)
G0 Z5.000
G0 X-79.400 Y15.633
G0 Z3.000
G1 X-79.400 Y15.633 Z-0.500 F200.000
G2 X-79.751 Y14.150 Z-0.500 I-0.633 J-0.633 K0.000 F100.000
G2 X-80.316 Y15.850 Z-0.500 I-0.282 J0.850 K0.000 F100.000
G2 X-79.400 Y15.633 Z-0.500 I0.282 J-0.850 K0.000 F100.000
G1 X-79.400 Y15.633 Z-1.000 F200.000
G2 X-79.751 Y14.150 Z-1.000 I-0.633 J-0.633 K0.000 F100.000
G2 X-80.316 Y15.850 Z-1.000 I-0.282 J0.850 K0.000 F100.000
G2 X-79.400 Y15.633 Z-1.000 I0.282 J-0.850 K0.000 F100.000
G1 X-79.400 Y15.633 Z-1.500 F200.000
G2 X-79.751 Y14.150 Z-1.500 I-0.633 J-0.633 K0.000 F100.000
G2 X-80.316 Y15.850 Z-1.500 I-0.282 J0.850 K0.000 F100.000
G2 X-79.400 Y15.633 Z-1.500 I0.282 J-0.850 K0.000 F100.000
G1 X-79.400 Y15.633 Z-2.000 F200.000
G2 X-79.751 Y14.150 Z-2.000 I-0.633 J-0.633 K0.000 F100.000
G2 X-80.316 Y15.850 Z-2.000 I-0.282 J0.850 K0.000 F100.000
G2 X-79.400 Y15.633 Z-2.000 I0.282 J-0.850 K0.000 F100.000
G1 X-79.400 Y15.633 Z-2.500 F200.000
G2 X-79.751 Y14.150 Z-2.500 I-0.633 J-0.633 K0.000 F100.000
G2 X-80.316 Y15.850 Z-2.500 I-0.282 J0.850 K0.000 F100.000
G2 X-79.400 Y15.633 Z-2.500 I0.282 J-0.850 K0.000 F100.000
G1 X-79.400 Y15.633 Z-3.000 F200.000
G2 X-79.751 Y14.150 Z-3.000 I-0.633 J-0.633 K0.000 F100.000
G2 X-80.316 Y15.850 Z-3.000 I-0.282 J0.850 K0.000 F100.000
G2 X-79.400 Y15.633 Z-3.000 I0.282 J-0.850 K0.000 F100.000
G0 Z5.000
G0 Z5.000
(Finish operation: Hole0007)
(Begin operation: Hole0008)
(Path: Hole0008)
(Hole0008)
(Compensated Tool Path. Diameter: 1.7)
G0 Z5.000
G0 X-79.401 Y25.633
G0 Z3.000
G1 X-79.401 Y25.633 Z-0.500 F200.000
G2 X-79.949 Y24.108 Z-0.500 I-0.633 J-0.633 K0.000 F100.000
G2 X-80.124 Y25.891 Z-0.500 I-0.085 J0.892 K0.000 F100.000
G2 X-79.401 Y25.633 Z-0.500 I0.090 J-0.891 K0.000 F100.000
G1 X-79.401 Y25.633 Z-1.000 F200.000
G2 X-79.949 Y24.108 Z-1.000 I-0.633 J-0.633 K0.000 F100.000
G2 X-80.124 Y25.891 Z-1.000 I-0.085 J0.892 K0.000 F100.000
G2 X-79.401 Y25.633 Z-1.000 I0.090 J-0.891 K0.000 F100.000
G1 X-79.401 Y25.633 Z-1.500 F200.000
G2 X-79.949 Y24.108 Z-1.500 I-0.633 J-0.633 K0.000 F100.000
G2 X-80.124 Y25.891 Z-1.500 I-0.085 J0.892 K0.000 F100.000
G2 X-79.401 Y25.633 Z-1.500 I0.090 J-0.891 K0.000 F100.000
G1 X-79.401 Y25.633 Z-2.000 F200.000
G2 X-79.949 Y24.108 Z-2.000 I-0.633 J-0.633 K0.000 F100.000
G2 X-80.124 Y25.891 Z-2.000 I-0.085 J0.892 K0.000 F100.000
G2 X-79.401 Y25.633 Z-2.000 I0.090 J-0.891 K0.000 F100.000
G1 X-79.401 Y25.633 Z-2.500 F200.000
G2 X-79.949 Y24.108 Z-2.500 I-0.633 J-0.633 K0.000 F100.000
G2 X-80.124 Y25.891 Z-2.500 I-0.085 J0.892 K0.000 F100.000
G2 X-79.401 Y25.633 Z-2.500 I0.090 J-0.891 K0.000 F100.000
G1 X-79.401 Y25.633 Z-3.000 F200.000
G2 X-79.949 Y24.108 Z-3.000 I-0.633 J-0.633 K0.000 F100.000
G2 X-80.124 Y25.891 Z-3.000 I-0.085 J0.892 K0.000 F100.000
G2 X-79.401 Y25.633 Z-3.000 I0.090 J-0.891 K0.000 F100.000
G0 Z5.000
G0 Z5.000
(Finish operation: Hole0008)
(Begin operation: Hole0009)
(Path: Hole0009)
(Hole0009)
(Compensated Tool Path. Diameter: 1.7)
G0 Z5.000
G0 X-92.401 Y29.580
G0 Z3.000
G1 X-92.401 Y29.580 Z-0.500 F200.000
G2 X-94.036 Y23.476 Z-0.500 I-2.580 J-2.580 K0.000 F100.000
G2 X-98.504 Y26.056 Z-0.500 I-0.944 J3.524 K0.000 F100.000
G2 X-95.925 Y30.524 Z-0.500 I3.524 J0.944 K0.000 F100.000
G2 X-92.401 Y29.580 Z-0.500 I0.944 J-3.524 K0.000 F100.000
G1 X-92.401 Y29.580 Z-1.000 F200.000
G2 X-94.036 Y23.476 Z-1.000 I-2.580 J-2.580 K0.000 F100.000
G2 X-98.504 Y26.056 Z-1.000 I-0.944 J3.524 K0.000 F100.000
G2 X-95.925 Y30.524 Z-1.000 I3.524 J0.944 K0.000 F100.000
G2 X-92.401 Y29.580 Z-1.000 I0.944 J-3.524 K0.000 F100.000
G1 X-92.401 Y29.580 Z-1.500 F200.000
G2 X-94.036 Y23.476 Z-1.500 I-2.580 J-2.580 K0.000 F100.000
G2 X-98.504 Y26.056 Z-1.500 I-0.944 J3.524 K0.000 F100.000
G2 X-95.925 Y30.524 Z-1.500 I3.524 J0.944 K0.000 F100.000
G2 X-92.401 Y29.580 Z-1.500 I0.944 J-3.524 K0.000 F100.000
G1 X-92.401 Y29.580 Z-2.000 F200.000
G2 X-94.036 Y23.476 Z-2.000 I-2.580 J-2.580 K0.000 F100.000
G2 X-98.504 Y26.056 Z-2.000 I-0.944 J3.524 K0.000 F100.000
G2 X-95.925 Y30.524 Z-2.000 I3.524 J0.944 K0.000 F100.000
G2 X-92.401 Y29.580 Z-2.000 I0.944 J-3.524 K0.000 F100.000
G1 X-92.401 Y29.580 Z-2.500 F200.000
G2 X-94.036 Y23.476 Z-2.500 I-2.580 J-2.580 K0.000 F100.000
G2 X-98.504 Y26.056 Z-2.500 I-0.944 J3.524 K0.000 F100.000
G2 X-95.925 Y30.524 Z-2.500 I3.524 J0.944 K0.000 F100.000
G2 X-92.401 Y29.580 Z-2.500 I0.944 J-3.524 K0.000 F100.000
G1 X-92.401 Y29.580 Z-3.000 F200.000
G2 X-94.036 Y23.476 Z-3.000 I-2.580 J-2.580 K0.000 F100.000
G2 X-98.504 Y26.056 Z-3.000 I-0.944 J3.524 K0.000 F100.000
G2 X-95.925 Y30.524 Z-3.000 I3.524 J0.944 K0.000 F100.000
G2 X-92.401 Y29.580 Z-3.000 I0.944 J-3.524 K0.000 F100.000
G0 Z5.000
G0 Z5.000
(Finish operation: Hole0009)
(Begin operation: Hole0010)
(Path: Hole0010)
(Hole0010)
(Compensated Tool Path. Diameter: 1.7)
G0 Z5.000
G0 X-109.742 Y27.491
G0 Z3.000
G1 X-109.742 Y27.491 Z-0.500 F200.000
G2 X-109.932 Y26.374 Z-0.500 I-0.491 J-0.491 K0.000 F100.000
G2 X-110.535 Y27.626 Z-0.500 I-0.301 J0.626 K0.000 F100.000
G2 X-109.742 Y27.491 Z-0.500 I0.301 J-0.626 K0.000 F100.000
G1 X-109.742 Y27.491 Z-1.000 F200.000
G2 X-109.932 Y26.374 Z-1.000 I-0.491 J-0.491 K0.000 F100.000
G2 X-110.535 Y27.626 Z-1.000 I-0.301 J0.626 K0.000 F100.000
G2 X-109.742 Y27.491 Z-1.000 I0.301 J-0.626 K0.000 F100.000
G1 X-109.742 Y27.491 Z-1.500 F200.000
G2 X-109.932 Y26.374 Z-1.500 I-0.491 J-0.491 K0.000 F100.000
G2 X-110.535 Y27.626 Z-1.500 I-0.301 J0.626 K0.000 F100.000
G2 X-109.742 Y27.491 Z-1.500 I0.301 J-0.626 K0.000 F100.000
G1 X-109.742 Y27.491 Z-2.000 F200.000
G2 X-109.932 Y26.374 Z-2.000 I-0.491 J-0.491 K0.000 F100.000
G2 X-110.535 Y27.626 Z-2.000 I-0.301 J0.626 K0.000 F100.000
G2 X-109.742 Y27.491 Z-2.000 I0.301 J-0.626 K0.000 F100.000
G1 X-109.742 Y27.491 Z-2.500 F200.000
G2 X-109.932 Y26.374 Z-2.500 I-0.491 J-0.491 K0.000 F100.000
G2 X-110.535 Y27.626 Z-2.500 I-0.301 J0.626 K0.000 F100.000
G2 X-109.742 Y27.491 Z-2.500 I0.301 J-0.626 K0.000 F100.000
G1 X-109.742 Y27.491 Z-3.000 F200.000
G2 X-109.932 Y26.374 Z-3.000 I-0.491 J-0.491 K0.000 F100.000
G2 X-110.535 Y27.626 Z-3.000 I-0.301 J0.626 K0.000 F100.000
G2 X-109.742 Y27.491 Z-3.000 I0.301 J-0.626 K0.000 F100.000
G0 Z5.000
G0 Z5.000
(Finish operation: Hole0010)
(Begin operation: Hole0011)
(Path: Hole0011)
(Hole0011)
(Compensated Tool Path. Diameter: 1.7)
G0 Z5.000
G0 X-117.400 Y15.633
G0 Z3.000
G1 X-117.400 Y15.633 Z-0.500 F200.000
G2 X-117.751 Y14.150 Z-0.500 I-0.633 J-0.633 K0.000 F100.000
G2 X-118.316 Y15.850 Z-0.500 I-0.282 J0.850 K0.000 F100.000
G2 X-117.400 Y15.633 Z-0.500 I0.282 J-0.850 K0.000 F100.000
G1 X-117.400 Y15.633 Z-1.000 F200.000
G2 X-117.751 Y14.150 Z-1.000 I-0.633 J-0.633 K0.000 F100.000
G2 X-118.316 Y15.850 Z-1.000 I-0.282 J0.850 K0.000 F100.000
G2 X-117.400 Y15.633 Z-1.000 I0.282 J-0.850 K0.000 F100.000
G1 X-117.400 Y15.633 Z-1.500 F200.000
G2 X-117.751 Y14.150 Z-1.500 I-0.633 J-0.633 K0.000 F100.000
G2 X-118.316 Y15.850 Z-1.500 I-0.282 J0.850 K0.000 F100.000
G2 X-117.400 Y15.633 Z-1.500 I0.282 J-0.850 K0.000 F100.000
G1 X-117.400 Y15.633 Z-2.000 F200.000
G2 X-117.751 Y14.150 Z-2.000 I-0.633 J-0.633 K0.000 F100.000
G2 X-118.316 Y15.850 Z-2.000 I-0.282 J0.850 K0.000 F100.000
G2 X-117.400 Y15.633 Z-2.000 I0.282 J-0.850 K0.000 F100.000
G1 X-117.400 Y15.633 Z-2.500 F200.000
G2 X-117.751 Y14.150 Z-2.500 I-0.633 J-0.633 K0.000 F100.000
G2 X-118.316 Y15.850 Z-2.500 I-0.282 J0.850 K0.000 F100.000
G2 X-117.400 Y15.633 Z-2.500 I0.282 J-0.850 K0.000 F100.000
G1 X-117.400 Y15.633 Z-3.000 F200.000
G2 X-117.751 Y14.150 Z-3.000 I-0.633 J-0.633 K0.000 F100.000
G2 X-118.316 Y15.850 Z-3.000 I-0.282 J0.850 K0.000 F100.000
G2 X-117.400 Y15.633 Z-3.000 I0.282 J-0.850 K0.000 F100.000
G0 Z5.000
G0 Z5.000
(Finish operation: Hole0011)
(Begin operation: Hole0012)
(Path: Hole0012)
(Hole0012)
(Compensated Tool Path. Diameter: 1.7)
G0 Z5.000
G0 X-117.401 Y25.633
G0 Z3.000
G1 X-117.401 Y25.633 Z-0.500 F200.000
G2 X-117.949 Y24.108 Z-0.500 I-0.633 J-0.633 K0.000 F100.000
G2 X-118.124 Y25.891 Z-0.500 I-0.085 J0.892 K0.000 F100.000
G2 X-117.401 Y25.633 Z-0.500 I0.090 J-0.891 K0.000 F100.000
G1 X-117.401 Y25.633 Z-1.000 F200.000
G2 X-117.949 Y24.108 Z-1.000 I-0.633 J-0.633 K0.000 F100.000
G2 X-118.124 Y25.891 Z-1.000 I-0.085 J0.892 K0.000 F100.000
G2 X-117.401 Y25.633 Z-1.000 I0.090 J-0.891 K0.000 F100.000
G1 X-117.401 Y25.633 Z-1.500 F200.000
G2 X-117.949 Y24.108 Z-1.500 I-0.633 J-0.633 K0.000 F100.000
G2 X-118.124 Y25.891 Z-1.500 I-0.085 J0.892 K0.000 F100.000
G2 X-117.401 Y25.633 Z-1.500 I0.090 J-0.891 K0.000 F100.000
G1 X-117.401 Y25.633 Z-2.000 F200.000
G2 X-117.949 Y24.108 Z-2.000 I-0.633 J-0.633 K0.000 F100.000
G2 X-118.124 Y25.891 Z-2.000 I-0.085 J0.892 K0.000 F100.000
G2 X-117.401 Y25.633 Z-2.000 I0.090 J-0.891 K0.000 F100.000
G1 X-117.401 Y25.633 Z-2.500 F200.000
G2 X-117.949 Y24.108 Z-2.500 I-0.633 J-0.633 K0.000 F100.000
G2 X-118.124 Y25.891 Z-2.500 I-0.085 J0.892 K0.000 F100.000
G2 X-117.401 Y25.633 Z-2.500 I0.090 J-0.891 K0.000 F100.000
G1 X-117.401 Y25.633 Z-3.000 F200.000
G2 X-117.949 Y24.108 Z-3.000 I-0.633 J-0.633 K0.000 F100.000
G2 X-118.124 Y25.891 Z-3.000 I-0.085 J0.892 K0.000 F100.000
G2 X-117.401 Y25.633 Z-3.000 I0.090 J-0.891 K0.000 F100.000
G0 Z5.000
G0 Z5.000
(Finish operation: Hole0012)
(Begin operation: Hole0013)
(Path: Hole0013)
(Hole0013)
(Compensated Tool Path. Diameter: 1.7)
G0 Z5.000
G0 X-129.742 Y27.491
G0 Z3.000
G1 X-129.742 Y27.491 Z-0.500 F200.000
G2 X-129.932 Y26.374 Z-0.500 I-0.491 J-0.491 K0.000 F100.000
G2 X-130.535 Y27.626 Z-0.500 I-0.301 J0.626 K0.000 F100.000
G2 X-129.742 Y27.491 Z-0.500 I0.301 J-0.626 K0.000 F100.000
G1 X-129.742 Y27.491 Z-1.000 F200.000
G2 X-129.932 Y26.374 Z-1.000 I-0.491 J-0.491 K0.000 F100.000
G2 X-130.535 Y27.626 Z-1.000 I-0.301 J0.626 K0.000 F100.000
G2 X-129.742 Y27.491 Z-1.000 I0.301 J-0.626 K0.000 F100.000
G1 X-129.742 Y27.491 Z-1.500 F200.000
G2 X-129.932 Y26.374 Z-1.500 I-0.491 J-0.491 K0.000 F100.000
G2 X-130.535 Y27.626 Z-1.500 I-0.301 J0.626 K0.000 F100.000
G2 X-129.742 Y27.491 Z-1.500 I0.301 J-0.626 K0.000 F100.000
G1 X-129.742 Y27.491 Z-2.000 F200.000
G2 X-129.932 Y26.374 Z-2.000 I-0.491 J-0.491 K0.000 F100.000
G2 X-130.535 Y27.626 Z-2.000 I-0.301 J0.626 K0.000 F100.000
G2 X-129.742 Y27.491 Z-2.000 I0.301 J-0.626 K0.000 F100.000
G1 X-129.742 Y27.491 Z-2.500 F200.000
G2 X-129.932 Y26.374 Z-2.500 I-0.491 J-0.491 K0.000 F100.000
G2 X-130.535 Y27.626 Z-2.500 I-0.301 J0.626 K0.000 F100.000
G2 X-129.742 Y27.491 Z-2.500 I0.301 J-0.626 K0.000 F100.000
G1 X-129.742 Y27.491 Z-3.000 F200.000
G2 X-129.932 Y26.374 Z-3.000 I-0.491 J-0.491 K0.000 F100.000
G2 X-130.535 Y27.626 Z-3.000 I-0.301 J0.626 K0.000 F100.000
G2 X-129.742 Y27.491 Z-3.000 I0.301 J-0.626 K0.000 F100.000
G0 Z5.000
G0 Z5.000
(Finish operation: Hole0013)
(Begin operation: Hole0014)
(Path: Hole0014)
(Hole0014)
(Compensated Tool Path. Diameter: 1.7)
G0 Z5.000
G0 X-155.400 Y15.633
G0 Z3.000
G1 X-155.400 Y15.633 Z-0.500 F200.000
G2 X-155.751 Y14.150 Z-0.500 I-0.633 J-0.633 K0.000 F100.000
G2 X-156.316 Y15.850 Z-0.500 I-0.282 J0.850 K0.000 F100.000
G2 X-155.400 Y15.633 Z-0.500 I0.282 J-0.850 K0.000 F100.000
G1 X-155.400 Y15.633 Z-1.000 F200.000
G2 X-155.751 Y14.150 Z-1.000 I-0.633 J-0.633 K0.000 F100.000
G2 X-156.316 Y15.850 Z-1.000 I-0.282 J0.850 K0.000 F100.000
G2 X-155.400 Y15.633 Z-1.000 I0.282 J-0.850 K0.000 F100.000
G1 X-155.400 Y15.633 Z-1.500 F200.000
G2 X-155.751 Y14.150 Z-1.500 I-0.633 J-0.633 K0.000 F100.000
G2 X-156.316 Y15.850 Z-1.500 I-0.282 J0.850 K0.000 F100.000
G2 X-155.400 Y15.633 Z-1.500 I0.282 J-0.850 K0.000 F100.000
G1 X-155.400 Y15.633 Z-2.000 F200.000
G2 X-155.751 Y14.150 Z-2.000 I-0.633 J-0.633 K0.000 F100.000
G2 X-156.316 Y15.850 Z-2.000 I-0.282 J0.850 K0.000 F100.000
G2 X-155.400 Y15.633 Z-2.000 I0.282 J-0.850 K0.000 F100.000
G1 X-155.400 Y15.633 Z-2.500 F200.000
G2 X-155.751 Y14.150 Z-2.500 I-0.633 J-0.633 K0.000 F100.000
G2 X-156.316 Y15.850 Z-2.500 I-0.282 J0.850 K0.000 F100.000
G2 X-155.400 Y15.633 Z-2.500 I0.282 J-0.850 K0.000 F100.000
G1 X-155.400 Y15.633 Z-3.000 F200.000
G2 X-155.751 Y14.150 Z-3.000 I-0.633 J-0.633 K0.000 F100.000
G2 X-156.316 Y15.850 Z-3.000 I-0.282 J0.850 K0.000 F100.000
G2 X-155.400 Y15.633 Z-3.000 I0.282 J-0.850 K0.000 F100.000
G0 Z5.000
G0 Z5.000
(Finish operation: Hole0014)
(Begin operation: Hole0015)
(Path: Hole0015)
(Hole0015)
(Compensated Tool Path. Diameter: 1.7)
G0 Z5.000
G0 X-155.401 Y25.633
G0 Z3.000
G1 X-155.401 Y25.633 Z-0.500 F200.000
G2 X-155.949 Y24.108 Z-0.500 I-0.633 J-0.633 K0.000 F100.000
G2 X-156.124 Y25.891 Z-0.500 I-0.085 J0.892 K0.000 F100.000
G2 X-155.401 Y25.633 Z-0.500 I0.090 J-0.891 K0.000 F100.000
G1 X-155.401 Y25.633 Z-1.000 F200.000
G2 X-155.949 Y24.108 Z-1.000 I-0.633 J-0.633 K0.000 F100.000
G2 X-156.124 Y25.891 Z-1.000 I-0.085 J0.892 K0.000 F100.000
G2 X-155.401 Y25.633 Z-1.000 I0.090 J-0.891 K0.000 F100.000
G1 X-155.401 Y25.633 Z-1.500 F200.000
G2 X-155.949 Y24.108 Z-1.500 I-0.633 J-0.633 K0.000 F100.000
G2 X-156.124 Y25.891 Z-1.500 I-0.085 J0.892 K0.000 F100.000
G2 X-155.401 Y25.633 Z-1.500 I0.090 J-0.891 K0.000 F100.000
G1 X-155.401 Y25.633 Z-2.000 F200.000
G2 X-155.949 Y24.108 Z-2.000 I-0.633 J-0.633 K0.000 F100.000
G2 X-156.124 Y25.891 Z-2.000 I-0.085 J0.892 K0.000 F100.000
G2 X-155.401 Y25.633 Z-2.000 I0.090 J-0.891 K0.000 F100.000
G1 X-155.401 Y25.633 Z-2.500 F200.000
G2 X-155.949 Y24.108 Z-2.500 I-0.633 J-0.633 K0.000 F100.000
G2 X-156.124 Y25.891 Z-2.500 I-0.085 J0.892 K0.000 F100.000
G2 X-155.401 Y25.633 Z-2.500 I0.090 J-0.891 K0.000 F100.000
G1 X-155.401 Y25.633 Z-3.000 F200.000
G2 X-155.949 Y24.108 Z-3.000 I-0.633 J-0.633 K0.000 F100.000
G2 X-156.124 Y25.891 Z-3.000 I-0.085 J0.892 K0.000 F100.000
G2 X-155.401 Y25.633 Z-3.000 I0.090 J-0.891 K0.000 F100.000
G0 Z5.000
G0 Z5.000
(Finish operation: Hole0015)
(Begin operation: Chamfer001)
(Path: Chamfer001)
(Chamfer001)
(Compensated Tool Path. Diameter: 1.7)
G0 Z5.000
G0 X-6.713 Y13.287
G0 Z3.000
G1 X-6.713 Y13.287 Z-0.500 F200.000
G2 X-9.212 Y5.419 Z-0.500 I-3.287 J-3.287 K0.000 F100.000
G2 X-10.788 Y14.581 Z-0.500 I-0.788 J4.581 K0.000 F100.000
G2 X-6.713 Y13.287 Z-0.500 I0.788 J-4.581 K0.000 F100.000
G1 X-6.713 Y13.287 Z-1.000 F200.000
G2 X-9.212 Y5.419 Z-1.000 I-3.287 J-3.287 K0.000 F100.000
G2 X-10.788 Y14.581 Z-1.000 I-0.788 J4.581 K0.000 F100.000
G2 X-6.713 Y13.287 Z-1.000 I0.788 J-4.581 K0.000 F100.000
G1 X-6.713 Y13.287 Z-1.500 F200.000
G2 X-9.212 Y5.419 Z-1.500 I-3.287 J-3.287 K0.000 F100.000
G2 X-10.788 Y14.581 Z-1.500 I-0.788 J4.581 K0.000 F100.000
G2 X-6.713 Y13.287 Z-1.500 I0.788 J-4.581 K0.000 F100.000
G0 Z5.000
G0 Z5.000
(Finish operation: Chamfer001)
(Begin operation: Chamfer002)
(Path: Chamfer002)
(Chamfer002)
(Compensated Tool Path. Diameter: 1.7)
G0 Z5.000
G0 X-3.387 Y25.620
G0 Z3.000
G1 X-3.387 Y25.620 Z-0.500 F200.000
G2 X-3.215 Y25.363 Z-0.500 I-0.646 J-0.620 K0.000 F100.000
G2 X-3.100 Y24.793 Z-0.500 I-1.630 J-0.625 K0.000 F100.000
G1 X-3.100 Y15.200 Z-0.500 F100.000
G1 X-3.129 Y15.088 Z-0.500 F100.000
G2 X-3.753 Y14.150 Z-0.500 I-0.923 J-0.063 K0.000 F100.000
G2 X-4.904 Y15.263 Z-0.500 I-0.278 J0.864 K0.000 F100.000
G1 X-4.900 Y24.659 Z-0.500 F100.000
G1 X-4.929 Y25.008 Z-0.500 F100.000
G2 X-3.387 Y25.620 Z-0.500 I0.896 J-0.008 K0.000 F100.000
G1 X-3.387 Y25.620 Z-1.000 F200.000
G2 X-3.215 Y25.363 Z-1.000 I-0.646 J-0.620 K0.000 F100.000
G2 X-3.100 Y24.793 Z-1.000 I-1.630 J-0.625 K0.000 F100.000
G1 X-3.100 Y15.200 Z-1.000 F100.000
G1 X-3.129 Y15.088 Z-1.000 F100.000
G2 X-3.753 Y14.150 Z-1.000 I-0.923 J-0.063 K0.000 F100.000
G2 X-4.904 Y15.263 Z-1.000 I-0.278 J0.864 K0.000 F100.000
G1 X-4.900 Y24.659 Z-1.000 F100.000
G1 X-4.929 Y25.008 Z-1.000 F100.000
G2 X-3.387 Y25.620 Z-1.000 I0.896 J-0.008 K0.000 F100.000
G1 X-3.387 Y25.620 Z-1.500 F200.000
G2 X-3.215 Y25.363 Z-1.500 I-0.646 J-0.620 K0.000 F100.000
G2 X-3.100 Y24.793 Z-1.500 I-1.630 J-0.625 K0.000 F100.000
G1 X-3.100 Y15.200 Z-1.500 F100.000
G1 X-3.129 Y15.088 Z-1.500 F100.000
G2 X-3.753 Y14.150 Z-1.500 I-0.923 J-0.063 K0.000 F100.000
G2 X-4.904 Y15.263 Z-1.500 I-0.278 J0.864 K0.000 F100.000
G1 X-4.900 Y24.659 Z-1.500 F100.000
G1 X-4.929 Y25.008 Z-1.500 F100.000
G2 X-3.387 Y25.620 Z-1.500 I0.896 J-0.008 K0.000 F100.000
G0 Z5.000
G0 Z5.000
(Finish operation: Chamfer002)
(Begin operation: Chamfer003)
(Path: Chamfer003)
(Chamfer003)
(Compensated Tool Path. Diameter: 1.7)
G0 Z5.000
G0 X-6.713 Y33.287
G0 Z3.000
G1 X-6.713 Y33.287 Z-0.500 F200.000
G2 X-9.212 Y25.419 Z-0.500 I-3.287 J-3.287 K0.000 F100.000
G2 X-10.788 Y34.581 Z-0.500 I-0.788 J4.581 K0.000 F100.000
G2 X-6.713 Y33.287 Z-0.500 I0.788 J-4.581 K0.000 F100.000
G1 X-6.713 Y33.287 Z-1.000 F200.000
G2 X-9.212 Y25.419 Z-1.000 I-3.287 J-3.287 K0.000 F100.000
G2 X-10.788 Y34.581 Z-1.000 I-0.788 J4.581 K0.000 F100.000
G2 X-6.713 Y33.287 Z-1.000 I0.788 J-4.581 K0.000 F100.000
G1 X-6.713 Y33.287 Z-1.500 F200.000
G2 X-9.212 Y25.419 Z-1.500 I-3.287 J-3.287 K0.000 F100.000
G2 X-10.788 Y34.581 Z-1.500 I-0.788 J4.581 K0.000 F100.000
G2 X-6.713 Y33.287 Z-1.500 I0.788 J-4.581 K0.000 F100.000
G0 Z5.000
G0 Z5.000
(Finish operation: Chamfer003)
(Begin operation: Chamfer004)
(Path: Chamfer004)
(Chamfer004)
(Compensated Tool Path. Diameter: 1.7)
G0 Z5.000
G0 X-41.387 Y25.620
G0 Z3.000
G1 X-41.387 Y25.620 Z-0.500 F200.000
G2 X-41.215 Y25.363 Z-0.500 I-0.646 J-0.620 K0.000 F100.000
G2 X-41.100 Y24.793 Z-0.500 I-1.630 J-0.625 K0.000 F100.000
G1 X-41.100 Y15.211 Z-0.500 F100.000
G3 X-41.156 Y14.818 Z-0.500 I0.658 J-0.295 K0.000 F100.000
G2 X-41.753 Y14.150 Z-0.500 I-0.878 J0.183 K0.000 F100.000
G2 X-42.904 Y15.263 Z-0.500 I-0.278 J0.864 K0.000 F100.000
G1 X-42.900 Y24.659 Z-0.500 F100.000
G1 X-42.929 Y25.008 Z-0.500 F100.000
G2 X-41.387 Y25.620 Z-0.500 I0.896 J-0.008 K0.000 F100.000
G1 X-41.387 Y25.620 Z-1.000 F200.000
G2 X-41.215 Y25.363 Z-1.000 I-0.646 J-0.620 K0.000 F100.000
G2 X-41.100 Y24.793 Z-1.000 I-1.630 J-0.625 K0.000 F100.000
G1 X-41.100 Y15.211 Z-1.000 F100.000
G3 X-41.156 Y14.818 Z-1.000 I0.658 J-0.295 K0.000 F100.000
G2 X-41.753 Y14.150 Z-1.000 I-0.878 J0.183 K0.000 F100.000
G2 X-42.904 Y15.263 Z-1.000 I-0.278 J0.864 K0.000 F100.000
G1 X-42.900 Y24.659 Z-1.000 F100.000
G1 X-42.929 Y25.008 Z-1.000 F100.000
G2 X-41.387 Y25.620 Z-1.000 I0.896 J-0.008 K0.000 F100.000
G1 X-41.387 Y25.620 Z-1.500 F200.000
G2 X-41.215 Y25.363 Z-1.500 I-0.646 J-0.620 K0.000 F100.000
G2 X-41.100 Y24.793 Z-1.500 I-1.630 J-0.625 K0.000 F100.000
G1 X-41.100 Y15.211 Z-1.500 F100.000
G3 X-41.156 Y14.818 Z-1.500 I0.658 J-0.295 K0.000 F100.000
G2 X-41.753 Y14.150 Z-1.500 I-0.878 J0.183 K0.000 F100.000
G2 X-42.904 Y15.263 Z-1.500 I-0.278 J0.864 K0.000 F100.000
G1 X-42.900 Y24.659 Z-1.500 F100.000
G1 X-42.929 Y25.008 Z-1.500 F100.000
G2 X-41.387 Y25.620 Z-1.500 I0.896 J-0.008 K0.000 F100.000
G0 Z5.000
G0 Z5.000
(Finish operation: Chamfer004)
(Begin operation: Chamfer005)
(Path: Chamfer005)
(Chamfer005)
(Compensated Tool Path. Diameter: 1.7)
G0 Z5.000
G0 X-79.387 Y25.620
G0 Z3.000
G1 X-79.387 Y25.620 Z-0.500 F200.000
G2 X-79.215 Y25.363 Z-0.500 I-0.646 J-0.620 K0.000 F100.000
G2 X-79.100 Y24.793 Z-0.500 I-1.630 J-0.625 K0.000 F100.000
G1 X-79.100 Y15.200 Z-0.500 F100.000
G1 X-79.129 Y15.088 Z-0.500 F100.000
G2 X-79.753 Y14.150 Z-0.500 I-0.923 J-0.063 K0.000 F100.000
G2 X-80.904 Y15.263 Z-0.500 I-0.278 J0.864 K0.000 F100.000
G1 X-80.900 Y24.659 Z-0.500 F100.000
G1 X-80.929 Y25.008 Z-0.500 F100.000
G2 X-79.387 Y25.620 Z-0.500 I0.896 J-0.008 K0.000 F100.000
G1 X-79.387 Y25.620 Z-1.000 F200.000
G2 X-79.215 Y25.363 Z-1.000 I-0.646 J-0.620 K0.000 F100.000
G2 X-79.100 Y24.793 Z-1.000 I-1.630 J-0.625 K0.000 F100.000
G1 X-79.100 Y15.200 Z-1.000 F100.000
G1 X-79.129 Y15.088 Z-1.000 F100.000
G2 X-79.753 Y14.150 Z-1.000 I-0.923 J-0.063 K0.000 F100.000
G2 X-80.904 Y15.263 Z-1.000 I-0.278 J0.864 K0.000 F100.000
G1 X-80.900 Y24.659 Z-1.000 F100.000
G1 X-80.929 Y25.008 Z-1.000 F100.000
G2 X-79.387 Y25.620 Z-1.000 I0.896 J-0.008 K0.000 F100.000
G1 X-79.387 Y25.620 Z-1.500 F200.000
G2 X-79.215 Y25.363 Z-1.500 I-0.646 J-0.620 K0.000 F100.000
G2 X-79.100 Y24.793 Z-1.500 I-1.630 J-0.625 K0.000 F100.000
G1 X-79.100 Y15.200 Z-1.500 F100.000
G1 X-79.129 Y15.088 Z-1.500 F100.000
G2 X-79.753 Y14.150 Z-1.500 I-0.923 J-0.063 K0.000 F100.000
G2 X-80.904 Y15.263 Z-1.500 I-0.278 J0.864 K0.000 F100.000
G1 X-80.900 Y24.659 Z-1.500 F100.000
G1 X-80.929 Y25.008 Z-1.500 F100.000
G2 X-79.387 Y25.620 Z-1.500 I0.896 J-0.008 K0.000 F100.000
G0 Z5.000
G0 Z5.000
(Finish operation: Chamfer005)
(Begin operation: Chamfer006)
(Path: Chamfer006)
(Chamfer006)
(Compensated Tool Path. Diameter: 1.7)
G0 Z5.000
G0 X-91.660 Y30.287
G0 Z3.000
G1 X-91.660 Y30.287 Z-0.500 F200.000
G2 X-94.140 Y22.422 Z-0.500 I-3.287 J-3.287 K0.000 F100.000
G2 X-99.527 Y26.202 Z-0.500 I-0.807 J4.578 K0.000 F100.000
G2 X-95.735 Y31.581 Z-0.500 I4.580 J0.798 K0.000 F100.000
G2 X-91.660 Y30.287 Z-0.500 I0.788 J-4.581 K0.000 F100.000
G1 X-91.660 Y30.287 Z-1.000 F200.000
G2 X-94.140 Y22.422 Z-1.000 I-3.287 J-3.287 K0.000 F100.000
G2 X-99.527 Y26.202 Z-1.000 I-0.807 J4.578 K0.000 F100.000
G2 X-95.735 Y31.581 Z-1.000 I4.580 J0.798 K0.000 F100.000
G2 X-91.660 Y30.287 Z-1.000 I0.788 J-4.581 K0.000 F100.000
G1 X-91.660 Y30.287 Z-1.500 F200.000
G2 X-94.140 Y22.422 Z-1.500 I-3.287 J-3.287 K0.000 F100.000
G2 X-99.527 Y26.202 Z-1.500 I-0.807 J4.578 K0.000 F100.000
G2 X-95.735 Y31.581 Z-1.500 I4.580 J0.798 K0.000 F100.000
G2 X-91.660 Y30.287 Z-1.500 I0.788 J-4.581 K0.000 F100.000
G0 Z5.000
G0 Z5.000
(Finish operation: Chamfer006)
(Begin operation: Chamfer007)
(Path: Chamfer007)
(Chamfer007)
(Compensated Tool Path. Diameter: 1.7)
G0 Z5.000
G0 X-117.387 Y25.620
G0 Z3.000
G1 X-117.387 Y25.620 Z-0.500 F200.000
G2 X-117.215 Y25.363 Z-0.500 I-0.646 J-0.620 K0.000 F100.000
G2 X-117.100 Y24.793 Z-0.500 I-1.630 J-0.625 K0.000 F100.000
G1 X-117.100 Y15.200 Z-0.500 F100.000
G1 X-117.129 Y15.088 Z-0.500 F100.000
G2 X-117.753 Y14.150 Z-0.500 I-0.923 J-0.063 K0.000 F100.000
G2 X-118.904 Y15.263 Z-0.500 I-0.278 J0.864 K0.000 F100.000
G1 X-118.900 Y24.659 Z-0.500 F100.000
G1 X-118.929 Y25.008 Z-0.500 F100.000
G2 X-117.387 Y25.620 Z-0.500 I0.896 J-0.008 K0.000 F100.000
G1 X-117.387 Y25.620 Z-1.000 F200.000
G2 X-117.215 Y25.363 Z-1.000 I-0.646 J-0.620 K0.000 F100.000
G2 X-117.100 Y24.793 Z-1.000 I-1.630 J-0.625 K0.000 F100.000
G1 X-117.100 Y15.200 Z-1.000 F100.000
G1 X-117.129 Y15.088 Z-1.000 F100.000
G2 X-117.753 Y14.150 Z-1.000 I-0.923 J-0.063 K0.000 F100.000
G2 X-118.904 Y15.263 Z-1.000 I-0.278 J0.864 K0.000 F100.000
G1 X-118.900 Y24.659 Z-1.000 F100.000
G1 X-118.929 Y25.008 Z-1.000 F100.000
G2 X-117.387 Y25.620 Z-1.000 I0.896 J-0.008 K0.000 F100.000
G1 X-117.387 Y25.620 Z-1.500 F200.000
G2 X-117.215 Y25.363 Z-1.500 I-0.646 J-0.620 K0.000 F100.000
G2 X-117.100 Y24.793 Z-1.500 I-1.630 J-0.625 K0.000 F100.000
G1 X-117.100 Y15.200 Z-1.500 F100.000
G1 X-117.129 Y15.088 Z-1.500 F100.000
G2 X-117.753 Y14.150 Z-1.500 I-0.923 J-0.063 K0.000 F100.000
G2 X-118.904 Y15.263 Z-1.500 I-0.278 J0.864 K0.000 F100.000
G1 X-118.900 Y24.659 Z-1.500 F100.000
G1 X-118.929 Y25.008 Z-1.500 F100.000
G2 X-117.387 Y25.620 Z-1.500 I0.896 J-0.008 K0.000 F100.000
G0 Z5.000
G0 Z5.000
(Finish operation: Chamfer007)
(Begin operation: Chamfer008)
(Path: Chamfer008)
(Chamfer008)
(Compensated Tool Path. Diameter: 1.7)
G0 Z5.000
G0 X-155.387 Y25.620
G0 Z3.000
G1 X-155.387 Y25.620 Z-0.500 F200.000
G2 X-155.215 Y25.363 Z-0.500 I-0.646 J-0.620 K0.000 F100.000
G2 X-155.100 Y24.793 Z-0.500 I-1.630 J-0.625 K0.000 F100.000
G1 X-155.100 Y15.211 Z-0.500 F100.000
G3 X-155.156 Y14.818 Z-0.500 I0.658 J-0.295 K0.000 F100.000
G2 X-155.753 Y14.150 Z-0.500 I-0.878 J0.183 K0.000 F100.000
G2 X-156.904 Y15.263 Z-0.500 I-0.278 J0.864 K0.000 F100.000
G1 X-156.900 Y24.659 Z-0.500 F100.000
G1 X-156.929 Y25.008 Z-0.500 F100.000
G2 X-155.387 Y25.620 Z-0.500 I0.896 J-0.008 K0.000 F100.000
G1 X-155.387 Y25.620 Z-1.000 F200.000
G2 X-155.215 Y25.363 Z-1.000 I-0.646 J-0.620 K0.000 F100.000
G2 X-155.100 Y24.793 Z-1.000 I-1.630 J-0.625 K0.000 F100.000
G1 X-155.100 Y15.211 Z-1.000 F100.000
G3 X-155.156 Y14.818 Z-1.000 I0.658 J-0.295 K0.000 F100.000
G2 X-155.753 Y14.150 Z-1.000 I-0.878 J0.183 K0.000 F100.000
G2 X-156.904 Y15.263 Z-1.000 I-0.278 J0.864 K0.000 F100.000
G1 X-156.900 Y24.659 Z-1.000 F100.000
G1 X-156.929 Y25.008 Z-1.000 F100.000
G2 X-155.387 Y25.620 Z-1.000 I0.896 J-0.008 K0.000 F100.000
G1 X-155.387 Y25.620 Z-1.500 F200.000
G2 X-155.215 Y25.363 Z-1.500 I-0.646 J-0.620 K0.000 F100.000
G2 X-155.100 Y24.793 Z-1.500 I-1.630 J-0.625 K0.000 F100.000
G1 X-155.100 Y15.211 Z-1.500 F100.000
G3 X-155.156 Y14.818 Z-1.500 I0.658 J-0.295 K0.000 F100.000
G2 X-155.753 Y14.150 Z-1.500 I-0.878 J0.183 K0.000 F100.000
G2 X-156.904 Y15.263 Z-1.500 I-0.278 J0.864 K0.000 F100.000
G1 X-156.900 Y24.659 Z-1.500 F100.000
G1 X-156.929 Y25.008 Z-1.500 F100.000
G2 X-155.387 Y25.620 Z-1.500 I0.896 J-0.008 K0.000 F100.000
G0 Z5.000
G0 Z5.000
(Finish operation: Chamfer008)
(Begin operation: DressupTag)
(Path: DressupTag)
G0 Z5.000
G0 X0.497 Y40.530 Z5.000
G0 X0.497 Y40.530 Z3.000
G1 X0.497 Y40.530 Z-0.500 F200.000
G2 X0.716 Y40.000 Z-0.500 I-0.530 J-0.530 K0.000 F100.000
G1 X0.716 Y0.000 Z-0.500 F100.000
G2 X-0.034 Y-0.750 Z-0.500 I-0.750 J0.000 K0.000 F100.000
G1 X-160.034 Y-0.750 Z-0.500 F100.000
G2 X-160.784 Y-0.000 Z-0.500 I0.000 J0.750 K0.000 F100.000
G1 X-160.784 Y40.000 Z-0.500 F100.000
G2 X-160.034 Y40.750 Z-0.500 I0.750 J-0.000 K0.000 F100.000
G1 X-0.034 Y40.750 Z-0.500 F100.000
G2 X0.497 Y40.530 Z-0.500 I-0.000 J-0.750 K0.000 F100.000
G1 X0.497 Y40.530 Z-1.000 F200.000
G2 X0.716 Y40.000 Z-1.000 I-0.530 J-0.530 K0.000 F100.000
G1 X0.716 Y0.000 Z-1.000 F100.000
G2 X-0.034 Y-0.750 Z-1.000 I-0.750 J0.000 K0.000 F100.000
G1 X-160.034 Y-0.750 Z-1.000 F100.000
G2 X-160.784 Y-0.000 Z-1.000 I0.000 J0.750 K0.000 F100.000
G1 X-160.784 Y40.000 Z-1.000 F100.000
G2 X-160.034 Y40.750 Z-1.000 I0.750 J-0.000 K0.000 F100.000
G1 X-0.034 Y40.750 Z-1.000 F100.000
G2 X0.497 Y40.530 Z-1.000 I-0.000 J-0.750 K0.000 F100.000
G1 X0.497 Y40.530 Z-1.500 F200.000
G2 X0.716 Y40.000 Z-1.500 I-0.530 J-0.530 K0.000 F100.000
G1 X0.716 Y0.000 Z-1.500 F100.000
G2 X-0.034 Y-0.750 Z-1.500 I-0.750 J0.000 K0.000 F100.000
G1 X-160.034 Y-0.750 Z-1.500 F100.000
G2 X-160.784 Y-0.000 Z-1.500 I0.000 J0.750 K0.000 F100.000
G1 X-160.784 Y40.000 Z-1.500 F100.000
G2 X-160.034 Y40.750 Z-1.500 I0.750 J-0.000 K0.000 F100.000
G1 X-0.034 Y40.750 Z-1.500 F100.000
G2 X0.497 Y40.530 Z-1.500 I-0.000 J-0.750 K0.000 F100.000
G1 X0.497 Y40.530 Z-2.000 F200.000
G2 X0.716 Y40.000 Z-2.000 I-0.530 J-0.530 K0.000 F100.000
G1 X0.716 Y0.000 Z-2.000 F100.000
G2 X-0.034 Y-0.750 Z-2.000 I-0.750 J0.000 K0.000 F100.000
G1 X-160.034 Y-0.750 Z-2.000 F100.000
G2 X-160.784 Y-0.000 Z-2.000 I0.000 J0.750 K0.000 F100.000
G1 X-160.784 Y40.000 Z-2.000 F100.000
G2 X-160.034 Y40.750 Z-2.000 I0.750 J-0.000 K0.000 F100.000
G1 X-0.034 Y40.750 Z-2.000 F100.000
G2 X0.497 Y40.530 Z-2.000 I-0.000 J-0.750 K0.000 F100.000
G1 X0.497 Y40.530 Z-2.500 F200.000
G2 X0.716 Y40.000 Z-2.500 I-0.530 J-0.530 K0.000 F100.000
G1 X0.716 Y0.000 Z-2.500 F100.000
G2 X-0.034 Y-0.750 Z-2.500 I-0.750 J0.000 K0.000 F100.000
G1 X-160.034 Y-0.750 Z-2.500 F100.000
G2 X-160.784 Y-0.000 Z-2.500 I0.000 J0.750 K0.000 F100.000
G1 X-160.784 Y40.000 Z-2.500 F100.000
G2 X-160.034 Y40.750 Z-2.500 I0.750 J-0.000 K0.000 F100.000
G1 X-0.034 Y40.750 Z-2.500 F100.000
G2 X0.497 Y40.530 Z-2.500 I-0.000 J-0.750 K0.000 F100.000
G1 X0.497 Y40.530 Z-3.000 F200.000
G2 X0.716 Y40.000 Z-3.000 I-0.530 J-0.530 K0.000 F100.000
G1 X0.716 Y0.000 Z-3.000 F100.000
G2 X-0.034 Y-0.750 Z-3.000 I-0.750 J0.000 K0.000 F100.000
G1 X-36.684 Y-0.750 Z-3.000 F100.000
G1 X-36.684 Y-0.750 Z-2.700 F200.000
G1 X-43.384 Y-0.750 Z-2.700 F100.000
G1 X-43.384 Y-0.750 Z-3.000 F200.000
G1 X-116.684 Y-0.750 Z-3.000 F100.000
G1 X-116.684 Y-0.750 Z-2.700 F200.000
G1 X-123.384 Y-0.750 Z-2.700 F100.000
G1 X-123.384 Y-0.750 Z-3.000 F200.000
G1 X-160.034 Y-0.750 Z-3.000 F100.000
G2 X-160.784 Y-0.000 Z-3.000 I0.000 J0.750 K0.000 F100.000
G1 X-160.784 Y40.000 Z-3.000 F100.000
G2 X-160.034 Y40.750 Z-3.000 I0.750 J-0.000 K0.000 F100.000
G1 X-123.384 Y40.750 Z-3.000 F100.000
G1 X-123.384 Y40.750 Z-2.700 F200.000
G1 X-116.684 Y40.750 Z-2.700 F100.000
G1 X-116.684 Y40.750 Z-3.000 F200.000
G1 X-43.384 Y40.750 Z-3.000 F100.000
G1 X-43.384 Y40.750 Z-2.700 F200.000
G1 X-36.684 Y40.750 Z-2.700 F100.000
G1 X-36.684 Y40.750 Z-3.000 F200.000
G1 X-0.034 Y40.750 Z-3.000 F100.000
G2 X0.497 Y40.530 Z-3.000 I-0.000 J-0.750 K0.000 F100.000
G0 X0.497 Y40.530 Z5.000
(Finish operation: DressupTag)
(Begin postamble)
M5
G17 G90
M2
