(Exported by FreeCAD)
(Post Processor: grbl_post)
(Output Time:2023-06-26 20:19:09.579010)
(Begin preamble)
G17 G90
G21
(Begin operation: G59)
(Path: G59)
G59
G0 Z5.000
(Finish operation: G59)
(Begin operation: kukuruza-1.7-7-3.176)
(Path: kukuruza-1.7-7-3.176)
(kukuruza-1.7-7-3.176)
(Begin toolchange)
( M6 T1 )
M3 S1200
(Finish operation: kukuruza-1.7-7-3.176)
(Begin operation: Hole001)
(Path: Hole001)
(Profile)
(Compensated Tool Path. Diameter: 1.7)
G0 Z5.000
G0 X-4.544 Y2.456
G0 Z3.000
G1 X-4.544 Y2.456 Z-0.500 F300.000
G2 X-4.720 Y1.419 Z-0.500 I-0.456 J-0.456 K0.000 F120.000
G2 X-5.280 Y2.581 Z-0.500 I-0.280 J0.581 K0.000 F120.000
G2 X-4.544 Y2.456 Z-0.500 I0.280 J-0.581 K0.000 F120.000
G1 X-4.544 Y2.456 Z-1.000 F300.000
G2 X-4.720 Y1.419 Z-1.000 I-0.456 J-0.456 K0.000 F120.000
G2 X-5.280 Y2.581 Z-1.000 I-0.280 J0.581 K0.000 F120.000
G2 X-4.544 Y2.456 Z-1.000 I0.280 J-0.581 K0.000 F120.000
G1 X-4.544 Y2.456 Z-1.500 F300.000
G2 X-4.720 Y1.419 Z-1.500 I-0.456 J-0.456 K0.000 F120.000
G2 X-5.280 Y2.581 Z-1.500 I-0.280 J0.581 K0.000 F120.000
G2 X-4.544 Y2.456 Z-1.500 I0.280 J-0.581 K0.000 F120.000
G1 X-4.544 Y2.456 Z-2.000 F300.000
G2 X-4.720 Y1.419 Z-2.000 I-0.456 J-0.456 K0.000 F120.000
G2 X-5.280 Y2.581 Z-2.000 I-0.280 J0.581 K0.000 F120.000
G2 X-4.544 Y2.456 Z-2.000 I0.280 J-0.581 K0.000 F120.000
G1 X-4.544 Y2.456 Z-2.500 F300.000
G2 X-4.720 Y1.419 Z-2.500 I-0.456 J-0.456 K0.000 F120.000
G2 X-5.280 Y2.581 Z-2.500 I-0.280 J0.581 K0.000 F120.000
G2 X-4.544 Y2.456 Z-2.500 I0.280 J-0.581 K0.000 F120.000
G1 X-4.544 Y2.456 Z-3.000 F300.000
G2 X-4.720 Y1.419 Z-3.000 I-0.456 J-0.456 K0.000 F120.000
G2 X-5.280 Y2.581 Z-3.000 I-0.280 J0.581 K0.000 F120.000
G2 X-4.544 Y2.456 Z-3.000 I0.280 J-0.581 K0.000 F120.000
G0 Z5.000
G0 Z5.000
(Finish operation: Hole001)
(Begin operation: Hole002)
(Path: Hole002)
(Profile002)
(Compensated Tool Path. Diameter: 1.7)
G0 Z5.000
G0 X-4.544 Y8.456
G0 Z3.000
G1 X-4.544 Y8.456 Z-0.500 F300.000
G2 X-4.720 Y7.419 Z-0.500 I-0.456 J-0.456 K0.000 F120.000
G2 X-5.280 Y8.581 Z-0.500 I-0.280 J0.581 K0.000 F120.000
G2 X-4.544 Y8.456 Z-0.500 I0.280 J-0.581 K0.000 F120.000
G1 X-4.544 Y8.456 Z-1.000 F300.000
G2 X-4.720 Y7.419 Z-1.000 I-0.456 J-0.456 K0.000 F120.000
G2 X-5.280 Y8.581 Z-1.000 I-0.280 J0.581 K0.000 F120.000
G2 X-4.544 Y8.456 Z-1.000 I0.280 J-0.581 K0.000 F120.000
G1 X-4.544 Y8.456 Z-1.500 F300.000
G2 X-4.720 Y7.419 Z-1.500 I-0.456 J-0.456 K0.000 F120.000
G2 X-5.280 Y8.581 Z-1.500 I-0.280 J0.581 K0.000 F120.000
G2 X-4.544 Y8.456 Z-1.500 I0.280 J-0.581 K0.000 F120.000
G1 X-4.544 Y8.456 Z-2.000 F300.000
G2 X-4.720 Y7.419 Z-2.000 I-0.456 J-0.456 K0.000 F120.000
G2 X-5.280 Y8.581 Z-2.000 I-0.280 J0.581 K0.000 F120.000
G2 X-4.544 Y8.456 Z-2.000 I0.280 J-0.581 K0.000 F120.000
G1 X-4.544 Y8.456 Z-2.500 F300.000
G2 X-4.720 Y7.419 Z-2.500 I-0.456 J-0.456 K0.000 F120.000
G2 X-5.280 Y8.581 Z-2.500 I-0.280 J0.581 K0.000 F120.000
G2 X-4.544 Y8.456 Z-2.500 I0.280 J-0.581 K0.000 F120.000
G1 X-4.544 Y8.456 Z-3.000 F300.000
G2 X-4.720 Y7.419 Z-3.000 I-0.456 J-0.456 K0.000 F120.000
G2 X-5.280 Y8.581 Z-3.000 I-0.280 J0.581 K0.000 F120.000
G2 X-4.544 Y8.456 Z-3.000 I0.280 J-0.581 K0.000 F120.000
G0 Z5.000
G0 Z5.000
(Finish operation: Hole002)
(Begin operation: Hole003)
(Path: Hole003)
(Profile003)
(Compensated Tool Path. Diameter: 1.7)
G0 Z5.000
G0 X-4.190 Y34.810
G0 Z3.000
G1 X-4.190 Y34.810 Z-0.500 F300.000
G2 X-4.561 Y32.941 Z-0.500 I-0.810 J-0.810 K0.000 F120.000
G2 X-6.059 Y33.561 Z-0.500 I-0.439 J1.059 K0.000 F120.000
G2 X-5.439 Y35.059 Z-0.500 I1.059 J0.439 K0.000 F120.000
G2 X-4.190 Y34.810 Z-0.500 I0.439 J-1.059 K0.000 F120.000
G1 X-4.190 Y34.810 Z-1.000 F300.000
G2 X-4.561 Y32.941 Z-1.000 I-0.810 J-0.810 K0.000 F120.000
G2 X-6.059 Y33.561 Z-1.000 I-0.439 J1.059 K0.000 F120.000
G2 X-5.439 Y35.059 Z-1.000 I1.059 J0.439 K0.000 F120.000
G2 X-4.190 Y34.810 Z-1.000 I0.439 J-1.059 K0.000 F120.000
G1 X-4.190 Y34.810 Z-1.500 F300.000
G2 X-4.561 Y32.941 Z-1.500 I-0.810 J-0.810 K0.000 F120.000
G2 X-6.059 Y33.561 Z-1.500 I-0.439 J1.059 K0.000 F120.000
G2 X-5.439 Y35.059 Z-1.500 I1.059 J0.439 K0.000 F120.000
G2 X-4.190 Y34.810 Z-1.500 I0.439 J-1.059 K0.000 F120.000
G1 X-4.190 Y34.810 Z-2.000 F300.000
G2 X-4.561 Y32.941 Z-2.000 I-0.810 J-0.810 K0.000 F120.000
G2 X-6.059 Y33.561 Z-2.000 I-0.439 J1.059 K0.000 F120.000
G2 X-5.439 Y35.059 Z-2.000 I1.059 J0.439 K0.000 F120.000
G2 X-4.190 Y34.810 Z-2.000 I0.439 J-1.059 K0.000 F120.000
G1 X-4.190 Y34.810 Z-2.500 F300.000
G2 X-4.561 Y32.941 Z-2.500 I-0.810 J-0.810 K0.000 F120.000
G2 X-6.059 Y33.561 Z-2.500 I-0.439 J1.059 K0.000 F120.000
G2 X-5.439 Y35.059 Z-2.500 I1.059 J0.439 K0.000 F120.000
G2 X-4.190 Y34.810 Z-2.500 I0.439 J-1.059 K0.000 F120.000
G1 X-4.190 Y34.810 Z-3.000 F300.000
G2 X-4.561 Y32.941 Z-3.000 I-0.810 J-0.810 K0.000 F120.000
G2 X-6.059 Y33.561 Z-3.000 I-0.439 J1.059 K0.000 F120.000
G2 X-5.439 Y35.059 Z-3.000 I1.059 J0.439 K0.000 F120.000
G2 X-4.190 Y34.810 Z-3.000 I0.439 J-1.059 K0.000 F120.000
G0 Z5.000
G0 Z5.000
(Finish operation: Hole003)
(Begin operation: Hole004)
(Path: Hole004)
(Profile004)
(Compensated Tool Path. Diameter: 1.7)
G0 Z5.000
G0 X-4.190 Y110.810
G0 Z3.000
G1 X-4.190 Y110.810 Z-0.500 F300.000
G2 X-4.561 Y108.941 Z-0.500 I-0.810 J-0.810 K0.000 F120.000
G2 X-5.439 Y111.059 Z-0.500 I-0.439 J1.059 K0.000 F120.000
G2 X-4.190 Y110.810 Z-0.500 I0.439 J-1.059 K0.000 F120.000
G1 X-4.190 Y110.810 Z-1.000 F300.000
G2 X-4.561 Y108.941 Z-1.000 I-0.810 J-0.810 K0.000 F120.000
G2 X-5.439 Y111.059 Z-1.000 I-0.439 J1.059 K0.000 F120.000
G2 X-4.190 Y110.810 Z-1.000 I0.439 J-1.059 K0.000 F120.000
G1 X-4.190 Y110.810 Z-1.500 F300.000
G2 X-4.561 Y108.941 Z-1.500 I-0.810 J-0.810 K0.000 F120.000
G2 X-5.439 Y111.059 Z-1.500 I-0.439 J1.059 K0.000 F120.000
G2 X-4.190 Y110.810 Z-1.500 I0.439 J-1.059 K0.000 F120.000
G1 X-4.190 Y110.810 Z-2.000 F300.000
G2 X-4.561 Y108.941 Z-2.000 I-0.810 J-0.810 K0.000 F120.000
G2 X-5.439 Y111.059 Z-2.000 I-0.439 J1.059 K0.000 F120.000
G2 X-4.190 Y110.810 Z-2.000 I0.439 J-1.059 K0.000 F120.000
G1 X-4.190 Y110.810 Z-2.500 F300.000
G2 X-4.561 Y108.941 Z-2.500 I-0.810 J-0.810 K0.000 F120.000
G2 X-5.439 Y111.059 Z-2.500 I-0.439 J1.059 K0.000 F120.000
G2 X-4.190 Y110.810 Z-2.500 I0.439 J-1.059 K0.000 F120.000
G1 X-4.190 Y110.810 Z-3.000 F300.000
G2 X-4.561 Y108.941 Z-3.000 I-0.810 J-0.810 K0.000 F120.000
G2 X-5.439 Y111.059 Z-3.000 I-0.439 J1.059 K0.000 F120.000
G2 X-4.190 Y110.810 Z-3.000 I0.439 J-1.059 K0.000 F120.000
G0 Z5.000
G0 Z5.000
(Finish operation: Hole004)
(Begin operation: Hole005)
(Path: Hole005)
(Profile005)
(Compensated Tool Path. Diameter: 1.7)
G0 Z5.000
G0 X-28.190 Y130.810
G0 Z3.000
G1 X-28.190 Y130.810 Z-0.500 F300.000
G2 X-27.941 Y130.439 Z-0.500 I-0.810 J-0.810 K0.000 F120.000
G2 X-30.059 Y129.561 Z-0.500 I-1.059 J-0.439 K0.000 F120.000
G2 X-28.190 Y130.810 Z-0.500 I1.059 J0.439 K0.000 F120.000
G1 X-28.190 Y130.810 Z-1.000 F300.000
G2 X-27.941 Y130.439 Z-1.000 I-0.810 J-0.810 K0.000 F120.000
G2 X-30.059 Y129.561 Z-1.000 I-1.059 J-0.439 K0.000 F120.000
G2 X-28.190 Y130.810 Z-1.000 I1.059 J0.439 K0.000 F120.000
G1 X-28.190 Y130.810 Z-1.500 F300.000
G2 X-27.941 Y130.439 Z-1.500 I-0.810 J-0.810 K0.000 F120.000
G2 X-30.059 Y129.561 Z-1.500 I-1.059 J-0.439 K0.000 F120.000
G2 X-28.190 Y130.810 Z-1.500 I1.059 J0.439 K0.000 F120.000
G1 X-28.190 Y130.810 Z-2.000 F300.000
G2 X-27.941 Y130.439 Z-2.000 I-0.810 J-0.810 K0.000 F120.000
G2 X-30.059 Y129.561 Z-2.000 I-1.059 J-0.439 K0.000 F120.000
G2 X-28.190 Y130.810 Z-2.000 I1.059 J0.439 K0.000 F120.000
G1 X-28.190 Y130.810 Z-2.500 F300.000
G2 X-27.941 Y130.439 Z-2.500 I-0.810 J-0.810 K0.000 F120.000
G2 X-30.059 Y129.561 Z-2.500 I-1.059 J-0.439 K0.000 F120.000
G2 X-28.190 Y130.810 Z-2.500 I1.059 J0.439 K0.000 F120.000
G1 X-28.190 Y130.810 Z-3.000 F300.000
G2 X-27.941 Y130.439 Z-3.000 I-0.810 J-0.810 K0.000 F120.000
G2 X-30.059 Y129.561 Z-3.000 I-1.059 J-0.439 K0.000 F120.000
G2 X-28.190 Y130.810 Z-3.000 I1.059 J0.439 K0.000 F120.000
G0 Z5.000
G0 Z5.000
(Finish operation: Hole005)
(Begin operation: Hole006)
(Path: Hole006)
(Profile006)
(Compensated Tool Path. Diameter: 1.7)
G0 Z5.000
G0 X-28.190 Y155.810
G0 Z3.000
G1 X-28.190 Y155.810 Z-0.500 F300.000
G2 X-28.561 Y153.941 Z-0.500 I-0.810 J-0.810 K0.000 F120.000
G2 X-29.439 Y156.059 Z-0.500 I-0.439 J1.059 K0.000 F120.000
G2 X-28.190 Y155.810 Z-0.500 I0.439 J-1.059 K0.000 F120.000
G1 X-28.190 Y155.810 Z-1.000 F300.000
G2 X-28.561 Y153.941 Z-1.000 I-0.810 J-0.810 K0.000 F120.000
G2 X-29.439 Y156.059 Z-1.000 I-0.439 J1.059 K0.000 F120.000
G2 X-28.190 Y155.810 Z-1.000 I0.439 J-1.059 K0.000 F120.000
G1 X-28.190 Y155.810 Z-1.500 F300.000
G2 X-28.561 Y153.941 Z-1.500 I-0.810 J-0.810 K0.000 F120.000
G2 X-29.439 Y156.059 Z-1.500 I-0.439 J1.059 K0.000 F120.000
G2 X-28.190 Y155.810 Z-1.500 I0.439 J-1.059 K0.000 F120.000
G1 X-28.190 Y155.810 Z-2.000 F300.000
G2 X-28.561 Y153.941 Z-2.000 I-0.810 J-0.810 K0.000 F120.000
G2 X-29.439 Y156.059 Z-2.000 I-0.439 J1.059 K0.000 F120.000
G2 X-28.190 Y155.810 Z-2.000 I0.439 J-1.059 K0.000 F120.000
G1 X-28.190 Y155.810 Z-2.500 F300.000
G2 X-28.561 Y153.941 Z-2.500 I-0.810 J-0.810 K0.000 F120.000
G2 X-29.439 Y156.059 Z-2.500 I-0.439 J1.059 K0.000 F120.000
G2 X-28.190 Y155.810 Z-2.500 I0.439 J-1.059 K0.000 F120.000
G1 X-28.190 Y155.810 Z-3.000 F300.000
G2 X-28.561 Y153.941 Z-3.000 I-0.810 J-0.810 K0.000 F120.000
G2 X-29.439 Y156.059 Z-3.000 I-0.439 J1.059 K0.000 F120.000
G2 X-28.190 Y155.810 Z-3.000 I0.439 J-1.059 K0.000 F120.000
G0 Z5.000
G0 Z5.000
(Finish operation: Hole006)
(Begin operation: Hole007)
(Path: Hole007)
(Profile007)
(Compensated Tool Path. Diameter: 1.7)
G0 Z5.000
G0 X-38.190 Y130.810
G0 Z3.000
G1 X-38.190 Y130.810 Z-0.500 F300.000
G2 X-37.941 Y130.439 Z-0.500 I-0.810 J-0.810 K0.000 F120.000
G2 X-40.059 Y129.561 Z-0.500 I-1.059 J-0.439 K0.000 F120.000
G2 X-38.190 Y130.810 Z-0.500 I1.059 J0.439 K0.000 F120.000
G1 X-38.190 Y130.810 Z-1.000 F300.000
G2 X-37.941 Y130.439 Z-1.000 I-0.810 J-0.810 K0.000 F120.000
G2 X-40.059 Y129.561 Z-1.000 I-1.059 J-0.439 K0.000 F120.000
G2 X-38.190 Y130.810 Z-1.000 I1.059 J0.439 K0.000 F120.000
G1 X-38.190 Y130.810 Z-1.500 F300.000
G2 X-37.941 Y130.439 Z-1.500 I-0.810 J-0.810 K0.000 F120.000
G2 X-40.059 Y129.561 Z-1.500 I-1.059 J-0.439 K0.000 F120.000
G2 X-38.190 Y130.810 Z-1.500 I1.059 J0.439 K0.000 F120.000
G1 X-38.190 Y130.810 Z-2.000 F300.000
G2 X-37.941 Y130.439 Z-2.000 I-0.810 J-0.810 K0.000 F120.000
G2 X-40.059 Y129.561 Z-2.000 I-1.059 J-0.439 K0.000 F120.000
G2 X-38.190 Y130.810 Z-2.000 I1.059 J0.439 K0.000 F120.000
G1 X-38.190 Y130.810 Z-2.500 F300.000
G2 X-37.941 Y130.439 Z-2.500 I-0.810 J-0.810 K0.000 F120.000
G2 X-40.059 Y129.561 Z-2.500 I-1.059 J-0.439 K0.000 F120.000
G2 X-38.190 Y130.810 Z-2.500 I1.059 J0.439 K0.000 F120.000
G1 X-38.190 Y130.810 Z-3.000 F300.000
G2 X-37.941 Y130.439 Z-3.000 I-0.810 J-0.810 K0.000 F120.000
G2 X-40.059 Y129.561 Z-3.000 I-1.059 J-0.439 K0.000 F120.000
G2 X-38.190 Y130.810 Z-3.000 I1.059 J0.439 K0.000 F120.000
G0 Z5.000
G0 Z5.000
(Finish operation: Hole007)
(Begin operation: Hole008)
(Path: Hole008)
(Profile008)
(Compensated Tool Path. Diameter: 1.7)
G0 Z5.000
G0 X-38.190 Y155.810
G0 Z3.000
G1 X-38.190 Y155.810 Z-0.500 F300.000
G2 X-38.561 Y153.941 Z-0.500 I-0.810 J-0.810 K0.000 F120.000
G2 X-39.439 Y156.059 Z-0.500 I-0.439 J1.059 K0.000 F120.000
G2 X-38.190 Y155.810 Z-0.500 I0.439 J-1.059 K0.000 F120.000
G1 X-38.190 Y155.810 Z-1.000 F300.000
G2 X-38.561 Y153.941 Z-1.000 I-0.810 J-0.810 K0.000 F120.000
G2 X-39.439 Y156.059 Z-1.000 I-0.439 J1.059 K0.000 F120.000
G2 X-38.190 Y155.810 Z-1.000 I0.439 J-1.059 K0.000 F120.000
G1 X-38.190 Y155.810 Z-1.500 F300.000
G2 X-38.561 Y153.941 Z-1.500 I-0.810 J-0.810 K0.000 F120.000
G2 X-39.439 Y156.059 Z-1.500 I-0.439 J1.059 K0.000 F120.000
G2 X-38.190 Y155.810 Z-1.500 I0.439 J-1.059 K0.000 F120.000
G1 X-38.190 Y155.810 Z-2.000 F300.000
G2 X-38.561 Y153.941 Z-2.000 I-0.810 J-0.810 K0.000 F120.000
G2 X-39.439 Y156.059 Z-2.000 I-0.439 J1.059 K0.000 F120.000
G2 X-38.190 Y155.810 Z-2.000 I0.439 J-1.059 K0.000 F120.000
G1 X-38.190 Y155.810 Z-2.500 F300.000
G2 X-38.561 Y153.941 Z-2.500 I-0.810 J-0.810 K0.000 F120.000
G2 X-39.439 Y156.059 Z-2.500 I-0.439 J1.059 K0.000 F120.000
G2 X-38.190 Y155.810 Z-2.500 I0.439 J-1.059 K0.000 F120.000
G1 X-38.190 Y155.810 Z-3.000 F300.000
G2 X-38.561 Y153.941 Z-3.000 I-0.810 J-0.810 K0.000 F120.000
G2 X-39.439 Y156.059 Z-3.000 I-0.439 J1.059 K0.000 F120.000
G2 X-38.190 Y155.810 Z-3.000 I0.439 J-1.059 K0.000 F120.000
G0 Z5.000
G0 Z5.000
(Finish operation: Hole008)
(Begin operation: Hole009)
(Path: Hole009)
(Profile009)
(Compensated Tool Path. Diameter: 1.7)
G0 Z5.000
G0 X-44.836 Y143.364
G0 Z3.000
G1 X-44.836 Y143.364 Z-0.500 F300.000
G2 X-44.453 Y142.763 Z-0.500 I-1.164 J-1.164 K0.000 F120.000
G2 X-45.437 Y140.653 Z-0.500 I-1.547 J-0.563 K0.000 F120.000
G2 X-47.547 Y141.637 Z-0.500 I-0.563 J1.547 K0.000 F120.000
G2 X-44.836 Y143.364 Z-0.500 I1.547 J0.563 K0.000 F120.000
G1 X-44.836 Y143.364 Z-1.000 F300.000
G2 X-44.453 Y142.763 Z-1.000 I-1.164 J-1.164 K0.000 F120.000
G2 X-45.437 Y140.653 Z-1.000 I-1.547 J-0.563 K0.000 F120.000
G2 X-47.547 Y141.637 Z-1.000 I-0.563 J1.547 K0.000 F120.000
G2 X-44.836 Y143.364 Z-1.000 I1.547 J0.563 K0.000 F120.000
G1 X-44.836 Y143.364 Z-1.500 F300.000
G2 X-44.453 Y142.763 Z-1.500 I-1.164 J-1.164 K0.000 F120.000
G2 X-45.437 Y140.653 Z-1.500 I-1.547 J-0.563 K0.000 F120.000
G2 X-47.547 Y141.637 Z-1.500 I-0.563 J1.547 K0.000 F120.000
G2 X-44.836 Y143.364 Z-1.500 I1.547 J0.563 K0.000 F120.000
G1 X-44.836 Y143.364 Z-2.000 F300.000
G2 X-44.453 Y142.763 Z-2.000 I-1.164 J-1.164 K0.000 F120.000
G2 X-45.437 Y140.653 Z-2.000 I-1.547 J-0.563 K0.000 F120.000
G2 X-47.547 Y141.637 Z-2.000 I-0.563 J1.547 K0.000 F120.000
G2 X-44.836 Y143.364 Z-2.000 I1.547 J0.563 K0.000 F120.000
G1 X-44.836 Y143.364 Z-2.500 F300.000
G2 X-44.453 Y142.763 Z-2.500 I-1.164 J-1.164 K0.000 F120.000
G2 X-45.437 Y140.653 Z-2.500 I-1.547 J-0.563 K0.000 F120.000
G2 X-47.547 Y141.637 Z-2.500 I-0.563 J1.547 K0.000 F120.000
G2 X-44.836 Y143.364 Z-2.500 I1.547 J0.563 K0.000 F120.000
G1 X-44.836 Y143.364 Z-3.000 F300.000
G2 X-44.453 Y142.763 Z-3.000 I-1.164 J-1.164 K0.000 F120.000
G2 X-45.437 Y140.653 Z-3.000 I-1.547 J-0.563 K0.000 F120.000
G2 X-47.547 Y141.637 Z-3.000 I-0.563 J1.547 K0.000 F120.000
G2 X-44.836 Y143.364 Z-3.000 I1.547 J0.563 K0.000 F120.000
G0 Z5.000
G0 Z5.000
(Finish operation: Hole009)
(Begin operation: Hole010)
(Path: Hole010)
(Profile010)
(Compensated Tool Path. Diameter: 1.7)
G0 Z5.000
G0 X-58.080 Y156.420
G0 Z3.000
G1 X-58.080 Y156.420 Z-0.500 F300.000
G2 X-58.242 Y155.464 Z-0.500 I-0.420 J-0.420 K0.000 F120.000
G2 X-58.758 Y156.536 Z-0.500 I-0.258 J0.536 K0.000 F120.000
G2 X-58.080 Y156.420 Z-0.500 I0.258 J-0.536 K0.000 F120.000
G1 X-58.080 Y156.420 Z-1.000 F300.000
G2 X-58.242 Y155.464 Z-1.000 I-0.420 J-0.420 K0.000 F120.000
G2 X-58.758 Y156.536 Z-1.000 I-0.258 J0.536 K0.000 F120.000
G2 X-58.080 Y156.420 Z-1.000 I0.258 J-0.536 K0.000 F120.000
G1 X-58.080 Y156.420 Z-1.500 F300.000
G2 X-58.242 Y155.464 Z-1.500 I-0.420 J-0.420 K0.000 F120.000
G2 X-58.758 Y156.536 Z-1.500 I-0.258 J0.536 K0.000 F120.000
G2 X-58.080 Y156.420 Z-1.500 I0.258 J-0.536 K0.000 F120.000
G1 X-58.080 Y156.420 Z-2.000 F300.000
G2 X-58.242 Y155.464 Z-2.000 I-0.420 J-0.420 K0.000 F120.000
G2 X-58.758 Y156.536 Z-2.000 I-0.258 J0.536 K0.000 F120.000
G2 X-58.080 Y156.420 Z-2.000 I0.258 J-0.536 K0.000 F120.000
G1 X-58.080 Y156.420 Z-2.500 F300.000
G2 X-58.242 Y155.464 Z-2.500 I-0.420 J-0.420 K0.000 F120.000
G2 X-58.758 Y156.536 Z-2.500 I-0.258 J0.536 K0.000 F120.000
G2 X-58.080 Y156.420 Z-2.500 I0.258 J-0.536 K0.000 F120.000
G1 X-58.080 Y156.420 Z-3.000 F300.000
G2 X-58.242 Y155.464 Z-3.000 I-0.420 J-0.420 K0.000 F120.000
G2 X-58.758 Y156.536 Z-3.000 I-0.258 J0.536 K0.000 F120.000
G2 X-58.080 Y156.420 Z-3.000 I0.258 J-0.536 K0.000 F120.000
G0 Z5.000
G0 Z5.000
(Finish operation: Hole010)
(Begin operation: Hole011)
(Path: Hole011)
(Profile027)
(Compensated Tool Path. Diameter: 1.7)
G0 Z5.000
G0 X-41.190 Y90.810
G0 Z3.000
G1 X-41.190 Y90.810 Z-0.500 F300.000
G2 X-41.561 Y88.941 Z-0.500 I-0.810 J-0.810 K0.000 F120.000
G2 X-42.439 Y91.059 Z-0.500 I-0.439 J1.059 K0.000 F120.000
G2 X-41.190 Y90.810 Z-0.500 I0.439 J-1.059 K0.000 F120.000
G1 X-41.190 Y90.810 Z-1.000 F300.000
G2 X-41.561 Y88.941 Z-1.000 I-0.810 J-0.810 K0.000 F120.000
G2 X-42.439 Y91.059 Z-1.000 I-0.439 J1.059 K0.000 F120.000
G2 X-41.190 Y90.810 Z-1.000 I0.439 J-1.059 K0.000 F120.000
G1 X-41.190 Y90.810 Z-1.500 F300.000
G2 X-41.561 Y88.941 Z-1.500 I-0.810 J-0.810 K0.000 F120.000
G2 X-42.439 Y91.059 Z-1.500 I-0.439 J1.059 K0.000 F120.000
G2 X-41.190 Y90.810 Z-1.500 I0.439 J-1.059 K0.000 F120.000
G1 X-41.190 Y90.810 Z-2.000 F300.000
G2 X-41.561 Y88.941 Z-2.000 I-0.810 J-0.810 K0.000 F120.000
G2 X-42.439 Y91.059 Z-2.000 I-0.439 J1.059 K0.000 F120.000
G2 X-41.190 Y90.810 Z-2.000 I0.439 J-1.059 K0.000 F120.000
G1 X-41.190 Y90.810 Z-2.500 F300.000
G2 X-41.561 Y88.941 Z-2.500 I-0.810 J-0.810 K0.000 F120.000
G2 X-42.439 Y91.059 Z-2.500 I-0.439 J1.059 K0.000 F120.000
G2 X-41.190 Y90.810 Z-2.500 I0.439 J-1.059 K0.000 F120.000
G1 X-41.190 Y90.810 Z-3.000 F300.000
G2 X-41.561 Y88.941 Z-3.000 I-0.810 J-0.810 K0.000 F120.000
G2 X-42.439 Y91.059 Z-3.000 I-0.439 J1.059 K0.000 F120.000
G2 X-41.190 Y90.810 Z-3.000 I0.439 J-1.059 K0.000 F120.000
G0 Z5.000
G0 Z5.000
(Finish operation: Hole011)
(Begin operation: Hole012)
(Path: Hole012)
(Profile011)
(Compensated Tool Path. Diameter: 1.7)
G0 Z5.000
G0 X-65.544 Y128.456
G0 Z3.000
G1 X-65.544 Y128.456 Z-0.500 F300.000
G2 X-65.720 Y127.419 Z-0.500 I-0.456 J-0.456 K0.000 F120.000
G2 X-66.581 Y127.720 Z-0.500 I-0.280 J0.581 K0.000 F120.000
G2 X-66.280 Y128.581 Z-0.500 I0.581 J0.280 K0.000 F120.000
G2 X-65.544 Y128.456 Z-0.500 I0.280 J-0.581 K0.000 F120.000
G1 X-65.544 Y128.456 Z-1.000 F300.000
G2 X-65.720 Y127.419 Z-1.000 I-0.456 J-0.456 K0.000 F120.000
G2 X-66.581 Y127.720 Z-1.000 I-0.280 J0.581 K0.000 F120.000
G2 X-66.280 Y128.581 Z-1.000 I0.581 J0.280 K0.000 F120.000
G2 X-65.544 Y128.456 Z-1.000 I0.280 J-0.581 K0.000 F120.000
G1 X-65.544 Y128.456 Z-1.500 F300.000
G2 X-65.720 Y127.419 Z-1.500 I-0.456 J-0.456 K0.000 F120.000
G2 X-66.581 Y127.720 Z-1.500 I-0.280 J0.581 K0.000 F120.000
G2 X-66.280 Y128.581 Z-1.500 I0.581 J0.280 K0.000 F120.000
G2 X-65.544 Y128.456 Z-1.500 I0.280 J-0.581 K0.000 F120.000
G1 X-65.544 Y128.456 Z-2.000 F300.000
G2 X-65.720 Y127.419 Z-2.000 I-0.456 J-0.456 K0.000 F120.000
G2 X-66.581 Y127.720 Z-2.000 I-0.280 J0.581 K0.000 F120.000
G2 X-66.280 Y128.581 Z-2.000 I0.581 J0.280 K0.000 F120.000
G2 X-65.544 Y128.456 Z-2.000 I0.280 J-0.581 K0.000 F120.000
G1 X-65.544 Y128.456 Z-2.500 F300.000
G2 X-65.720 Y127.419 Z-2.500 I-0.456 J-0.456 K0.000 F120.000
G2 X-66.581 Y127.720 Z-2.500 I-0.280 J0.581 K0.000 F120.000
G2 X-66.280 Y128.581 Z-2.500 I0.581 J0.280 K0.000 F120.000
G2 X-65.544 Y128.456 Z-2.500 I0.280 J-0.581 K0.000 F120.000
G1 X-65.544 Y128.456 Z-3.000 F300.000
G2 X-65.720 Y127.419 Z-3.000 I-0.456 J-0.456 K0.000 F120.000
G2 X-66.581 Y127.720 Z-3.000 I-0.280 J0.581 K0.000 F120.000
G2 X-66.280 Y128.581 Z-3.000 I0.581 J0.280 K0.000 F120.000
G2 X-65.544 Y128.456 Z-3.000 I0.280 J-0.581 K0.000 F120.000
G0 Z5.000
G0 Z5.000
(Finish operation: Hole012)
(Begin operation: Hole013)
(Path: Hole013)
(Profile012)
(Compensated Tool Path. Diameter: 1.7)
G0 Z5.000
G0 X-65.544 Y122.456
G0 Z3.000
G1 X-65.544 Y122.456 Z-0.500 F300.000
G2 X-65.720 Y121.419 Z-0.500 I-0.456 J-0.456 K0.000 F120.000
G2 X-66.280 Y122.581 Z-0.500 I-0.280 J0.581 K0.000 F120.000
G2 X-65.544 Y122.456 Z-0.500 I0.280 J-0.581 K0.000 F120.000
G1 X-65.544 Y122.456 Z-1.000 F300.000
G2 X-65.720 Y121.419 Z-1.000 I-0.456 J-0.456 K0.000 F120.000
G2 X-66.280 Y122.581 Z-1.000 I-0.280 J0.581 K0.000 F120.000
G2 X-65.544 Y122.456 Z-1.000 I0.280 J-0.581 K0.000 F120.000
G1 X-65.544 Y122.456 Z-1.500 F300.000
G2 X-65.720 Y121.419 Z-1.500 I-0.456 J-0.456 K0.000 F120.000
G2 X-66.280 Y122.581 Z-1.500 I-0.280 J0.581 K0.000 F120.000
G2 X-65.544 Y122.456 Z-1.500 I0.280 J-0.581 K0.000 F120.000
G1 X-65.544 Y122.456 Z-2.000 F300.000
G2 X-65.720 Y121.419 Z-2.000 I-0.456 J-0.456 K0.000 F120.000
G2 X-66.280 Y122.581 Z-2.000 I-0.280 J0.581 K0.000 F120.000
G2 X-65.544 Y122.456 Z-2.000 I0.280 J-0.581 K0.000 F120.000
G1 X-65.544 Y122.456 Z-2.500 F300.000
G2 X-65.720 Y121.419 Z-2.500 I-0.456 J-0.456 K0.000 F120.000
G2 X-66.280 Y122.581 Z-2.500 I-0.280 J0.581 K0.000 F120.000
G2 X-65.544 Y122.456 Z-2.500 I0.280 J-0.581 K0.000 F120.000
G1 X-65.544 Y122.456 Z-3.000 F300.000
G2 X-65.720 Y121.419 Z-3.000 I-0.456 J-0.456 K0.000 F120.000
G2 X-66.280 Y122.581 Z-3.000 I-0.280 J0.581 K0.000 F120.000
G2 X-65.544 Y122.456 Z-3.000 I0.280 J-0.581 K0.000 F120.000
G0 Z5.000
G0 Z5.000
(Finish operation: Hole013)
(Begin operation: Hole014)
(Path: Hole014)
(Profile013)
(Compensated Tool Path. Diameter: 1.7)
G0 Z5.000
G0 X-60.544 Y2.456
G0 Z3.000
G1 X-60.544 Y2.456 Z-0.500 F300.000
G2 X-60.720 Y1.419 Z-0.500 I-0.456 J-0.456 K0.000 F120.000
G2 X-61.581 Y1.720 Z-0.500 I-0.280 J0.581 K0.000 F120.000
G2 X-61.280 Y2.581 Z-0.500 I0.581 J0.280 K0.000 F120.000
G2 X-60.544 Y2.456 Z-0.500 I0.280 J-0.581 K0.000 F120.000
G1 X-60.544 Y2.456 Z-1.000 F300.000
G2 X-60.720 Y1.419 Z-1.000 I-0.456 J-0.456 K0.000 F120.000
G2 X-61.581 Y1.720 Z-1.000 I-0.280 J0.581 K0.000 F120.000
G2 X-61.280 Y2.581 Z-1.000 I0.581 J0.280 K0.000 F120.000
G2 X-60.544 Y2.456 Z-1.000 I0.280 J-0.581 K0.000 F120.000
G1 X-60.544 Y2.456 Z-1.500 F300.000
G2 X-60.720 Y1.419 Z-1.500 I-0.456 J-0.456 K0.000 F120.000
G2 X-61.581 Y1.720 Z-1.500 I-0.280 J0.581 K0.000 F120.000
G2 X-61.280 Y2.581 Z-1.500 I0.581 J0.280 K0.000 F120.000
G2 X-60.544 Y2.456 Z-1.500 I0.280 J-0.581 K0.000 F120.000
G1 X-60.544 Y2.456 Z-2.000 F300.000
G2 X-60.720 Y1.419 Z-2.000 I-0.456 J-0.456 K0.000 F120.000
G2 X-61.581 Y1.720 Z-2.000 I-0.280 J0.581 K0.000 F120.000
G2 X-61.280 Y2.581 Z-2.000 I0.581 J0.280 K0.000 F120.000
G2 X-60.544 Y2.456 Z-2.000 I0.280 J-0.581 K0.000 F120.000
G1 X-60.544 Y2.456 Z-2.500 F300.000
G2 X-60.720 Y1.419 Z-2.500 I-0.456 J-0.456 K0.000 F120.000
G2 X-61.581 Y1.720 Z-2.500 I-0.280 J0.581 K0.000 F120.000
G2 X-61.280 Y2.581 Z-2.500 I0.581 J0.280 K0.000 F120.000
G2 X-60.544 Y2.456 Z-2.500 I0.280 J-0.581 K0.000 F120.000
G1 X-60.544 Y2.456 Z-3.000 F300.000
G2 X-60.720 Y1.419 Z-3.000 I-0.456 J-0.456 K0.000 F120.000
G2 X-61.581 Y1.720 Z-3.000 I-0.280 J0.581 K0.000 F120.000
G2 X-61.280 Y2.581 Z-3.000 I0.581 J0.280 K0.000 F120.000
G2 X-60.544 Y2.456 Z-3.000 I0.280 J-0.581 K0.000 F120.000
G0 Z5.000
G0 Z5.000
(Finish operation: Hole014)
(Begin operation: Hole015)
(Path: Hole015)
(Profile014)
(Compensated Tool Path. Diameter: 1.7)
G0 Z5.000
G0 X-60.544 Y8.456
G0 Z3.000
G1 X-60.544 Y8.456 Z-0.500 F300.000
G2 X-60.720 Y7.419 Z-0.500 I-0.456 J-0.456 K0.000 F120.000
G2 X-61.581 Y7.720 Z-0.500 I-0.280 J0.581 K0.000 F120.000
G2 X-61.280 Y8.581 Z-0.500 I0.581 J0.280 K0.000 F120.000
G2 X-60.544 Y8.456 Z-0.500 I0.280 J-0.581 K0.000 F120.000
G1 X-60.544 Y8.456 Z-1.000 F300.000
G2 X-60.720 Y7.419 Z-1.000 I-0.456 J-0.456 K0.000 F120.000
G2 X-61.581 Y7.720 Z-1.000 I-0.280 J0.581 K0.000 F120.000
G2 X-61.280 Y8.581 Z-1.000 I0.581 J0.280 K0.000 F120.000
G2 X-60.544 Y8.456 Z-1.000 I0.280 J-0.581 K0.000 F120.000
G1 X-60.544 Y8.456 Z-1.500 F300.000
G2 X-60.720 Y7.419 Z-1.500 I-0.456 J-0.456 K0.000 F120.000
G2 X-61.581 Y7.720 Z-1.500 I-0.280 J0.581 K0.000 F120.000
G2 X-61.280 Y8.581 Z-1.500 I0.581 J0.280 K0.000 F120.000
G2 X-60.544 Y8.456 Z-1.500 I0.280 J-0.581 K0.000 F120.000
G1 X-60.544 Y8.456 Z-2.000 F300.000
G2 X-60.720 Y7.419 Z-2.000 I-0.456 J-0.456 K0.000 F120.000
G2 X-61.581 Y7.720 Z-2.000 I-0.280 J0.581 K0.000 F120.000
G2 X-61.280 Y8.581 Z-2.000 I0.581 J0.280 K0.000 F120.000
G2 X-60.544 Y8.456 Z-2.000 I0.280 J-0.581 K0.000 F120.000
G1 X-60.544 Y8.456 Z-2.500 F300.000
G2 X-60.720 Y7.419 Z-2.500 I-0.456 J-0.456 K0.000 F120.000
G2 X-61.581 Y7.720 Z-2.500 I-0.280 J0.581 K0.000 F120.000
G2 X-61.280 Y8.581 Z-2.500 I0.581 J0.280 K0.000 F120.000
G2 X-60.544 Y8.456 Z-2.500 I0.280 J-0.581 K0.000 F120.000
G1 X-60.544 Y8.456 Z-3.000 F300.000
G2 X-60.720 Y7.419 Z-3.000 I-0.456 J-0.456 K0.000 F120.000
G2 X-61.581 Y7.720 Z-3.000 I-0.280 J0.581 K0.000 F120.000
G2 X-61.280 Y8.581 Z-3.000 I0.581 J0.280 K0.000 F120.000
G2 X-60.544 Y8.456 Z-3.000 I0.280 J-0.581 K0.000 F120.000
G0 Z5.000
G0 Z5.000
(Finish operation: Hole015)
(Begin operation: Hole016)
(Path: Hole016)
(Profile015)
(Compensated Tool Path. Diameter: 1.7)
G0 Z5.000
G0 X-116.544 Y2.456
G0 Z3.000
G1 X-116.544 Y2.456 Z-0.500 F300.000
G2 X-116.720 Y1.419 Z-0.500 I-0.456 J-0.456 K0.000 F120.000
G2 X-117.581 Y1.720 Z-0.500 I-0.280 J0.581 K0.000 F120.000
G2 X-117.280 Y2.581 Z-0.500 I0.581 J0.280 K0.000 F120.000
G2 X-116.544 Y2.456 Z-0.500 I0.280 J-0.581 K0.000 F120.000
G1 X-116.544 Y2.456 Z-1.000 F300.000
G2 X-116.720 Y1.419 Z-1.000 I-0.456 J-0.456 K0.000 F120.000
G2 X-117.581 Y1.720 Z-1.000 I-0.280 J0.581 K0.000 F120.000
G2 X-117.280 Y2.581 Z-1.000 I0.581 J0.280 K0.000 F120.000
G2 X-116.544 Y2.456 Z-1.000 I0.280 J-0.581 K0.000 F120.000
G1 X-116.544 Y2.456 Z-1.500 F300.000
G2 X-116.720 Y1.419 Z-1.500 I-0.456 J-0.456 K0.000 F120.000
G2 X-117.581 Y1.720 Z-1.500 I-0.280 J0.581 K0.000 F120.000
G2 X-117.280 Y2.581 Z-1.500 I0.581 J0.280 K0.000 F120.000
G2 X-116.544 Y2.456 Z-1.500 I0.280 J-0.581 K0.000 F120.000
G1 X-116.544 Y2.456 Z-2.000 F300.000
G2 X-116.720 Y1.419 Z-2.000 I-0.456 J-0.456 K0.000 F120.000
G2 X-117.581 Y1.720 Z-2.000 I-0.280 J0.581 K0.000 F120.000
G2 X-117.280 Y2.581 Z-2.000 I0.581 J0.280 K0.000 F120.000
G2 X-116.544 Y2.456 Z-2.000 I0.280 J-0.581 K0.000 F120.000
G1 X-116.544 Y2.456 Z-2.500 F300.000
G2 X-116.720 Y1.419 Z-2.500 I-0.456 J-0.456 K0.000 F120.000
G2 X-117.581 Y1.720 Z-2.500 I-0.280 J0.581 K0.000 F120.000
G2 X-117.280 Y2.581 Z-2.500 I0.581 J0.280 K0.000 F120.000
G2 X-116.544 Y2.456 Z-2.500 I0.280 J-0.581 K0.000 F120.000
G1 X-116.544 Y2.456 Z-3.000 F300.000
G2 X-116.720 Y1.419 Z-3.000 I-0.456 J-0.456 K0.000 F120.000
G2 X-117.581 Y1.720 Z-3.000 I-0.280 J0.581 K0.000 F120.000
G2 X-117.280 Y2.581 Z-3.000 I0.581 J0.280 K0.000 F120.000
G2 X-116.544 Y2.456 Z-3.000 I0.280 J-0.581 K0.000 F120.000
G0 Z5.000
G0 Z5.000
(Finish operation: Hole016)
(Begin operation: Hole017)
(Path: Hole017)
(Profile016)
(Compensated Tool Path. Diameter: 1.7)
G0 Z5.000
G0 X-116.544 Y8.456
G0 Z3.000
G1 X-116.544 Y8.456 Z-0.500 F300.000
G2 X-116.720 Y7.419 Z-0.500 I-0.456 J-0.456 K0.000 F120.000
G2 X-117.581 Y7.720 Z-0.500 I-0.280 J0.581 K0.000 F120.000
G2 X-117.280 Y8.581 Z-0.500 I0.581 J0.280 K0.000 F120.000
G2 X-116.544 Y8.456 Z-0.500 I0.280 J-0.581 K0.000 F120.000
G1 X-116.544 Y8.456 Z-1.000 F300.000
G2 X-116.720 Y7.419 Z-1.000 I-0.456 J-0.456 K0.000 F120.000
G2 X-117.581 Y7.720 Z-1.000 I-0.280 J0.581 K0.000 F120.000
G2 X-117.280 Y8.581 Z-1.000 I0.581 J0.280 K0.000 F120.000
G2 X-116.544 Y8.456 Z-1.000 I0.280 J-0.581 K0.000 F120.000
G1 X-116.544 Y8.456 Z-1.500 F300.000
G2 X-116.720 Y7.419 Z-1.500 I-0.456 J-0.456 K0.000 F120.000
G2 X-117.581 Y7.720 Z-1.500 I-0.280 J0.581 K0.000 F120.000
G2 X-117.280 Y8.581 Z-1.500 I0.581 J0.280 K0.000 F120.000
G2 X-116.544 Y8.456 Z-1.500 I0.280 J-0.581 K0.000 F120.000
G1 X-116.544 Y8.456 Z-2.000 F300.000
G2 X-116.720 Y7.419 Z-2.000 I-0.456 J-0.456 K0.000 F120.000
G2 X-117.581 Y7.720 Z-2.000 I-0.280 J0.581 K0.000 F120.000
G2 X-117.280 Y8.581 Z-2.000 I0.581 J0.280 K0.000 F120.000
G2 X-116.544 Y8.456 Z-2.000 I0.280 J-0.581 K0.000 F120.000
G1 X-116.544 Y8.456 Z-2.500 F300.000
G2 X-116.720 Y7.419 Z-2.500 I-0.456 J-0.456 K0.000 F120.000
G2 X-117.581 Y7.720 Z-2.500 I-0.280 J0.581 K0.000 F120.000
G2 X-117.280 Y8.581 Z-2.500 I0.581 J0.280 K0.000 F120.000
G2 X-116.544 Y8.456 Z-2.500 I0.280 J-0.581 K0.000 F120.000
G1 X-116.544 Y8.456 Z-3.000 F300.000
G2 X-116.720 Y7.419 Z-3.000 I-0.456 J-0.456 K0.000 F120.000
G2 X-117.581 Y7.720 Z-3.000 I-0.280 J0.581 K0.000 F120.000
G2 X-117.280 Y8.581 Z-3.000 I0.581 J0.280 K0.000 F120.000
G2 X-116.544 Y8.456 Z-3.000 I0.280 J-0.581 K0.000 F120.000
G0 Z5.000
G0 Z5.000
(Finish operation: Hole017)
(Begin operation: Hole018)
(Path: Hole018)
(Profile017)
(Compensated Tool Path. Diameter: 1.7)
G0 Z5.000
G0 X-99.544 Y122.456
G0 Z3.000
G1 X-99.544 Y122.456 Z-0.500 F300.000
G2 X-99.720 Y121.419 Z-0.500 I-0.456 J-0.456 K0.000 F120.000
G2 X-100.280 Y122.581 Z-0.500 I-0.280 J0.581 K0.000 F120.000
G2 X-99.544 Y122.456 Z-0.500 I0.280 J-0.581 K0.000 F120.000
G1 X-99.544 Y122.456 Z-1.000 F300.000
G2 X-99.720 Y121.419 Z-1.000 I-0.456 J-0.456 K0.000 F120.000
G2 X-100.280 Y122.581 Z-1.000 I-0.280 J0.581 K0.000 F120.000
G2 X-99.544 Y122.456 Z-1.000 I0.280 J-0.581 K0.000 F120.000
G1 X-99.544 Y122.456 Z-1.500 F300.000
G2 X-99.720 Y121.419 Z-1.500 I-0.456 J-0.456 K0.000 F120.000
G2 X-100.280 Y122.581 Z-1.500 I-0.280 J0.581 K0.000 F120.000
G2 X-99.544 Y122.456 Z-1.500 I0.280 J-0.581 K0.000 F120.000
G1 X-99.544 Y122.456 Z-2.000 F300.000
G2 X-99.720 Y121.419 Z-2.000 I-0.456 J-0.456 K0.000 F120.000
G2 X-100.280 Y122.581 Z-2.000 I-0.280 J0.581 K0.000 F120.000
G2 X-99.544 Y122.456 Z-2.000 I0.280 J-0.581 K0.000 F120.000
G1 X-99.544 Y122.456 Z-2.500 F300.000
G2 X-99.720 Y121.419 Z-2.500 I-0.456 J-0.456 K0.000 F120.000
G2 X-100.280 Y122.581 Z-2.500 I-0.280 J0.581 K0.000 F120.000
G2 X-99.544 Y122.456 Z-2.500 I0.280 J-0.581 K0.000 F120.000
G1 X-99.544 Y122.456 Z-3.000 F300.000
G2 X-99.720 Y121.419 Z-3.000 I-0.456 J-0.456 K0.000 F120.000
G2 X-100.280 Y122.581 Z-3.000 I-0.280 J0.581 K0.000 F120.000
G2 X-99.544 Y122.456 Z-3.000 I0.280 J-0.581 K0.000 F120.000
G0 Z5.000
G0 Z5.000
(Finish operation: Hole018)
(Begin operation: Hole019)
(Path: Hole019)
(Profile018)
(Compensated Tool Path. Diameter: 1.7)
G0 Z5.000
G0 X-99.544 Y128.456
G0 Z3.000
G1 X-99.544 Y128.456 Z-0.500 F300.000
G2 X-99.720 Y127.419 Z-0.500 I-0.456 J-0.456 K0.000 F120.000
G2 X-100.581 Y127.720 Z-0.500 I-0.280 J0.581 K0.000 F120.000
G2 X-100.280 Y128.581 Z-0.500 I0.581 J0.280 K0.000 F120.000
G2 X-99.544 Y128.456 Z-0.500 I0.280 J-0.581 K0.000 F120.000
G1 X-99.544 Y128.456 Z-1.000 F300.000
G2 X-99.720 Y127.419 Z-1.000 I-0.456 J-0.456 K0.000 F120.000
G2 X-100.581 Y127.720 Z-1.000 I-0.280 J0.581 K0.000 F120.000
G2 X-100.280 Y128.581 Z-1.000 I0.581 J0.280 K0.000 F120.000
G2 X-99.544 Y128.456 Z-1.000 I0.280 J-0.581 K0.000 F120.000
G1 X-99.544 Y128.456 Z-1.500 F300.000
G2 X-99.720 Y127.419 Z-1.500 I-0.456 J-0.456 K0.000 F120.000
G2 X-100.581 Y127.720 Z-1.500 I-0.280 J0.581 K0.000 F120.000
G2 X-100.280 Y128.581 Z-1.500 I0.581 J0.280 K0.000 F120.000
G2 X-99.544 Y128.456 Z-1.500 I0.280 J-0.581 K0.000 F120.000
G1 X-99.544 Y128.456 Z-2.000 F300.000
G2 X-99.720 Y127.419 Z-2.000 I-0.456 J-0.456 K0.000 F120.000
G2 X-100.581 Y127.720 Z-2.000 I-0.280 J0.581 K0.000 F120.000
G2 X-100.280 Y128.581 Z-2.000 I0.581 J0.280 K0.000 F120.000
G2 X-99.544 Y128.456 Z-2.000 I0.280 J-0.581 K0.000 F120.000
G1 X-99.544 Y128.456 Z-2.500 F300.000
G2 X-99.720 Y127.419 Z-2.500 I-0.456 J-0.456 K0.000 F120.000
G2 X-100.581 Y127.720 Z-2.500 I-0.280 J0.581 K0.000 F120.000
G2 X-100.280 Y128.581 Z-2.500 I0.581 J0.280 K0.000 F120.000
G2 X-99.544 Y128.456 Z-2.500 I0.280 J-0.581 K0.000 F120.000
G1 X-99.544 Y128.456 Z-3.000 F300.000
G2 X-99.720 Y127.419 Z-3.000 I-0.456 J-0.456 K0.000 F120.000
G2 X-100.581 Y127.720 Z-3.000 I-0.280 J0.581 K0.000 F120.000
G2 X-100.280 Y128.581 Z-3.000 I0.581 J0.280 K0.000 F120.000
G2 X-99.544 Y128.456 Z-3.000 I0.280 J-0.581 K0.000 F120.000
G0 Z5.000
G0 Z5.000
(Finish operation: Hole019)
(Begin operation: Hole020)
(Path: Hole020)
(Profile019)
(Compensated Tool Path. Diameter: 1.7)
G0 Z5.000
G0 X-107.080 Y133.620
G0 Z3.000
G1 X-107.080 Y133.620 Z-0.500 F300.000
G2 X-106.964 Y133.458 Z-0.500 I-0.420 J-0.420 K0.000 F120.000
G2 X-107.242 Y132.664 Z-0.500 I-0.536 J-0.258 K0.000 F120.000
G2 X-108.036 Y132.942 Z-0.500 I-0.258 J0.536 K0.000 F120.000
G2 X-107.080 Y133.620 Z-0.500 I0.536 J0.258 K0.000 F120.000
G1 X-107.080 Y133.620 Z-1.000 F300.000
G2 X-106.964 Y133.458 Z-1.000 I-0.420 J-0.420 K0.000 F120.000
G2 X-107.242 Y132.664 Z-1.000 I-0.536 J-0.258 K0.000 F120.000
G2 X-108.036 Y132.942 Z-1.000 I-0.258 J0.536 K0.000 F120.000
G2 X-107.080 Y133.620 Z-1.000 I0.536 J0.258 K0.000 F120.000
G1 X-107.080 Y133.620 Z-1.500 F300.000
G2 X-106.964 Y133.458 Z-1.500 I-0.420 J-0.420 K0.000 F120.000
G2 X-107.242 Y132.664 Z-1.500 I-0.536 J-0.258 K0.000 F120.000
G2 X-108.036 Y132.942 Z-1.500 I-0.258 J0.536 K0.000 F120.000
G2 X-107.080 Y133.620 Z-1.500 I0.536 J0.258 K0.000 F120.000
G1 X-107.080 Y133.620 Z-2.000 F300.000
G2 X-106.964 Y133.458 Z-2.000 I-0.420 J-0.420 K0.000 F120.000
G2 X-107.242 Y132.664 Z-2.000 I-0.536 J-0.258 K0.000 F120.000
G2 X-108.036 Y132.942 Z-2.000 I-0.258 J0.536 K0.000 F120.000
G2 X-107.080 Y133.620 Z-2.000 I0.536 J0.258 K0.000 F120.000
G1 X-107.080 Y133.620 Z-2.500 F300.000
G2 X-106.964 Y133.458 Z-2.500 I-0.420 J-0.420 K0.000 F120.000
G2 X-107.242 Y132.664 Z-2.500 I-0.536 J-0.258 K0.000 F120.000
G2 X-108.036 Y132.942 Z-2.500 I-0.258 J0.536 K0.000 F120.000
G2 X-107.080 Y133.620 Z-2.500 I0.536 J0.258 K0.000 F120.000
G1 X-107.080 Y133.620 Z-3.000 F300.000
G2 X-106.964 Y133.458 Z-3.000 I-0.420 J-0.420 K0.000 F120.000
G2 X-107.242 Y132.664 Z-3.000 I-0.536 J-0.258 K0.000 F120.000
G2 X-108.036 Y132.942 Z-3.000 I-0.258 J0.536 K0.000 F120.000
G2 X-107.080 Y133.620 Z-3.000 I0.536 J0.258 K0.000 F120.000
G0 Z5.000
G0 Z5.000
(Finish operation: Hole020)
(Begin operation: Hole021)
(Path: Hole021)
(Profile020)
(Compensated Tool Path. Diameter: 1.7)
G0 Z5.000
G0 X-172.544 Y2.456
G0 Z3.000
G1 X-172.544 Y2.456 Z-0.500 F300.000
G2 X-172.720 Y1.419 Z-0.500 I-0.456 J-0.456 K0.000 F120.000
G2 X-173.280 Y2.581 Z-0.500 I-0.280 J0.581 K0.000 F120.000
G2 X-172.544 Y2.456 Z-0.500 I0.280 J-0.581 K0.000 F120.000
G1 X-172.544 Y2.456 Z-1.000 F300.000
G2 X-172.720 Y1.419 Z-1.000 I-0.456 J-0.456 K0.000 F120.000
G2 X-173.280 Y2.581 Z-1.000 I-0.280 J0.581 K0.000 F120.000
G2 X-172.544 Y2.456 Z-1.000 I0.280 J-0.581 K0.000 F120.000
G1 X-172.544 Y2.456 Z-1.500 F300.000
G2 X-172.720 Y1.419 Z-1.500 I-0.456 J-0.456 K0.000 F120.000
G2 X-173.280 Y2.581 Z-1.500 I-0.280 J0.581 K0.000 F120.000
G2 X-172.544 Y2.456 Z-1.500 I0.280 J-0.581 K0.000 F120.000
G1 X-172.544 Y2.456 Z-2.000 F300.000
G2 X-172.720 Y1.419 Z-2.000 I-0.456 J-0.456 K0.000 F120.000
G2 X-173.280 Y2.581 Z-2.000 I-0.280 J0.581 K0.000 F120.000
G2 X-172.544 Y2.456 Z-2.000 I0.280 J-0.581 K0.000 F120.000
G1 X-172.544 Y2.456 Z-2.500 F300.000
G2 X-172.720 Y1.419 Z-2.500 I-0.456 J-0.456 K0.000 F120.000
G2 X-173.280 Y2.581 Z-2.500 I-0.280 J0.581 K0.000 F120.000
G2 X-172.544 Y2.456 Z-2.500 I0.280 J-0.581 K0.000 F120.000
G1 X-172.544 Y2.456 Z-3.000 F300.000
G2 X-172.720 Y1.419 Z-3.000 I-0.456 J-0.456 K0.000 F120.000
G2 X-173.280 Y2.581 Z-3.000 I-0.280 J0.581 K0.000 F120.000
G2 X-172.544 Y2.456 Z-3.000 I0.280 J-0.581 K0.000 F120.000
G0 Z5.000
G0 Z5.000
(Finish operation: Hole021)
(Begin operation: Hole022)
(Path: Hole022)
(Profile021)
(Compensated Tool Path. Diameter: 1.7)
G0 Z5.000
G0 X-172.544 Y8.456
G0 Z3.000
G1 X-172.544 Y8.456 Z-0.500 F300.000
G2 X-172.720 Y7.419 Z-0.500 I-0.456 J-0.456 K0.000 F120.000
G2 X-173.280 Y8.581 Z-0.500 I-0.280 J0.581 K0.000 F120.000
G2 X-172.544 Y8.456 Z-0.500 I0.280 J-0.581 K0.000 F120.000
G1 X-172.544 Y8.456 Z-1.000 F300.000
G2 X-172.720 Y7.419 Z-1.000 I-0.456 J-0.456 K0.000 F120.000
G2 X-173.280 Y8.581 Z-1.000 I-0.280 J0.581 K0.000 F120.000
G2 X-172.544 Y8.456 Z-1.000 I0.280 J-0.581 K0.000 F120.000
G1 X-172.544 Y8.456 Z-1.500 F300.000
G2 X-172.720 Y7.419 Z-1.500 I-0.456 J-0.456 K0.000 F120.000
G2 X-173.280 Y8.581 Z-1.500 I-0.280 J0.581 K0.000 F120.000
G2 X-172.544 Y8.456 Z-1.500 I0.280 J-0.581 K0.000 F120.000
G1 X-172.544 Y8.456 Z-2.000 F300.000
G2 X-172.720 Y7.419 Z-2.000 I-0.456 J-0.456 K0.000 F120.000
G2 X-173.280 Y8.581 Z-2.000 I-0.280 J0.581 K0.000 F120.000
G2 X-172.544 Y8.456 Z-2.000 I0.280 J-0.581 K0.000 F120.000
G1 X-172.544 Y8.456 Z-2.500 F300.000
G2 X-172.720 Y7.419 Z-2.500 I-0.456 J-0.456 K0.000 F120.000
G2 X-173.280 Y8.581 Z-2.500 I-0.280 J0.581 K0.000 F120.000
G2 X-172.544 Y8.456 Z-2.500 I0.280 J-0.581 K0.000 F120.000
G1 X-172.544 Y8.456 Z-3.000 F300.000
G2 X-172.720 Y7.419 Z-3.000 I-0.456 J-0.456 K0.000 F120.000
G2 X-173.280 Y8.581 Z-3.000 I-0.280 J0.581 K0.000 F120.000
G2 X-172.544 Y8.456 Z-3.000 I0.280 J-0.581 K0.000 F120.000
G0 Z5.000
G0 Z5.000
(Finish operation: Hole022)
(Begin operation: Hole023)
(Path: Hole023)
(Profile022)
(Compensated Tool Path. Diameter: 1.7)
G0 Z5.000
G0 X-192.190 Y90.810
G0 Z3.000
G1 X-192.190 Y90.810 Z-0.500 F300.000
G2 X-192.561 Y88.941 Z-0.500 I-0.810 J-0.810 K0.000 F120.000
G2 X-193.439 Y91.059 Z-0.500 I-0.439 J1.059 K0.000 F120.000
G2 X-192.190 Y90.810 Z-0.500 I0.439 J-1.059 K0.000 F120.000
G1 X-192.190 Y90.810 Z-1.000 F300.000
G2 X-192.561 Y88.941 Z-1.000 I-0.810 J-0.810 K0.000 F120.000
G2 X-193.439 Y91.059 Z-1.000 I-0.439 J1.059 K0.000 F120.000
G2 X-192.190 Y90.810 Z-1.000 I0.439 J-1.059 K0.000 F120.000
G1 X-192.190 Y90.810 Z-1.500 F300.000
G2 X-192.561 Y88.941 Z-1.500 I-0.810 J-0.810 K0.000 F120.000
G2 X-193.439 Y91.059 Z-1.500 I-0.439 J1.059 K0.000 F120.000
G2 X-192.190 Y90.810 Z-1.500 I0.439 J-1.059 K0.000 F120.000
G1 X-192.190 Y90.810 Z-2.000 F300.000
G2 X-192.561 Y88.941 Z-2.000 I-0.810 J-0.810 K0.000 F120.000
G2 X-193.439 Y91.059 Z-2.000 I-0.439 J1.059 K0.000 F120.000
G2 X-192.190 Y90.810 Z-2.000 I0.439 J-1.059 K0.000 F120.000
G1 X-192.190 Y90.810 Z-2.500 F300.000
G2 X-192.561 Y88.941 Z-2.500 I-0.810 J-0.810 K0.000 F120.000
G2 X-193.439 Y91.059 Z-2.500 I-0.439 J1.059 K0.000 F120.000
G2 X-192.190 Y90.810 Z-2.500 I0.439 J-1.059 K0.000 F120.000
G1 X-192.190 Y90.810 Z-3.000 F300.000
G2 X-192.561 Y88.941 Z-3.000 I-0.810 J-0.810 K0.000 F120.000
G2 X-193.439 Y91.059 Z-3.000 I-0.439 J1.059 K0.000 F120.000
G2 X-192.190 Y90.810 Z-3.000 I0.439 J-1.059 K0.000 F120.000
G0 Z5.000
G0 Z5.000
(Finish operation: Hole023)
(Begin operation: Hole024)
(Path: Hole024)
(Profile023)
(Compensated Tool Path. Diameter: 1.7)
G0 Z5.000
G0 X-228.190 Y110.810
G0 Z3.000
G1 X-228.190 Y110.810 Z-0.500 F300.000
G2 X-228.561 Y108.941 Z-0.500 I-0.810 J-0.810 K0.000 F120.000
G2 X-230.059 Y109.561 Z-0.500 I-0.439 J1.059 K0.000 F120.000
G2 X-229.439 Y111.059 Z-0.500 I1.059 J0.439 K0.000 F120.000
G2 X-228.190 Y110.810 Z-0.500 I0.439 J-1.059 K0.000 F120.000
G1 X-228.190 Y110.810 Z-1.000 F300.000
G2 X-228.561 Y108.941 Z-1.000 I-0.810 J-0.810 K0.000 F120.000
G2 X-230.059 Y109.561 Z-1.000 I-0.439 J1.059 K0.000 F120.000
G2 X-229.439 Y111.059 Z-1.000 I1.059 J0.439 K0.000 F120.000
G2 X-228.190 Y110.810 Z-1.000 I0.439 J-1.059 K0.000 F120.000
G1 X-228.190 Y110.810 Z-1.500 F300.000
G2 X-228.561 Y108.941 Z-1.500 I-0.810 J-0.810 K0.000 F120.000
G2 X-230.059 Y109.561 Z-1.500 I-0.439 J1.059 K0.000 F120.000
G2 X-229.439 Y111.059 Z-1.500 I1.059 J0.439 K0.000 F120.000
G2 X-228.190 Y110.810 Z-1.500 I0.439 J-1.059 K0.000 F120.000
G1 X-228.190 Y110.810 Z-2.000 F300.000
G2 X-228.561 Y108.941 Z-2.000 I-0.810 J-0.810 K0.000 F120.000
G2 X-230.059 Y109.561 Z-2.000 I-0.439 J1.059 K0.000 F120.000
G2 X-229.439 Y111.059 Z-2.000 I1.059 J0.439 K0.000 F120.000
G2 X-228.190 Y110.810 Z-2.000 I0.439 J-1.059 K0.000 F120.000
G1 X-228.190 Y110.810 Z-2.500 F300.000
G2 X-228.561 Y108.941 Z-2.500 I-0.810 J-0.810 K0.000 F120.000
G2 X-230.059 Y109.561 Z-2.500 I-0.439 J1.059 K0.000 F120.000
G2 X-229.439 Y111.059 Z-2.500 I1.059 J0.439 K0.000 F120.000
G2 X-228.190 Y110.810 Z-2.500 I0.439 J-1.059 K0.000 F120.000
G1 X-228.190 Y110.810 Z-3.000 F300.000
G2 X-228.561 Y108.941 Z-3.000 I-0.810 J-0.810 K0.000 F120.000
G2 X-230.059 Y109.561 Z-3.000 I-0.439 J1.059 K0.000 F120.000
G2 X-229.439 Y111.059 Z-3.000 I1.059 J0.439 K0.000 F120.000
G2 X-228.190 Y110.810 Z-3.000 I0.439 J-1.059 K0.000 F120.000
G0 Z5.000
G0 Z5.000
(Finish operation: Hole024)
(Begin operation: Hole025)
(Path: Hole025)
(Profile024)
(Compensated Tool Path. Diameter: 1.7)
G0 Z5.000
G0 X-228.190 Y34.810
G0 Z3.000
G1 X-228.190 Y34.810 Z-0.500 F300.000
G2 X-228.561 Y32.941 Z-0.500 I-0.810 J-0.810 K0.000 F120.000
G2 X-229.439 Y35.059 Z-0.500 I-0.439 J1.059 K0.000 F120.000
G2 X-228.190 Y34.810 Z-0.500 I0.439 J-1.059 K0.000 F120.000
G1 X-228.190 Y34.810 Z-1.000 F300.000
G2 X-228.561 Y32.941 Z-1.000 I-0.810 J-0.810 K0.000 F120.000
G2 X-229.439 Y35.059 Z-1.000 I-0.439 J1.059 K0.000 F120.000
G2 X-228.190 Y34.810 Z-1.000 I0.439 J-1.059 K0.000 F120.000
G1 X-228.190 Y34.810 Z-1.500 F300.000
G2 X-228.561 Y32.941 Z-1.500 I-0.810 J-0.810 K0.000 F120.000
G2 X-229.439 Y35.059 Z-1.500 I-0.439 J1.059 K0.000 F120.000
G2 X-228.190 Y34.810 Z-1.500 I0.439 J-1.059 K0.000 F120.000
G1 X-228.190 Y34.810 Z-2.000 F300.000
G2 X-228.561 Y32.941 Z-2.000 I-0.810 J-0.810 K0.000 F120.000
G2 X-229.439 Y35.059 Z-2.000 I-0.439 J1.059 K0.000 F120.000
G2 X-228.190 Y34.810 Z-2.000 I0.439 J-1.059 K0.000 F120.000
G1 X-228.190 Y34.810 Z-2.500 F300.000
G2 X-228.561 Y32.941 Z-2.500 I-0.810 J-0.810 K0.000 F120.000
G2 X-229.439 Y35.059 Z-2.500 I-0.439 J1.059 K0.000 F120.000
G2 X-228.190 Y34.810 Z-2.500 I0.439 J-1.059 K0.000 F120.000
G1 X-228.190 Y34.810 Z-3.000 F300.000
G2 X-228.561 Y32.941 Z-3.000 I-0.810 J-0.810 K0.000 F120.000
G2 X-229.439 Y35.059 Z-3.000 I-0.439 J1.059 K0.000 F120.000
G2 X-228.190 Y34.810 Z-3.000 I0.439 J-1.059 K0.000 F120.000
G0 Z5.000
G0 Z5.000
(Finish operation: Hole025)
(Begin operation: Hole026)
(Path: Hole026)
(Profile025)
(Compensated Tool Path. Diameter: 1.7)
G0 Z5.000
G0 X-228.544 Y8.456
G0 Z3.000
G1 X-228.544 Y8.456 Z-0.500 F300.000
G2 X-228.720 Y7.419 Z-0.500 I-0.456 J-0.456 K0.000 F120.000
G2 X-229.280 Y8.581 Z-0.500 I-0.280 J0.581 K0.000 F120.000
G2 X-228.544 Y8.456 Z-0.500 I0.280 J-0.581 K0.000 F120.000
G1 X-228.544 Y8.456 Z-1.000 F300.000
G2 X-228.720 Y7.419 Z-1.000 I-0.456 J-0.456 K0.000 F120.000
G2 X-229.280 Y8.581 Z-1.000 I-0.280 J0.581 K0.000 F120.000
G2 X-228.544 Y8.456 Z-1.000 I0.280 J-0.581 K0.000 F120.000
G1 X-228.544 Y8.456 Z-1.500 F300.000
G2 X-228.720 Y7.419 Z-1.500 I-0.456 J-0.456 K0.000 F120.000
G2 X-229.280 Y8.581 Z-1.500 I-0.280 J0.581 K0.000 F120.000
G2 X-228.544 Y8.456 Z-1.500 I0.280 J-0.581 K0.000 F120.000
G1 X-228.544 Y8.456 Z-2.000 F300.000
G2 X-228.720 Y7.419 Z-2.000 I-0.456 J-0.456 K0.000 F120.000
G2 X-229.280 Y8.581 Z-2.000 I-0.280 J0.581 K0.000 F120.000
G2 X-228.544 Y8.456 Z-2.000 I0.280 J-0.581 K0.000 F120.000
G1 X-228.544 Y8.456 Z-2.500 F300.000
G2 X-228.720 Y7.419 Z-2.500 I-0.456 J-0.456 K0.000 F120.000
G2 X-229.280 Y8.581 Z-2.500 I-0.280 J0.581 K0.000 F120.000
G2 X-228.544 Y8.456 Z-2.500 I0.280 J-0.581 K0.000 F120.000
G1 X-228.544 Y8.456 Z-3.000 F300.000
G2 X-228.720 Y7.419 Z-3.000 I-0.456 J-0.456 K0.000 F120.000
G2 X-229.280 Y8.581 Z-3.000 I-0.280 J0.581 K0.000 F120.000
G2 X-228.544 Y8.456 Z-3.000 I0.280 J-0.581 K0.000 F120.000
G0 Z5.000
G0 Z5.000
(Finish operation: Hole026)
(Begin operation: Hole027)
(Path: Hole027)
(Profile026)
(Compensated Tool Path. Diameter: 1.7)
G0 Z5.000
G0 X-228.544 Y2.456
G0 Z3.000
G1 X-228.544 Y2.456 Z-0.500 F300.000
G2 X-228.720 Y1.419 Z-0.500 I-0.456 J-0.456 K0.000 F120.000
G2 X-229.280 Y2.581 Z-0.500 I-0.280 J0.581 K0.000 F120.000
G2 X-228.544 Y2.456 Z-0.500 I0.280 J-0.581 K0.000 F120.000
G1 X-228.544 Y2.456 Z-1.000 F300.000
G2 X-228.720 Y1.419 Z-1.000 I-0.456 J-0.456 K0.000 F120.000
G2 X-229.280 Y2.581 Z-1.000 I-0.280 J0.581 K0.000 F120.000
G2 X-228.544 Y2.456 Z-1.000 I0.280 J-0.581 K0.000 F120.000
G1 X-228.544 Y2.456 Z-1.500 F300.000
G2 X-228.720 Y1.419 Z-1.500 I-0.456 J-0.456 K0.000 F120.000
G2 X-229.280 Y2.581 Z-1.500 I-0.280 J0.581 K0.000 F120.000
G2 X-228.544 Y2.456 Z-1.500 I0.280 J-0.581 K0.000 F120.000
G1 X-228.544 Y2.456 Z-2.000 F300.000
G2 X-228.720 Y1.419 Z-2.000 I-0.456 J-0.456 K0.000 F120.000
G2 X-229.280 Y2.581 Z-2.000 I-0.280 J0.581 K0.000 F120.000
G2 X-228.544 Y2.456 Z-2.000 I0.280 J-0.581 K0.000 F120.000
G1 X-228.544 Y2.456 Z-2.500 F300.000
G2 X-228.720 Y1.419 Z-2.500 I-0.456 J-0.456 K0.000 F120.000
G2 X-229.280 Y2.581 Z-2.500 I-0.280 J0.581 K0.000 F120.000
G2 X-228.544 Y2.456 Z-2.500 I0.280 J-0.581 K0.000 F120.000
G1 X-228.544 Y2.456 Z-3.000 F300.000
G2 X-228.720 Y1.419 Z-3.000 I-0.456 J-0.456 K0.000 F120.000
G2 X-229.280 Y2.581 Z-3.000 I-0.280 J0.581 K0.000 F120.000
G2 X-228.544 Y2.456 Z-3.000 I0.280 J-0.581 K0.000 F120.000
G0 Z5.000
G0 Z5.000
(Finish operation: Hole027)
(Begin operation: Hole028)
(Path: Hole028)
(Profile028)
(Compensated Tool Path. Diameter: 1.7)
G0 Z5.000
G0 X-118.550 Y151.150
G0 Z3.000
G1 X-118.550 Y151.150 Z-0.500 F300.000
G1 X-118.550 Y132.850 Z-0.500 F120.000
G1 X-129.650 Y132.850 Z-0.500 F120.000
G1 X-129.650 Y151.150 Z-0.500 F120.000
G1 X-118.550 Y151.150 Z-0.500 F120.000
G1 X-118.550 Y151.150 Z-1.000 F300.000
G1 X-118.550 Y132.850 Z-1.000 F120.000
G1 X-129.650 Y132.850 Z-1.000 F120.000
G1 X-129.650 Y151.150 Z-1.000 F120.000
G1 X-118.550 Y151.150 Z-1.000 F120.000
G1 X-118.550 Y151.150 Z-1.500 F300.000
G1 X-118.550 Y132.850 Z-1.500 F120.000
G1 X-129.650 Y132.850 Z-1.500 F120.000
G1 X-129.650 Y151.150 Z-1.500 F120.000
G1 X-118.550 Y151.150 Z-1.500 F120.000
G1 X-118.550 Y151.150 Z-2.000 F300.000
G1 X-118.550 Y132.850 Z-2.000 F120.000
G1 X-129.650 Y132.850 Z-2.000 F120.000
G1 X-129.650 Y151.150 Z-2.000 F120.000
G1 X-118.550 Y151.150 Z-2.000 F120.000
G1 X-118.550 Y151.150 Z-2.500 F300.000
G1 X-118.550 Y132.850 Z-2.500 F120.000
G1 X-129.650 Y132.850 Z-2.500 F120.000
G1 X-129.650 Y151.150 Z-2.500 F120.000
G1 X-118.550 Y151.150 Z-2.500 F120.000
G1 X-118.550 Y151.150 Z-3.000 F300.000
G1 X-118.550 Y132.850 Z-3.000 F120.000
G1 X-129.650 Y132.850 Z-3.000 F120.000
G1 X-129.650 Y151.150 Z-3.000 F120.000
G1 X-118.550 Y151.150 Z-3.000 F120.000
G0 Z5.000
G0 Z5.000
(Finish operation: Hole028)
(Begin operation: Contour)
(Path: Contour)
(Обрезка)
(Compensated Tool Path. Diameter: 1.7)
G0 Z5.000
G0 X-23.150 Y160.029
G0 Z3.000
G1 X-23.150 Y160.029 Z-0.500 F300.000
G2 X-23.150 Y160.000 Z-0.500 I-0.850 J-0.029 K0.000 F120.000
G1 X-23.150 Y120.850 Z-0.500 F120.000
G1 X0.000 Y120.850 Z-0.500 F120.000
G2 X0.850 Y120.000 Z-0.500 I0.000 J-0.850 K0.000 F120.000
G1 X0.850 Y0.000 Z-0.500 F120.000
G2 X0.000 Y-0.850 Z-0.500 I-0.850 J-0.000 K0.000 F120.000
G1 X-234.000 Y-0.850 Z-0.500 F120.000
G2 X-234.850 Y0.000 Z-0.500 I-0.000 J0.850 K0.000 F120.000
G1 X-234.850 Y51.000 Z-0.500 F120.000
G2 X-234.317 Y51.789 Z-0.500 I0.850 J0.000 K0.000 F120.000
G2 X-233.669 Y51.880 Z-0.500 I0.628 J-2.103 K0.000 F120.000
G3 X-234.070 Y56.153 Z-0.500 I-0.348 J2.122 K0.000 F120.000
G2 X-234.850 Y57.000 Z-0.500 I0.070 J0.847 K0.000 F120.000
G1 X-234.850 Y120.000 Z-0.500 F120.000
G2 X-234.000 Y120.850 Z-0.500 I0.850 J0.000 K0.000 F120.000
G1 X-137.850 Y120.850 Z-0.500 F120.000
G1 X-137.850 Y160.000 Z-0.500 F120.000
G2 X-137.000 Y160.850 Z-0.500 I0.850 J0.000 K0.000 F120.000
G1 X-24.000 Y160.850 Z-0.500 F120.000
G2 X-23.150 Y160.029 Z-0.500 I0.000 J-0.850 K0.000 F120.000
G1 X-23.150 Y160.029 Z-1.000 F300.000
G2 X-23.150 Y160.000 Z-1.000 I-0.850 J-0.029 K0.000 F120.000
G1 X-23.150 Y120.850 Z-1.000 F120.000
G1 X0.000 Y120.850 Z-1.000 F120.000
G2 X0.850 Y120.000 Z-1.000 I0.000 J-0.850 K0.000 F120.000
G1 X0.850 Y0.000 Z-1.000 F120.000
G2 X0.000 Y-0.850 Z-1.000 I-0.850 J-0.000 K0.000 F120.000
G1 X-234.000 Y-0.850 Z-1.000 F120.000
G2 X-234.850 Y0.000 Z-1.000 I-0.000 J0.850 K0.000 F120.000
G1 X-234.850 Y51.000 Z-1.000 F120.000
G2 X-234.317 Y51.789 Z-1.000 I0.850 J0.000 K0.000 F120.000
G2 X-233.669 Y51.880 Z-1.000 I0.628 J-2.103 K0.000 F120.000
G3 X-234.070 Y56.153 Z-1.000 I-0.348 J2.122 K0.000 F120.000
G2 X-234.850 Y57.000 Z-1.000 I0.070 J0.847 K0.000 F120.000
G1 X-234.850 Y120.000 Z-1.000 F120.000
G2 X-234.000 Y120.850 Z-1.000 I0.850 J0.000 K0.000 F120.000
G1 X-137.850 Y120.850 Z-1.000 F120.000
G1 X-137.850 Y160.000 Z-1.000 F120.000
G2 X-137.000 Y160.850 Z-1.000 I0.850 J0.000 K0.000 F120.000
G1 X-24.000 Y160.850 Z-1.000 F120.000
G2 X-23.150 Y160.029 Z-1.000 I0.000 J-0.850 K0.000 F120.000
G1 X-23.150 Y160.029 Z-1.500 F300.000
G2 X-23.150 Y160.000 Z-1.500 I-0.850 J-0.029 K0.000 F120.000
G1 X-23.150 Y120.850 Z-1.500 F120.000
G1 X0.000 Y120.850 Z-1.500 F120.000
G2 X0.850 Y120.000 Z-1.500 I0.000 J-0.850 K0.000 F120.000
G1 X0.850 Y0.000 Z-1.500 F120.000
G2 X0.000 Y-0.850 Z-1.500 I-0.850 J-0.000 K0.000 F120.000
G1 X-234.000 Y-0.850 Z-1.500 F120.000
G2 X-234.850 Y0.000 Z-1.500 I-0.000 J0.850 K0.000 F120.000
G1 X-234.850 Y51.000 Z-1.500 F120.000
G2 X-234.317 Y51.789 Z-1.500 I0.850 J0.000 K0.000 F120.000
G2 X-233.669 Y51.880 Z-1.500 I0.628 J-2.103 K0.000 F120.000
G3 X-234.070 Y56.153 Z-1.500 I-0.348 J2.122 K0.000 F120.000
G2 X-234.850 Y57.000 Z-1.500 I0.070 J0.847 K0.000 F120.000
G1 X-234.850 Y120.000 Z-1.500 F120.000
G2 X-234.000 Y120.850 Z-1.500 I0.850 J0.000 K0.000 F120.000
G1 X-137.850 Y120.850 Z-1.500 F120.000
G1 X-137.850 Y160.000 Z-1.500 F120.000
G2 X-137.000 Y160.850 Z-1.500 I0.850 J0.000 K0.000 F120.000
G1 X-24.000 Y160.850 Z-1.500 F120.000
G2 X-23.150 Y160.029 Z-1.500 I0.000 J-0.850 K0.000 F120.000
G1 X-23.150 Y160.029 Z-2.000 F300.000
G2 X-23.150 Y160.000 Z-2.000 I-0.850 J-0.029 K0.000 F120.000
G1 X-23.150 Y120.850 Z-2.000 F120.000
G1 X0.000 Y120.850 Z-2.000 F120.000
G2 X0.850 Y120.000 Z-2.000 I0.000 J-0.850 K0.000 F120.000
G1 X0.850 Y0.000 Z-2.000 F120.000
G2 X0.000 Y-0.850 Z-2.000 I-0.850 J-0.000 K0.000 F120.000
G1 X-234.000 Y-0.850 Z-2.000 F120.000
G2 X-234.850 Y0.000 Z-2.000 I-0.000 J0.850 K0.000 F120.000
G1 X-234.850 Y51.000 Z-2.000 F120.000
G2 X-234.317 Y51.789 Z-2.000 I0.850 J0.000 K0.000 F120.000
G2 X-233.669 Y51.880 Z-2.000 I0.628 J-2.103 K0.000 F120.000
G3 X-234.070 Y56.153 Z-2.000 I-0.348 J2.122 K0.000 F120.000
G2 X-234.850 Y57.000 Z-2.000 I0.070 J0.847 K0.000 F120.000
G1 X-234.850 Y120.000 Z-2.000 F120.000
G2 X-234.000 Y120.850 Z-2.000 I0.850 J0.000 K0.000 F120.000
G1 X-137.850 Y120.850 Z-2.000 F120.000
G1 X-137.850 Y160.000 Z-2.000 F120.000
G2 X-137.000 Y160.850 Z-2.000 I0.850 J0.000 K0.000 F120.000
G1 X-24.000 Y160.850 Z-2.000 F120.000
G2 X-23.150 Y160.029 Z-2.000 I0.000 J-0.850 K0.000 F120.000
G1 X-23.150 Y160.029 Z-2.500 F300.000
G2 X-23.150 Y160.000 Z-2.500 I-0.850 J-0.029 K0.000 F120.000
G1 X-23.150 Y120.850 Z-2.500 F120.000
G1 X0.000 Y120.850 Z-2.500 F120.000
G2 X0.850 Y120.000 Z-2.500 I0.000 J-0.850 K0.000 F120.000
G1 X0.850 Y0.000 Z-2.500 F120.000
G2 X0.000 Y-0.850 Z-2.500 I-0.850 J-0.000 K0.000 F120.000
G1 X-234.000 Y-0.850 Z-2.500 F120.000
G2 X-234.850 Y0.000 Z-2.500 I-0.000 J0.850 K0.000 F120.000
G1 X-234.850 Y51.000 Z-2.500 F120.000
G2 X-234.317 Y51.789 Z-2.500 I0.850 J0.000 K0.000 F120.000
G2 X-233.669 Y51.880 Z-2.500 I0.628 J-2.103 K0.000 F120.000
G3 X-234.070 Y56.153 Z-2.500 I-0.348 J2.122 K0.000 F120.000
G2 X-234.850 Y57.000 Z-2.500 I0.070 J0.847 K0.000 F120.000
G1 X-234.850 Y120.000 Z-2.500 F120.000
G2 X-234.000 Y120.850 Z-2.500 I0.850 J0.000 K0.000 F120.000
G1 X-137.850 Y120.850 Z-2.500 F120.000
G1 X-137.850 Y160.000 Z-2.500 F120.000
G2 X-137.000 Y160.850 Z-2.500 I0.850 J0.000 K0.000 F120.000
G1 X-24.000 Y160.850 Z-2.500 F120.000
G2 X-23.150 Y160.029 Z-2.500 I0.000 J-0.850 K0.000 F120.000
G1 X-23.150 Y160.029 Z-3.000 F300.000
G2 X-23.150 Y160.000 Z-3.000 I-0.850 J-0.029 K0.000 F120.000
G1 X-23.150 Y120.850 Z-3.000 F120.000
G1 X0.000 Y120.850 Z-3.000 F120.000
G2 X0.850 Y120.000 Z-3.000 I0.000 J-0.850 K0.000 F120.000
G1 X0.850 Y0.000 Z-3.000 F120.000
G2 X0.000 Y-0.850 Z-3.000 I-0.850 J-0.000 K0.000 F120.000
G1 X-234.000 Y-0.850 Z-3.000 F120.000
G2 X-234.850 Y0.000 Z-3.000 I-0.000 J0.850 K0.000 F120.000
G1 X-234.850 Y51.000 Z-3.000 F120.000
G2 X-234.317 Y51.789 Z-3.000 I0.850 J0.000 K0.000 F120.000
G2 X-233.669 Y51.880 Z-3.000 I0.628 J-2.103 K0.000 F120.000
G3 X-234.070 Y56.153 Z-3.000 I-0.348 J2.122 K0.000 F120.000
G2 X-234.850 Y57.000 Z-3.000 I0.070 J0.847 K0.000 F120.000
G1 X-234.850 Y120.000 Z-3.000 F120.000
G2 X-234.000 Y120.850 Z-3.000 I0.850 J0.000 K0.000 F120.000
G1 X-137.850 Y120.850 Z-3.000 F120.000
G1 X-137.850 Y160.000 Z-3.000 F120.000
G2 X-137.000 Y160.850 Z-3.000 I0.850 J0.000 K0.000 F120.000
G1 X-24.000 Y160.850 Z-3.000 F120.000
G2 X-23.150 Y160.029 Z-3.000 I0.000 J-0.850 K0.000 F120.000
G0 Z5.000
G0 Z5.000
(Finish operation: Contour)
(Begin postamble)
M5
G17 G90
M2
