(Exported by FreeCAD)
(Post Processor: linuxcnc_post)
(Output Time:2023-05-26 00:00:40.675289)
(begin preamble)
G17 G54 G40 G49 G80 G90
G21
(begin operation: G59)
(machine units: mm/min)
G59 
G0 Z5.000 
(finish operation: G59)
(begin operation: kukuruza-1.7-7-3.176)
(machine units: mm/min)
(kukuruza-1.7-7-3.176) 
M5
M6 T1 
G43 H1 
M3 S1000 
(finish operation: kukuruza-1.7-7-3.176)
(begin operation: Отверстия)
(machine units: mm/min)
(Отверстия) 
(Compensated Tool Path. Diameter: 1.7) 
G0 Z5.000 
G0 X-28.356 Y145.017 
G0 Z3.000 
G1 X-28.356 Y145.017 Z-0.300 F12000.000 
G2 X-29.581 Y144.720 Z-0.300 I-0.644 J-0.017 F6000.000 
G2 X-28.419 Y145.280 Z-0.300 I0.581 J0.280 F6000.000 
G2 X-28.356 Y145.017 Z-0.300 I-0.581 J-0.280 F6000.000 
G0 Z5.000 
G0 X-43.355 Y145.001 Z5.000 
G0 X-43.355 Y145.001 Z3.000 
G1 X-43.355 Y145.001 Z-0.300 F12000.000 
G2 X-44.581 Y144.720 Z-0.300 I-0.645 J-0.001 F6000.000 
G2 X-43.419 Y145.280 Z-0.300 I0.581 J0.280 F6000.000 
G2 X-43.355 Y145.001 Z-0.300 I-0.581 J-0.280 F6000.000 
G0 Z5.000 
G0 X-43.983 Y120.644 Z5.000 
G0 X-43.983 Y120.644 Z3.000 
G1 X-43.983 Y120.644 Z-0.300 F12000.000 
G2 X-43.419 Y120.280 Z-0.300 I-0.017 J-0.644 F6000.000 
G2 X-44.581 Y119.720 Z-0.300 I-0.581 J-0.280 F6000.000 
G2 X-43.983 Y120.644 Z-0.300 I0.581 J0.280 F6000.000 
G0 Z5.000 
G0 X-29.644 Y120.028 Z5.000 
G0 X-29.644 Y120.028 Z3.000 
G1 X-29.644 Y120.028 Z-0.300 F12000.000 
G2 X-28.419 Y120.280 Z-0.300 I0.644 J-0.028 F6000.000 
G2 X-29.581 Y119.720 Z-0.300 I-0.581 J-0.280 F6000.000 
G2 X-29.644 Y120.028 Z-0.300 I0.581 J0.280 F6000.000 
G0 Z5.000 
G0 X-5.889 Y100.723 Z5.000 
G0 X-5.889 Y100.723 Z3.000 
G1 X-5.889 Y100.723 Z-0.300 F12000.000 
G2 X-3.941 Y100.439 Z-0.300 I0.889 J-0.723 F6000.000 
G2 X-4.561 Y98.941 Z-0.300 I-1.059 J-0.439 F6000.000 
G2 X-6.059 Y99.561 Z-0.300 I-0.439 J1.059 F6000.000 
G2 X-5.889 Y100.723 Z-0.300 I1.059 J0.439 F6000.000 
G0 Z5.000 
G0 X-41.006 Y80.570 Z5.000 
G0 X-41.006 Y80.570 Z3.000 
G1 X-41.006 Y80.570 Z-0.300 F12000.000 
G2 X-40.941 Y80.439 Z-0.300 I-0.994 J-0.570 F6000.000 
G2 X-41.561 Y78.941 Z-0.300 I-1.059 J-0.439 F6000.000 
G2 X-43.059 Y79.561 Z-0.300 I-0.439 J1.059 F6000.000 
G2 X-41.006 Y80.570 Z-0.300 I1.059 J0.439 F6000.000 
G0 Z5.000 
G0 X-5.615 Y24.967 Z5.000 
G0 X-5.615 Y24.967 Z3.000 
G1 X-5.615 Y24.967 Z-0.300 F12000.000 
G2 X-3.941 Y24.439 Z-0.300 I0.615 J-0.967 F6000.000 
G2 X-4.561 Y22.941 Z-0.300 I-1.059 J-0.439 F6000.000 
G2 X-6.059 Y23.561 Z-0.300 I-0.439 J1.059 F6000.000 
G2 X-5.615 Y24.967 Z-0.300 I1.059 J0.439 F6000.000 
G0 Z5.000 
G0 X-191.901 Y79.677 Z5.000 
G0 X-191.901 Y79.677 Z3.000 
G1 X-191.901 Y79.677 Z-0.300 F12000.000 
G2 X-194.059 Y79.561 Z-0.300 I-1.099 J0.323 F6000.000 
G2 X-193.439 Y81.059 Z-0.300 I1.059 J0.439 F6000.000 
G2 X-191.941 Y80.439 Z-0.300 I0.439 J-1.059 F6000.000 
G2 X-191.901 Y79.677 Z-0.300 I-1.059 J-0.439 F6000.000 
G0 Z5.000 
G0 X-227.995 Y99.449 Z5.000 
G0 X-227.995 Y99.449 Z3.000 
G1 X-227.995 Y99.449 Z-0.300 F12000.000 
G2 X-230.059 Y99.561 Z-0.300 I-1.005 J0.551 F6000.000 
G2 X-229.439 Y101.059 Z-0.300 I1.059 J0.439 F6000.000 
G2 X-227.941 Y100.439 Z-0.300 I0.439 J-1.059 F6000.000 
G2 X-227.995 Y99.449 Z-0.300 I-1.059 J-0.439 F6000.000 
G0 Z5.000 
G0 X-228.985 Y25.146 Z5.000 
G0 X-228.985 Y25.146 Z3.000 
G1 X-228.985 Y25.146 Z-0.300 F12000.000 
G2 X-227.941 Y24.439 Z-0.300 I-0.015 J-1.146 F6000.000 
G2 X-228.561 Y22.941 Z-0.300 I-1.059 J-0.439 F6000.000 
G2 X-230.059 Y23.561 Z-0.300 I-0.439 J1.059 F6000.000 
G2 X-228.985 Y25.146 Z-0.300 I1.059 J0.439 F6000.000 
G1 X-228.985 Y25.146 Z-0.600 F12000.000 
G2 X-227.941 Y24.439 Z-0.600 I-0.015 J-1.146 F6000.000 
G2 X-228.561 Y22.941 Z-0.600 I-1.059 J-0.439 F6000.000 
G2 X-230.059 Y23.561 Z-0.600 I-0.439 J1.059 F6000.000 
G2 X-228.985 Y25.146 Z-0.600 I1.059 J0.439 F6000.000 
G0 Z5.000 
G0 X-193.629 Y79.042 Z5.000 
G0 X-193.629 Y79.042 Z3.000 
G1 X-193.629 Y79.042 Z-0.600 F12000.000 
G2 X-194.059 Y79.561 Z-0.600 I0.629 J0.958 F6000.000 
G2 X-193.439 Y81.059 Z-0.600 I1.059 J0.439 F6000.000 
G2 X-191.941 Y80.439 Z-0.600 I0.439 J-1.059 F6000.000 
G2 X-193.629 Y79.042 Z-0.600 I-1.059 J-0.439 F6000.000 
G0 Z5.000 
G0 X-228.014 Y99.416 Z5.000 
G0 X-228.014 Y99.416 Z3.000 
G1 X-228.014 Y99.416 Z-0.600 F12000.000 
G2 X-230.059 Y99.561 Z-0.600 I-0.986 J0.584 F6000.000 
G2 X-229.439 Y101.059 Z-0.600 I1.059 J0.439 F6000.000 
G2 X-227.941 Y100.439 Z-0.600 I0.439 J-1.059 F6000.000 
G2 X-228.014 Y99.416 Z-0.600 I-1.059 J-0.439 F6000.000 
G0 Z5.000 
G0 X-44.641 Y119.928 Z5.000 
G0 X-44.641 Y119.928 Z3.000 
G1 X-44.641 Y119.928 Z-0.600 F12000.000 
G2 X-43.419 Y120.280 Z-0.600 I0.641 J0.072 F6000.000 
G2 X-44.581 Y119.720 Z-0.600 I-0.581 J-0.280 F6000.000 
G2 X-44.641 Y119.928 Z-0.600 I0.581 J0.280 F6000.000 
G0 Z5.000 
G0 X-29.645 Y119.997 Z5.000 
G0 X-29.645 Y119.997 Z3.000 
G1 X-29.645 Y119.997 Z-0.600 F12000.000 
G2 X-28.419 Y120.280 Z-0.600 I0.645 J0.003 F6000.000 
G2 X-29.581 Y119.720 Z-0.600 I-0.581 J-0.280 F6000.000 
G2 X-29.645 Y119.997 Z-0.600 I0.581 J0.280 F6000.000 
G0 Z5.000 
G0 X-29.017 Y144.356 Z5.000 
G0 X-29.017 Y144.356 Z3.000 
G1 X-29.017 Y144.356 Z-0.600 F12000.000 
G2 X-29.581 Y144.720 Z-0.600 I0.017 J0.644 F6000.000 
G2 X-28.419 Y145.280 Z-0.600 I0.581 J0.280 F6000.000 
G2 X-29.017 Y144.356 Z-0.600 I-0.581 J-0.280 F6000.000 
G0 Z5.000 
G0 X-43.356 Y144.972 Z5.000 
G0 X-43.356 Y144.972 Z3.000 
G1 X-43.356 Y144.972 Z-0.600 F12000.000 
G2 X-44.581 Y144.720 Z-0.600 I-0.644 J0.028 F6000.000 
G2 X-43.419 Y145.280 Z-0.600 I0.581 J0.280 F6000.000 
G2 X-43.356 Y144.972 Z-0.600 I-0.581 J-0.280 F6000.000 
G0 Z5.000 
G0 X-5.744 Y100.872 Z5.000 
G0 X-5.744 Y100.872 Z3.000 
G1 X-5.744 Y100.872 Z-0.600 F12000.000 
G2 X-3.941 Y100.439 Z-0.600 I0.744 J-0.872 F6000.000 
G2 X-4.561 Y98.941 Z-0.600 I-1.059 J-0.439 F6000.000 
G2 X-6.059 Y99.561 Z-0.600 I-0.439 J1.059 F6000.000 
G2 X-5.744 Y100.872 Z-0.600 I1.059 J0.439 F6000.000 
G0 Z5.000 
G0 X-41.007 Y80.572 Z5.000 
G0 X-41.007 Y80.572 Z3.000 
G1 X-41.007 Y80.572 Z-0.600 F12000.000 
G2 X-40.941 Y80.439 Z-0.600 I-0.993 J-0.572 F6000.000 
G2 X-41.561 Y78.941 Z-0.600 I-1.059 J-0.439 F6000.000 
G2 X-43.059 Y79.561 Z-0.600 I-0.439 J1.059 F6000.000 
G2 X-41.007 Y80.572 Z-0.600 I1.059 J0.439 F6000.000 
G0 Z5.000 
G0 X-5.615 Y24.967 Z5.000 
G0 X-5.615 Y24.967 Z3.000 
G1 X-5.615 Y24.967 Z-0.600 F12000.000 
G2 X-3.941 Y24.439 Z-0.600 I0.615 J-0.967 F6000.000 
G2 X-4.561 Y22.941 Z-0.600 I-1.059 J-0.439 F6000.000 
G2 X-6.059 Y23.561 Z-0.600 I-0.439 J1.059 F6000.000 
G2 X-5.615 Y24.967 Z-0.600 I1.059 J0.439 F6000.000 
G1 X-5.615 Y24.967 Z-0.900 F12000.000 
G2 X-3.941 Y24.439 Z-0.900 I0.615 J-0.967 F6000.000 
G2 X-4.561 Y22.941 Z-0.900 I-1.059 J-0.439 F6000.000 
G2 X-6.059 Y23.561 Z-0.900 I-0.439 J1.059 F6000.000 
G2 X-5.615 Y24.967 Z-0.900 I1.059 J0.439 F6000.000 
G0 Z5.000 
G0 X-41.368 Y79.044 Z5.000 
G0 X-41.368 Y79.044 Z3.000 
G1 X-41.368 Y79.044 Z-0.900 F12000.000 
G2 X-43.059 Y79.561 Z-0.900 I-0.632 J0.956 F6000.000 
G2 X-42.439 Y81.059 Z-0.900 I1.059 J0.439 F6000.000 
G2 X-40.941 Y80.439 Z-0.900 I0.439 J-1.059 F6000.000 
G2 X-41.368 Y79.044 Z-0.900 I-1.059 J-0.439 F6000.000 
G0 Z5.000 
G0 X-43.959 Y119.357 Z5.000 
G0 X-43.959 Y119.357 Z3.000 
G1 X-43.959 Y119.357 Z-0.900 F12000.000 
G2 X-44.581 Y119.720 Z-0.900 I-0.041 J0.643 F6000.000 
G2 X-43.419 Y120.280 Z-0.900 I0.581 J0.280 F6000.000 
G2 X-43.959 Y119.357 Z-0.900 I-0.581 J-0.280 F6000.000 
G0 Z5.000 
G0 X-29.644 Y119.972 Z5.000 
G0 X-29.644 Y119.972 Z3.000 
G1 X-29.644 Y119.972 Z-0.900 F12000.000 
G2 X-28.419 Y120.280 Z-0.900 I0.644 J0.028 F6000.000 
G2 X-29.581 Y119.720 Z-0.900 I-0.581 J-0.280 F6000.000 
G2 X-29.644 Y119.972 Z-0.900 I0.581 J0.280 F6000.000 
G0 Z5.000 
G0 X-29.017 Y144.356 Z5.000 
G0 X-29.017 Y144.356 Z3.000 
G1 X-29.017 Y144.356 Z-0.900 F12000.000 
G2 X-29.581 Y144.720 Z-0.900 I0.017 J0.644 F6000.000 
G2 X-28.419 Y145.280 Z-0.900 I0.581 J0.280 F6000.000 
G2 X-29.017 Y144.356 Z-0.900 I-0.581 J-0.280 F6000.000 
G0 Z5.000 
G0 X-43.356 Y144.972 Z5.000 
G0 X-43.356 Y144.972 Z3.000 
G1 X-43.356 Y144.972 Z-0.900 F12000.000 
G2 X-44.581 Y144.720 Z-0.900 I-0.644 J0.028 F6000.000 
G2 X-43.419 Y145.280 Z-0.900 I0.581 J0.280 F6000.000 
G2 X-43.356 Y144.972 Z-0.900 I-0.581 J-0.280 F6000.000 
G0 Z5.000 
G0 X-5.744 Y100.872 Z5.000 
G0 X-5.744 Y100.872 Z3.000 
G1 X-5.744 Y100.872 Z-0.900 F12000.000 
G2 X-3.941 Y100.439 Z-0.900 I0.744 J-0.872 F6000.000 
G2 X-4.561 Y98.941 Z-0.900 I-1.059 J-0.439 F6000.000 
G2 X-6.059 Y99.561 Z-0.900 I-0.439 J1.059 F6000.000 
G2 X-5.744 Y100.872 Z-0.900 I1.059 J0.439 F6000.000 
G0 Z5.000 
G0 X-191.861 Y80.127 Z5.000 
G0 X-191.861 Y80.127 Z3.000 
G1 X-191.861 Y80.127 Z-0.900 F12000.000 
G2 X-194.059 Y79.561 Z-0.900 I-1.139 J-0.127 F6000.000 
G2 X-193.439 Y81.059 Z-0.900 I1.059 J0.439 F6000.000 
G2 X-191.941 Y80.439 Z-0.900 I0.439 J-1.059 F6000.000 
G2 X-191.861 Y80.127 Z-0.900 I-1.059 J-0.439 F6000.000 
G0 Z5.000 
G0 X-227.990 Y99.459 Z5.000 
G0 X-227.990 Y99.459 Z3.000 
G1 X-227.990 Y99.459 Z-0.900 F12000.000 
G2 X-230.059 Y99.561 Z-0.900 I-1.010 J0.541 F6000.000 
G2 X-229.439 Y101.059 Z-0.900 I1.059 J0.439 F6000.000 
G2 X-227.941 Y100.439 Z-0.900 I0.439 J-1.059 F6000.000 
G2 X-227.990 Y99.459 Z-0.900 I-1.059 J-0.439 F6000.000 
G0 Z5.000 
G0 X-228.985 Y25.146 Z5.000 
G0 X-228.985 Y25.146 Z3.000 
G1 X-228.985 Y25.146 Z-0.900 F12000.000 
G2 X-227.941 Y24.439 Z-0.900 I-0.015 J-1.146 F6000.000 
G2 X-228.561 Y22.941 Z-0.900 I-1.059 J-0.439 F6000.000 
G2 X-230.059 Y23.561 Z-0.900 I-0.439 J1.059 F6000.000 
G2 X-228.985 Y25.146 Z-0.900 I1.059 J0.439 F6000.000 
G1 X-228.985 Y25.146 Z-1.200 F12000.000 
G2 X-227.941 Y24.439 Z-1.200 I-0.015 J-1.146 F6000.000 
G2 X-228.561 Y22.941 Z-1.200 I-1.059 J-0.439 F6000.000 
G2 X-230.059 Y23.561 Z-1.200 I-0.439 J1.059 F6000.000 
G2 X-228.985 Y25.146 Z-1.200 I1.059 J0.439 F6000.000 
G0 Z5.000 
G0 X-193.629 Y79.042 Z5.000 
G0 X-193.629 Y79.042 Z3.000 
G1 X-193.629 Y79.042 Z-1.200 F12000.000 
G2 X-194.059 Y79.561 Z-1.200 I0.629 J0.958 F6000.000 
G2 X-193.439 Y81.059 Z-1.200 I1.059 J0.439 F6000.000 
G2 X-191.941 Y80.439 Z-1.200 I0.439 J-1.059 F6000.000 
G2 X-193.629 Y79.042 Z-1.200 I-1.059 J-0.439 F6000.000 
G0 Z5.000 
G0 X-228.014 Y99.416 Z5.000 
G0 X-228.014 Y99.416 Z3.000 
G1 X-228.014 Y99.416 Z-1.200 F12000.000 
G2 X-230.059 Y99.561 Z-1.200 I-0.986 J0.584 F6000.000 
G2 X-229.439 Y101.059 Z-1.200 I1.059 J0.439 F6000.000 
G2 X-227.941 Y100.439 Z-1.200 I0.439 J-1.059 F6000.000 
G2 X-228.014 Y99.416 Z-1.200 I-1.059 J-0.439 F6000.000 
G0 Z5.000 
G0 X-44.641 Y119.928 Z5.000 
G0 X-44.641 Y119.928 Z3.000 
G1 X-44.641 Y119.928 Z-1.200 F12000.000 
G2 X-43.419 Y120.280 Z-1.200 I0.641 J0.072 F6000.000 
G2 X-44.581 Y119.720 Z-1.200 I-0.581 J-0.280 F6000.000 
G2 X-44.641 Y119.928 Z-1.200 I0.581 J0.280 F6000.000 
G0 Z5.000 
G0 X-29.645 Y119.997 Z5.000 
G0 X-29.645 Y119.997 Z3.000 
G1 X-29.645 Y119.997 Z-1.200 F12000.000 
G2 X-28.419 Y120.280 Z-1.200 I0.645 J0.003 F6000.000 
G2 X-29.581 Y119.720 Z-1.200 I-0.581 J-0.280 F6000.000 
G2 X-29.645 Y119.997 Z-1.200 I0.581 J0.280 F6000.000 
G0 Z5.000 
G0 X-29.017 Y144.356 Z5.000 
G0 X-29.017 Y144.356 Z3.000 
G1 X-29.017 Y144.356 Z-1.200 F12000.000 
G2 X-29.581 Y144.720 Z-1.200 I0.017 J0.644 F6000.000 
G2 X-28.419 Y145.280 Z-1.200 I0.581 J0.280 F6000.000 
G2 X-29.017 Y144.356 Z-1.200 I-0.581 J-0.280 F6000.000 
G0 Z5.000 
G0 X-43.356 Y144.972 Z5.000 
G0 X-43.356 Y144.972 Z3.000 
G1 X-43.356 Y144.972 Z-1.200 F12000.000 
G2 X-44.581 Y144.720 Z-1.200 I-0.644 J0.028 F6000.000 
G2 X-43.419 Y145.280 Z-1.200 I0.581 J0.280 F6000.000 
G2 X-43.356 Y144.972 Z-1.200 I-0.581 J-0.280 F6000.000 
G0 Z5.000 
G0 X-5.744 Y100.872 Z5.000 
G0 X-5.744 Y100.872 Z3.000 
G1 X-5.744 Y100.872 Z-1.200 F12000.000 
G2 X-3.941 Y100.439 Z-1.200 I0.744 J-0.872 F6000.000 
G2 X-4.561 Y98.941 Z-1.200 I-1.059 J-0.439 F6000.000 
G2 X-6.059 Y99.561 Z-1.200 I-0.439 J1.059 F6000.000 
G2 X-5.744 Y100.872 Z-1.200 I1.059 J0.439 F6000.000 
G0 Z5.000 
G0 X-41.007 Y80.572 Z5.000 
G0 X-41.007 Y80.572 Z3.000 
G1 X-41.007 Y80.572 Z-1.200 F12000.000 
G2 X-40.941 Y80.439 Z-1.200 I-0.993 J-0.572 F6000.000 
G2 X-41.561 Y78.941 Z-1.200 I-1.059 J-0.439 F6000.000 
G2 X-43.059 Y79.561 Z-1.200 I-0.439 J1.059 F6000.000 
G2 X-41.007 Y80.572 Z-1.200 I1.059 J0.439 F6000.000 
G0 Z5.000 
G0 X-5.615 Y24.967 Z5.000 
G0 X-5.615 Y24.967 Z3.000 
G1 X-5.615 Y24.967 Z-1.200 F12000.000 
G2 X-3.941 Y24.439 Z-1.200 I0.615 J-0.967 F6000.000 
G2 X-4.561 Y22.941 Z-1.200 I-1.059 J-0.439 F6000.000 
G2 X-6.059 Y23.561 Z-1.200 I-0.439 J1.059 F6000.000 
G2 X-5.615 Y24.967 Z-1.200 I1.059 J0.439 F6000.000 
G1 X-5.615 Y24.967 Z-1.500 F12000.000 
G2 X-3.941 Y24.439 Z-1.500 I0.615 J-0.967 F6000.000 
G2 X-4.561 Y22.941 Z-1.500 I-1.059 J-0.439 F6000.000 
G2 X-6.059 Y23.561 Z-1.500 I-0.439 J1.059 F6000.000 
G2 X-5.615 Y24.967 Z-1.500 I1.059 J0.439 F6000.000 
G0 Z5.000 
G0 X-41.368 Y79.044 Z5.000 
G0 X-41.368 Y79.044 Z3.000 
G1 X-41.368 Y79.044 Z-1.500 F12000.000 
G2 X-43.059 Y79.561 Z-1.500 I-0.632 J0.956 F6000.000 
G2 X-42.439 Y81.059 Z-1.500 I1.059 J0.439 F6000.000 
G2 X-40.941 Y80.439 Z-1.500 I0.439 J-1.059 F6000.000 
G2 X-41.368 Y79.044 Z-1.500 I-1.059 J-0.439 F6000.000 
G0 Z5.000 
G0 X-43.959 Y119.357 Z5.000 
G0 X-43.959 Y119.357 Z3.000 
G1 X-43.959 Y119.357 Z-1.500 F12000.000 
G2 X-44.581 Y119.720 Z-1.500 I-0.041 J0.643 F6000.000 
G2 X-43.419 Y120.280 Z-1.500 I0.581 J0.280 F6000.000 
G2 X-43.959 Y119.357 Z-1.500 I-0.581 J-0.280 F6000.000 
G0 Z5.000 
G0 X-29.644 Y119.972 Z5.000 
G0 X-29.644 Y119.972 Z3.000 
G1 X-29.644 Y119.972 Z-1.500 F12000.000 
G2 X-28.419 Y120.280 Z-1.500 I0.644 J0.028 F6000.000 
G2 X-29.581 Y119.720 Z-1.500 I-0.581 J-0.280 F6000.000 
G2 X-29.644 Y119.972 Z-1.500 I0.581 J0.280 F6000.000 
G0 Z5.000 
G0 X-29.017 Y144.356 Z5.000 
G0 X-29.017 Y144.356 Z3.000 
G1 X-29.017 Y144.356 Z-1.500 F12000.000 
G2 X-29.581 Y144.720 Z-1.500 I0.017 J0.644 F6000.000 
G2 X-28.419 Y145.280 Z-1.500 I0.581 J0.280 F6000.000 
G2 X-29.017 Y144.356 Z-1.500 I-0.581 J-0.280 F6000.000 
G0 Z5.000 
G0 X-43.356 Y144.972 Z5.000 
G0 X-43.356 Y144.972 Z3.000 
G1 X-43.356 Y144.972 Z-1.500 F12000.000 
G2 X-44.581 Y144.720 Z-1.500 I-0.644 J0.028 F6000.000 
G2 X-43.419 Y145.280 Z-1.500 I0.581 J0.280 F6000.000 
G2 X-43.356 Y144.972 Z-1.500 I-0.581 J-0.280 F6000.000 
G0 Z5.000 
G0 X-5.744 Y100.872 Z5.000 
G0 X-5.744 Y100.872 Z3.000 
G1 X-5.744 Y100.872 Z-1.500 F12000.000 
G2 X-3.941 Y100.439 Z-1.500 I0.744 J-0.872 F6000.000 
G2 X-4.561 Y98.941 Z-1.500 I-1.059 J-0.439 F6000.000 
G2 X-6.059 Y99.561 Z-1.500 I-0.439 J1.059 F6000.000 
G2 X-5.744 Y100.872 Z-1.500 I1.059 J0.439 F6000.000 
G0 Z5.000 
G0 X-191.861 Y80.127 Z5.000 
G0 X-191.861 Y80.127 Z3.000 
G1 X-191.861 Y80.127 Z-1.500 F12000.000 
G2 X-194.059 Y79.561 Z-1.500 I-1.139 J-0.127 F6000.000 
G2 X-193.439 Y81.059 Z-1.500 I1.059 J0.439 F6000.000 
G2 X-191.941 Y80.439 Z-1.500 I0.439 J-1.059 F6000.000 
G2 X-191.861 Y80.127 Z-1.500 I-1.059 J-0.439 F6000.000 
G0 Z5.000 
G0 X-227.990 Y99.459 Z5.000 
G0 X-227.990 Y99.459 Z3.000 
G1 X-227.990 Y99.459 Z-1.500 F12000.000 
G2 X-230.059 Y99.561 Z-1.500 I-1.010 J0.541 F6000.000 
G2 X-229.439 Y101.059 Z-1.500 I1.059 J0.439 F6000.000 
G2 X-227.941 Y100.439 Z-1.500 I0.439 J-1.059 F6000.000 
G2 X-227.990 Y99.459 Z-1.500 I-1.059 J-0.439 F6000.000 
G0 Z5.000 
G0 X-228.985 Y25.146 Z5.000 
G0 X-228.985 Y25.146 Z3.000 
G1 X-228.985 Y25.146 Z-1.500 F12000.000 
G2 X-227.941 Y24.439 Z-1.500 I-0.015 J-1.146 F6000.000 
G2 X-228.561 Y22.941 Z-1.500 I-1.059 J-0.439 F6000.000 
G2 X-230.059 Y23.561 Z-1.500 I-0.439 J1.059 F6000.000 
G2 X-228.985 Y25.146 Z-1.500 I1.059 J0.439 F6000.000 
G1 X-228.985 Y25.146 Z-1.800 F12000.000 
G2 X-227.941 Y24.439 Z-1.800 I-0.015 J-1.146 F6000.000 
G2 X-228.561 Y22.941 Z-1.800 I-1.059 J-0.439 F6000.000 
G2 X-230.059 Y23.561 Z-1.800 I-0.439 J1.059 F6000.000 
G2 X-228.985 Y25.146 Z-1.800 I1.059 J0.439 F6000.000 
G0 Z5.000 
G0 X-193.629 Y79.042 Z5.000 
G0 X-193.629 Y79.042 Z3.000 
G1 X-193.629 Y79.042 Z-1.800 F12000.000 
G2 X-194.059 Y79.561 Z-1.800 I0.629 J0.958 F6000.000 
G2 X-193.439 Y81.059 Z-1.800 I1.059 J0.439 F6000.000 
G2 X-191.941 Y80.439 Z-1.800 I0.439 J-1.059 F6000.000 
G2 X-193.629 Y79.042 Z-1.800 I-1.059 J-0.439 F6000.000 
G0 Z5.000 
G0 X-228.014 Y99.416 Z5.000 
G0 X-228.014 Y99.416 Z3.000 
G1 X-228.014 Y99.416 Z-1.800 F12000.000 
G2 X-230.059 Y99.561 Z-1.800 I-0.986 J0.584 F6000.000 
G2 X-229.439 Y101.059 Z-1.800 I1.059 J0.439 F6000.000 
G2 X-227.941 Y100.439 Z-1.800 I0.439 J-1.059 F6000.000 
G2 X-228.014 Y99.416 Z-1.800 I-1.059 J-0.439 F6000.000 
G0 Z5.000 
G0 X-44.641 Y119.928 Z5.000 
G0 X-44.641 Y119.928 Z3.000 
G1 X-44.641 Y119.928 Z-1.800 F12000.000 
G2 X-43.419 Y120.280 Z-1.800 I0.641 J0.072 F6000.000 
G2 X-44.581 Y119.720 Z-1.800 I-0.581 J-0.280 F6000.000 
G2 X-44.641 Y119.928 Z-1.800 I0.581 J0.280 F6000.000 
G0 Z5.000 
G0 X-29.645 Y119.997 Z5.000 
G0 X-29.645 Y119.997 Z3.000 
G1 X-29.645 Y119.997 Z-1.800 F12000.000 
G2 X-28.419 Y120.280 Z-1.800 I0.645 J0.003 F6000.000 
G2 X-29.581 Y119.720 Z-1.800 I-0.581 J-0.280 F6000.000 
G2 X-29.645 Y119.997 Z-1.800 I0.581 J0.280 F6000.000 
G0 Z5.000 
G0 X-29.017 Y144.356 Z5.000 
G0 X-29.017 Y144.356 Z3.000 
G1 X-29.017 Y144.356 Z-1.800 F12000.000 
G2 X-29.581 Y144.720 Z-1.800 I0.017 J0.644 F6000.000 
G2 X-28.419 Y145.280 Z-1.800 I0.581 J0.280 F6000.000 
G2 X-29.017 Y144.356 Z-1.800 I-0.581 J-0.280 F6000.000 
G0 Z5.000 
G0 X-43.356 Y144.972 Z5.000 
G0 X-43.356 Y144.972 Z3.000 
G1 X-43.356 Y144.972 Z-1.800 F12000.000 
G2 X-44.581 Y144.720 Z-1.800 I-0.644 J0.028 F6000.000 
G2 X-43.419 Y145.280 Z-1.800 I0.581 J0.280 F6000.000 
G2 X-43.356 Y144.972 Z-1.800 I-0.581 J-0.280 F6000.000 
G0 Z5.000 
G0 X-5.744 Y100.872 Z5.000 
G0 X-5.744 Y100.872 Z3.000 
G1 X-5.744 Y100.872 Z-1.800 F12000.000 
G2 X-3.941 Y100.439 Z-1.800 I0.744 J-0.872 F6000.000 
G2 X-4.561 Y98.941 Z-1.800 I-1.059 J-0.439 F6000.000 
G2 X-6.059 Y99.561 Z-1.800 I-0.439 J1.059 F6000.000 
G2 X-5.744 Y100.872 Z-1.800 I1.059 J0.439 F6000.000 
G0 Z5.000 
G0 X-41.007 Y80.572 Z5.000 
G0 X-41.007 Y80.572 Z3.000 
G1 X-41.007 Y80.572 Z-1.800 F12000.000 
G2 X-40.941 Y80.439 Z-1.800 I-0.993 J-0.572 F6000.000 
G2 X-41.561 Y78.941 Z-1.800 I-1.059 J-0.439 F6000.000 
G2 X-43.059 Y79.561 Z-1.800 I-0.439 J1.059 F6000.000 
G2 X-41.007 Y80.572 Z-1.800 I1.059 J0.439 F6000.000 
G0 Z5.000 
G0 X-5.615 Y24.967 Z5.000 
G0 X-5.615 Y24.967 Z3.000 
G1 X-5.615 Y24.967 Z-1.800 F12000.000 
G2 X-3.941 Y24.439 Z-1.800 I0.615 J-0.967 F6000.000 
G2 X-4.561 Y22.941 Z-1.800 I-1.059 J-0.439 F6000.000 
G2 X-6.059 Y23.561 Z-1.800 I-0.439 J1.059 F6000.000 
G2 X-5.615 Y24.967 Z-1.800 I1.059 J0.439 F6000.000 
G1 X-5.615 Y24.967 Z-2.100 F12000.000 
G2 X-3.941 Y24.439 Z-2.100 I0.615 J-0.967 F6000.000 
G2 X-4.561 Y22.941 Z-2.100 I-1.059 J-0.439 F6000.000 
G2 X-6.059 Y23.561 Z-2.100 I-0.439 J1.059 F6000.000 
G2 X-5.615 Y24.967 Z-2.100 I1.059 J0.439 F6000.000 
G0 Z5.000 
G0 X-41.368 Y79.044 Z5.000 
G0 X-41.368 Y79.044 Z3.000 
G1 X-41.368 Y79.044 Z-2.100 F12000.000 
G2 X-43.059 Y79.561 Z-2.100 I-0.632 J0.956 F6000.000 
G2 X-42.439 Y81.059 Z-2.100 I1.059 J0.439 F6000.000 
G2 X-40.941 Y80.439 Z-2.100 I0.439 J-1.059 F6000.000 
G2 X-41.368 Y79.044 Z-2.100 I-1.059 J-0.439 F6000.000 
G0 Z5.000 
G0 X-43.959 Y119.357 Z5.000 
G0 X-43.959 Y119.357 Z3.000 
G1 X-43.959 Y119.357 Z-2.100 F12000.000 
G2 X-44.581 Y119.720 Z-2.100 I-0.041 J0.643 F6000.000 
G2 X-43.419 Y120.280 Z-2.100 I0.581 J0.280 F6000.000 
G2 X-43.959 Y119.357 Z-2.100 I-0.581 J-0.280 F6000.000 
G0 Z5.000 
G0 X-29.644 Y119.972 Z5.000 
G0 X-29.644 Y119.972 Z3.000 
G1 X-29.644 Y119.972 Z-2.100 F12000.000 
G2 X-28.419 Y120.280 Z-2.100 I0.644 J0.028 F6000.000 
G2 X-29.581 Y119.720 Z-2.100 I-0.581 J-0.280 F6000.000 
G2 X-29.644 Y119.972 Z-2.100 I0.581 J0.280 F6000.000 
G0 Z5.000 
G0 X-29.017 Y144.356 Z5.000 
G0 X-29.017 Y144.356 Z3.000 
G1 X-29.017 Y144.356 Z-2.100 F12000.000 
G2 X-29.581 Y144.720 Z-2.100 I0.017 J0.644 F6000.000 
G2 X-28.419 Y145.280 Z-2.100 I0.581 J0.280 F6000.000 
G2 X-29.017 Y144.356 Z-2.100 I-0.581 J-0.280 F6000.000 
G0 Z5.000 
G0 X-43.356 Y144.972 Z5.000 
G0 X-43.356 Y144.972 Z3.000 
G1 X-43.356 Y144.972 Z-2.100 F12000.000 
G2 X-44.581 Y144.720 Z-2.100 I-0.644 J0.028 F6000.000 
G2 X-43.419 Y145.280 Z-2.100 I0.581 J0.280 F6000.000 
G2 X-43.356 Y144.972 Z-2.100 I-0.581 J-0.280 F6000.000 
G0 Z5.000 
G0 X-5.744 Y100.872 Z5.000 
G0 X-5.744 Y100.872 Z3.000 
G1 X-5.744 Y100.872 Z-2.100 F12000.000 
G2 X-3.941 Y100.439 Z-2.100 I0.744 J-0.872 F6000.000 
G2 X-4.561 Y98.941 Z-2.100 I-1.059 J-0.439 F6000.000 
G2 X-6.059 Y99.561 Z-2.100 I-0.439 J1.059 F6000.000 
G2 X-5.744 Y100.872 Z-2.100 I1.059 J0.439 F6000.000 
G0 Z5.000 
G0 X-191.861 Y80.127 Z5.000 
G0 X-191.861 Y80.127 Z3.000 
G1 X-191.861 Y80.127 Z-2.100 F12000.000 
G2 X-194.059 Y79.561 Z-2.100 I-1.139 J-0.127 F6000.000 
G2 X-193.439 Y81.059 Z-2.100 I1.059 J0.439 F6000.000 
G2 X-191.941 Y80.439 Z-2.100 I0.439 J-1.059 F6000.000 
G2 X-191.861 Y80.127 Z-2.100 I-1.059 J-0.439 F6000.000 
G0 Z5.000 
G0 X-227.990 Y99.459 Z5.000 
G0 X-227.990 Y99.459 Z3.000 
G1 X-227.990 Y99.459 Z-2.100 F12000.000 
G2 X-230.059 Y99.561 Z-2.100 I-1.010 J0.541 F6000.000 
G2 X-229.439 Y101.059 Z-2.100 I1.059 J0.439 F6000.000 
G2 X-227.941 Y100.439 Z-2.100 I0.439 J-1.059 F6000.000 
G2 X-227.990 Y99.459 Z-2.100 I-1.059 J-0.439 F6000.000 
G0 Z5.000 
G0 X-228.985 Y25.146 Z5.000 
G0 X-228.985 Y25.146 Z3.000 
G1 X-228.985 Y25.146 Z-2.100 F12000.000 
G2 X-227.941 Y24.439 Z-2.100 I-0.015 J-1.146 F6000.000 
G2 X-228.561 Y22.941 Z-2.100 I-1.059 J-0.439 F6000.000 
G2 X-230.059 Y23.561 Z-2.100 I-0.439 J1.059 F6000.000 
G2 X-228.985 Y25.146 Z-2.100 I1.059 J0.439 F6000.000 
G1 X-228.985 Y25.146 Z-2.400 F12000.000 
G2 X-227.941 Y24.439 Z-2.400 I-0.015 J-1.146 F6000.000 
G2 X-228.561 Y22.941 Z-2.400 I-1.059 J-0.439 F6000.000 
G2 X-230.059 Y23.561 Z-2.400 I-0.439 J1.059 F6000.000 
G2 X-228.985 Y25.146 Z-2.400 I1.059 J0.439 F6000.000 
G0 Z5.000 
G0 X-193.629 Y79.042 Z5.000 
G0 X-193.629 Y79.042 Z3.000 
G1 X-193.629 Y79.042 Z-2.400 F12000.000 
G2 X-194.059 Y79.561 Z-2.400 I0.629 J0.958 F6000.000 
G2 X-193.439 Y81.059 Z-2.400 I1.059 J0.439 F6000.000 
G2 X-191.941 Y80.439 Z-2.400 I0.439 J-1.059 F6000.000 
G2 X-193.629 Y79.042 Z-2.400 I-1.059 J-0.439 F6000.000 
G0 Z5.000 
G0 X-228.014 Y99.416 Z5.000 
G0 X-228.014 Y99.416 Z3.000 
G1 X-228.014 Y99.416 Z-2.400 F12000.000 
G2 X-230.059 Y99.561 Z-2.400 I-0.986 J0.584 F6000.000 
G2 X-229.439 Y101.059 Z-2.400 I1.059 J0.439 F6000.000 
G2 X-227.941 Y100.439 Z-2.400 I0.439 J-1.059 F6000.000 
G2 X-228.014 Y99.416 Z-2.400 I-1.059 J-0.439 F6000.000 
G0 Z5.000 
G0 X-44.641 Y119.928 Z5.000 
G0 X-44.641 Y119.928 Z3.000 
G1 X-44.641 Y119.928 Z-2.400 F12000.000 
G2 X-43.419 Y120.280 Z-2.400 I0.641 J0.072 F6000.000 
G2 X-44.581 Y119.720 Z-2.400 I-0.581 J-0.280 F6000.000 
G2 X-44.641 Y119.928 Z-2.400 I0.581 J0.280 F6000.000 
G0 Z5.000 
G0 X-29.645 Y119.997 Z5.000 
G0 X-29.645 Y119.997 Z3.000 
G1 X-29.645 Y119.997 Z-2.400 F12000.000 
G2 X-28.419 Y120.280 Z-2.400 I0.645 J0.003 F6000.000 
G2 X-29.581 Y119.720 Z-2.400 I-0.581 J-0.280 F6000.000 
G2 X-29.645 Y119.997 Z-2.400 I0.581 J0.280 F6000.000 
G0 Z5.000 
G0 X-29.017 Y144.356 Z5.000 
G0 X-29.017 Y144.356 Z3.000 
G1 X-29.017 Y144.356 Z-2.400 F12000.000 
G2 X-29.581 Y144.720 Z-2.400 I0.017 J0.644 F6000.000 
G2 X-28.419 Y145.280 Z-2.400 I0.581 J0.280 F6000.000 
G2 X-29.017 Y144.356 Z-2.400 I-0.581 J-0.280 F6000.000 
G0 Z5.000 
G0 X-43.356 Y144.972 Z5.000 
G0 X-43.356 Y144.972 Z3.000 
G1 X-43.356 Y144.972 Z-2.400 F12000.000 
G2 X-44.581 Y144.720 Z-2.400 I-0.644 J0.028 F6000.000 
G2 X-43.419 Y145.280 Z-2.400 I0.581 J0.280 F6000.000 
G2 X-43.356 Y144.972 Z-2.400 I-0.581 J-0.280 F6000.000 
G0 Z5.000 
G0 X-5.744 Y100.872 Z5.000 
G0 X-5.744 Y100.872 Z3.000 
G1 X-5.744 Y100.872 Z-2.400 F12000.000 
G2 X-3.941 Y100.439 Z-2.400 I0.744 J-0.872 F6000.000 
G2 X-4.561 Y98.941 Z-2.400 I-1.059 J-0.439 F6000.000 
G2 X-6.059 Y99.561 Z-2.400 I-0.439 J1.059 F6000.000 
G2 X-5.744 Y100.872 Z-2.400 I1.059 J0.439 F6000.000 
G0 Z5.000 
G0 X-41.007 Y80.572 Z5.000 
G0 X-41.007 Y80.572 Z3.000 
G1 X-41.007 Y80.572 Z-2.400 F12000.000 
G2 X-40.941 Y80.439 Z-2.400 I-0.993 J-0.572 F6000.000 
G2 X-41.561 Y78.941 Z-2.400 I-1.059 J-0.439 F6000.000 
G2 X-43.059 Y79.561 Z-2.400 I-0.439 J1.059 F6000.000 
G2 X-41.007 Y80.572 Z-2.400 I1.059 J0.439 F6000.000 
G0 Z5.000 
G0 X-5.615 Y24.967 Z5.000 
G0 X-5.615 Y24.967 Z3.000 
G1 X-5.615 Y24.967 Z-2.400 F12000.000 
G2 X-3.941 Y24.439 Z-2.400 I0.615 J-0.967 F6000.000 
G2 X-4.561 Y22.941 Z-2.400 I-1.059 J-0.439 F6000.000 
G2 X-6.059 Y23.561 Z-2.400 I-0.439 J1.059 F6000.000 
G2 X-5.615 Y24.967 Z-2.400 I1.059 J0.439 F6000.000 
G1 X-5.615 Y24.967 Z-2.700 F12000.000 
G2 X-3.941 Y24.439 Z-2.700 I0.615 J-0.967 F6000.000 
G2 X-4.561 Y22.941 Z-2.700 I-1.059 J-0.439 F6000.000 
G2 X-6.059 Y23.561 Z-2.700 I-0.439 J1.059 F6000.000 
G2 X-5.615 Y24.967 Z-2.700 I1.059 J0.439 F6000.000 
G0 Z5.000 
G0 X-41.368 Y79.044 Z5.000 
G0 X-41.368 Y79.044 Z3.000 
G1 X-41.368 Y79.044 Z-2.700 F12000.000 
G2 X-43.059 Y79.561 Z-2.700 I-0.632 J0.956 F6000.000 
G2 X-42.439 Y81.059 Z-2.700 I1.059 J0.439 F6000.000 
G2 X-40.941 Y80.439 Z-2.700 I0.439 J-1.059 F6000.000 
G2 X-41.368 Y79.044 Z-2.700 I-1.059 J-0.439 F6000.000 
G0 Z5.000 
G0 X-43.959 Y119.357 Z5.000 
G0 X-43.959 Y119.357 Z3.000 
G1 X-43.959 Y119.357 Z-2.700 F12000.000 
G2 X-44.581 Y119.720 Z-2.700 I-0.041 J0.643 F6000.000 
G2 X-43.419 Y120.280 Z-2.700 I0.581 J0.280 F6000.000 
G2 X-43.959 Y119.357 Z-2.700 I-0.581 J-0.280 F6000.000 
G0 Z5.000 
G0 X-29.644 Y119.972 Z5.000 
G0 X-29.644 Y119.972 Z3.000 
G1 X-29.644 Y119.972 Z-2.700 F12000.000 
G2 X-28.419 Y120.280 Z-2.700 I0.644 J0.028 F6000.000 
G2 X-29.581 Y119.720 Z-2.700 I-0.581 J-0.280 F6000.000 
G2 X-29.644 Y119.972 Z-2.700 I0.581 J0.280 F6000.000 
G0 Z5.000 
G0 X-29.017 Y144.356 Z5.000 
G0 X-29.017 Y144.356 Z3.000 
G1 X-29.017 Y144.356 Z-2.700 F12000.000 
G2 X-29.581 Y144.720 Z-2.700 I0.017 J0.644 F6000.000 
G2 X-28.419 Y145.280 Z-2.700 I0.581 J0.280 F6000.000 
G2 X-29.017 Y144.356 Z-2.700 I-0.581 J-0.280 F6000.000 
G0 Z5.000 
G0 X-43.356 Y144.972 Z5.000 
G0 X-43.356 Y144.972 Z3.000 
G1 X-43.356 Y144.972 Z-2.700 F12000.000 
G2 X-44.581 Y144.720 Z-2.700 I-0.644 J0.028 F6000.000 
G2 X-43.419 Y145.280 Z-2.700 I0.581 J0.280 F6000.000 
G2 X-43.356 Y144.972 Z-2.700 I-0.581 J-0.280 F6000.000 
G0 Z5.000 
G0 X-5.744 Y100.872 Z5.000 
G0 X-5.744 Y100.872 Z3.000 
G1 X-5.744 Y100.872 Z-2.700 F12000.000 
G2 X-3.941 Y100.439 Z-2.700 I0.744 J-0.872 F6000.000 
G2 X-4.561 Y98.941 Z-2.700 I-1.059 J-0.439 F6000.000 
G2 X-6.059 Y99.561 Z-2.700 I-0.439 J1.059 F6000.000 
G2 X-5.744 Y100.872 Z-2.700 I1.059 J0.439 F6000.000 
G0 Z5.000 
G0 X-191.861 Y80.127 Z5.000 
G0 X-191.861 Y80.127 Z3.000 
G1 X-191.861 Y80.127 Z-2.700 F12000.000 
G2 X-194.059 Y79.561 Z-2.700 I-1.139 J-0.127 F6000.000 
G2 X-193.439 Y81.059 Z-2.700 I1.059 J0.439 F6000.000 
G2 X-191.941 Y80.439 Z-2.700 I0.439 J-1.059 F6000.000 
G2 X-191.861 Y80.127 Z-2.700 I-1.059 J-0.439 F6000.000 
G0 Z5.000 
G0 X-227.990 Y99.459 Z5.000 
G0 X-227.990 Y99.459 Z3.000 
G1 X-227.990 Y99.459 Z-2.700 F12000.000 
G2 X-230.059 Y99.561 Z-2.700 I-1.010 J0.541 F6000.000 
G2 X-229.439 Y101.059 Z-2.700 I1.059 J0.439 F6000.000 
G2 X-227.941 Y100.439 Z-2.700 I0.439 J-1.059 F6000.000 
G2 X-227.990 Y99.459 Z-2.700 I-1.059 J-0.439 F6000.000 
G0 Z5.000 
G0 X-228.985 Y25.146 Z5.000 
G0 X-228.985 Y25.146 Z3.000 
G1 X-228.985 Y25.146 Z-2.700 F12000.000 
G2 X-227.941 Y24.439 Z-2.700 I-0.015 J-1.146 F6000.000 
G2 X-228.561 Y22.941 Z-2.700 I-1.059 J-0.439 F6000.000 
G2 X-230.059 Y23.561 Z-2.700 I-0.439 J1.059 F6000.000 
G2 X-228.985 Y25.146 Z-2.700 I1.059 J0.439 F6000.000 
G1 X-228.985 Y25.146 Z-3.000 F12000.000 
G2 X-227.941 Y24.439 Z-3.000 I-0.015 J-1.146 F6000.000 
G2 X-228.561 Y22.941 Z-3.000 I-1.059 J-0.439 F6000.000 
G2 X-230.059 Y23.561 Z-3.000 I-0.439 J1.059 F6000.000 
G2 X-228.985 Y25.146 Z-3.000 I1.059 J0.439 F6000.000 
G0 Z5.000 
G0 X-193.629 Y79.042 Z5.000 
G0 X-193.629 Y79.042 Z3.000 
G1 X-193.629 Y79.042 Z-3.000 F12000.000 
G2 X-194.059 Y79.561 Z-3.000 I0.629 J0.958 F6000.000 
G2 X-193.439 Y81.059 Z-3.000 I1.059 J0.439 F6000.000 
G2 X-191.941 Y80.439 Z-3.000 I0.439 J-1.059 F6000.000 
G2 X-193.629 Y79.042 Z-3.000 I-1.059 J-0.439 F6000.000 
G0 Z5.000 
G0 X-228.014 Y99.416 Z5.000 
G0 X-228.014 Y99.416 Z3.000 
G1 X-228.014 Y99.416 Z-3.000 F12000.000 
G2 X-230.059 Y99.561 Z-3.000 I-0.986 J0.584 F6000.000 
G2 X-229.439 Y101.059 Z-3.000 I1.059 J0.439 F6000.000 
G2 X-227.941 Y100.439 Z-3.000 I0.439 J-1.059 F6000.000 
G2 X-228.014 Y99.416 Z-3.000 I-1.059 J-0.439 F6000.000 
G0 Z5.000 
G0 X-44.641 Y119.928 Z5.000 
G0 X-44.641 Y119.928 Z3.000 
G1 X-44.641 Y119.928 Z-3.000 F12000.000 
G2 X-43.419 Y120.280 Z-3.000 I0.641 J0.072 F6000.000 
G2 X-44.581 Y119.720 Z-3.000 I-0.581 J-0.280 F6000.000 
G2 X-44.641 Y119.928 Z-3.000 I0.581 J0.280 F6000.000 
G0 Z5.000 
G0 X-29.645 Y119.997 Z5.000 
G0 X-29.645 Y119.997 Z3.000 
G1 X-29.645 Y119.997 Z-3.000 F12000.000 
G2 X-28.419 Y120.280 Z-3.000 I0.645 J0.003 F6000.000 
G2 X-29.581 Y119.720 Z-3.000 I-0.581 J-0.280 F6000.000 
G2 X-29.645 Y119.997 Z-3.000 I0.581 J0.280 F6000.000 
G0 Z5.000 
G0 X-29.017 Y144.356 Z5.000 
G0 X-29.017 Y144.356 Z3.000 
G1 X-29.017 Y144.356 Z-3.000 F12000.000 
G2 X-29.581 Y144.720 Z-3.000 I0.017 J0.644 F6000.000 
G2 X-28.419 Y145.280 Z-3.000 I0.581 J0.280 F6000.000 
G2 X-29.017 Y144.356 Z-3.000 I-0.581 J-0.280 F6000.000 
G0 Z5.000 
G0 X-43.356 Y144.972 Z5.000 
G0 X-43.356 Y144.972 Z3.000 
G1 X-43.356 Y144.972 Z-3.000 F12000.000 
G2 X-44.581 Y144.720 Z-3.000 I-0.644 J0.028 F6000.000 
G2 X-43.419 Y145.280 Z-3.000 I0.581 J0.280 F6000.000 
G2 X-43.356 Y144.972 Z-3.000 I-0.581 J-0.280 F6000.000 
G0 Z5.000 
G0 X-5.744 Y100.872 Z5.000 
G0 X-5.744 Y100.872 Z3.000 
G1 X-5.744 Y100.872 Z-3.000 F12000.000 
G2 X-3.941 Y100.439 Z-3.000 I0.744 J-0.872 F6000.000 
G2 X-4.561 Y98.941 Z-3.000 I-1.059 J-0.439 F6000.000 
G2 X-6.059 Y99.561 Z-3.000 I-0.439 J1.059 F6000.000 
G2 X-5.744 Y100.872 Z-3.000 I1.059 J0.439 F6000.000 
G0 Z5.000 
G0 X-41.007 Y80.572 Z5.000 
G0 X-41.007 Y80.572 Z3.000 
G1 X-41.007 Y80.572 Z-3.000 F12000.000 
G2 X-40.941 Y80.439 Z-3.000 I-0.993 J-0.572 F6000.000 
G2 X-41.561 Y78.941 Z-3.000 I-1.059 J-0.439 F6000.000 
G2 X-43.059 Y79.561 Z-3.000 I-0.439 J1.059 F6000.000 
G2 X-41.007 Y80.572 Z-3.000 I1.059 J0.439 F6000.000 
G0 Z5.000 
G0 X-5.615 Y24.967 Z5.000 
G0 X-5.615 Y24.967 Z3.000 
G1 X-5.615 Y24.967 Z-3.000 F12000.000 
G2 X-3.941 Y24.439 Z-3.000 I0.615 J-0.967 F6000.000 
G2 X-4.561 Y22.941 Z-3.000 I-1.059 J-0.439 F6000.000 
G2 X-6.059 Y23.561 Z-3.000 I-0.439 J1.059 F6000.000 
G2 X-5.615 Y24.967 Z-3.000 I1.059 J0.439 F6000.000 
G0 Z5.000 
G0 Z5.000 
(finish operation: Отверстия)
(begin operation: Обрезка)
(machine units: mm/min)
(Обрезка) 
(Compensated Tool Path. Diameter: 1.7) 
G0 Z5.000 
G0 X-23.150 Y150.029 
G0 Z3.000 
G1 X-23.150 Y150.029 Z-0.300 F12000.000 
G2 X-23.150 Y150.000 Z-0.300 I-0.850 J-0.029 F6000.000 
G1 X-23.150 Y110.850 Z-0.300 F6000.000 
G1 X0.000 Y110.850 Z-0.300 F6000.000 
G2 X0.850 Y110.000 Z-0.300 I0.000 J-0.850 F6000.000 
G1 X0.850 Y0.000 Z-0.300 F6000.000 
G2 X0.000 Y-0.850 Z-0.300 I-0.850 J0.000 F6000.000 
G1 X-234.000 Y-0.850 Z-0.300 F6000.000 
G2 X-234.850 Y0.000 Z-0.300 I0.000 J0.850 F6000.000 
G1 X-234.850 Y110.000 Z-0.300 F6000.000 
G2 X-234.000 Y110.850 Z-0.300 I0.850 J0.000 F6000.000 
G1 X-49.850 Y110.850 Z-0.300 F6000.000 
G1 X-49.850 Y150.000 Z-0.300 F6000.000 
G2 X-49.000 Y150.850 Z-0.300 I0.850 J0.000 F6000.000 
G1 X-24.000 Y150.850 Z-0.300 F6000.000 
G2 X-23.150 Y150.029 Z-0.300 I0.000 J-0.850 F6000.000 
G1 X-23.150 Y150.029 Z-0.600 F12000.000 
G2 X-23.150 Y150.000 Z-0.600 I-0.850 J-0.029 F6000.000 
G1 X-23.150 Y110.850 Z-0.600 F6000.000 
G1 X0.000 Y110.850 Z-0.600 F6000.000 
G2 X0.850 Y110.000 Z-0.600 I0.000 J-0.850 F6000.000 
G1 X0.850 Y0.000 Z-0.600 F6000.000 
G2 X0.000 Y-0.850 Z-0.600 I-0.850 J0.000 F6000.000 
G1 X-234.000 Y-0.850 Z-0.600 F6000.000 
G2 X-234.850 Y0.000 Z-0.600 I0.000 J0.850 F6000.000 
G1 X-234.850 Y110.000 Z-0.600 F6000.000 
G2 X-234.000 Y110.850 Z-0.600 I0.850 J0.000 F6000.000 
G1 X-49.850 Y110.850 Z-0.600 F6000.000 
G1 X-49.850 Y150.000 Z-0.600 F6000.000 
G2 X-49.000 Y150.850 Z-0.600 I0.850 J0.000 F6000.000 
G1 X-24.000 Y150.850 Z-0.600 F6000.000 
G2 X-23.150 Y150.029 Z-0.600 I0.000 J-0.850 F6000.000 
G1 X-23.150 Y150.029 Z-0.900 F12000.000 
G2 X-23.150 Y150.000 Z-0.900 I-0.850 J-0.029 F6000.000 
G1 X-23.150 Y110.850 Z-0.900 F6000.000 
G1 X0.000 Y110.850 Z-0.900 F6000.000 
G2 X0.850 Y110.000 Z-0.900 I0.000 J-0.850 F6000.000 
G1 X0.850 Y0.000 Z-0.900 F6000.000 
G2 X0.000 Y-0.850 Z-0.900 I-0.850 J0.000 F6000.000 
G1 X-234.000 Y-0.850 Z-0.900 F6000.000 
G2 X-234.850 Y0.000 Z-0.900 I0.000 J0.850 F6000.000 
G1 X-234.850 Y110.000 Z-0.900 F6000.000 
G2 X-234.000 Y110.850 Z-0.900 I0.850 J0.000 F6000.000 
G1 X-49.850 Y110.850 Z-0.900 F6000.000 
G1 X-49.850 Y150.000 Z-0.900 F6000.000 
G2 X-49.000 Y150.850 Z-0.900 I0.850 J0.000 F6000.000 
G1 X-24.000 Y150.850 Z-0.900 F6000.000 
G2 X-23.150 Y150.029 Z-0.900 I0.000 J-0.850 F6000.000 
G1 X-23.150 Y150.029 Z-1.200 F12000.000 
G2 X-23.150 Y150.000 Z-1.200 I-0.850 J-0.029 F6000.000 
G1 X-23.150 Y110.850 Z-1.200 F6000.000 
G1 X0.000 Y110.850 Z-1.200 F6000.000 
G2 X0.850 Y110.000 Z-1.200 I0.000 J-0.850 F6000.000 
G1 X0.850 Y0.000 Z-1.200 F6000.000 
G2 X0.000 Y-0.850 Z-1.200 I-0.850 J0.000 F6000.000 
G1 X-234.000 Y-0.850 Z-1.200 F6000.000 
G2 X-234.850 Y0.000 Z-1.200 I0.000 J0.850 F6000.000 
G1 X-234.850 Y110.000 Z-1.200 F6000.000 
G2 X-234.000 Y110.850 Z-1.200 I0.850 J0.000 F6000.000 
G1 X-49.850 Y110.850 Z-1.200 F6000.000 
G1 X-49.850 Y150.000 Z-1.200 F6000.000 
G2 X-49.000 Y150.850 Z-1.200 I0.850 J0.000 F6000.000 
G1 X-24.000 Y150.850 Z-1.200 F6000.000 
G2 X-23.150 Y150.029 Z-1.200 I0.000 J-0.850 F6000.000 
G1 X-23.150 Y150.029 Z-1.500 F12000.000 
G2 X-23.150 Y150.000 Z-1.500 I-0.850 J-0.029 F6000.000 
G1 X-23.150 Y110.850 Z-1.500 F6000.000 
G1 X0.000 Y110.850 Z-1.500 F6000.000 
G2 X0.850 Y110.000 Z-1.500 I0.000 J-0.850 F6000.000 
G1 X0.850 Y0.000 Z-1.500 F6000.000 
G2 X0.000 Y-0.850 Z-1.500 I-0.850 J0.000 F6000.000 
G1 X-234.000 Y-0.850 Z-1.500 F6000.000 
G2 X-234.850 Y0.000 Z-1.500 I0.000 J0.850 F6000.000 
G1 X-234.850 Y110.000 Z-1.500 F6000.000 
G2 X-234.000 Y110.850 Z-1.500 I0.850 J0.000 F6000.000 
G1 X-49.850 Y110.850 Z-1.500 F6000.000 
G1 X-49.850 Y150.000 Z-1.500 F6000.000 
G2 X-49.000 Y150.850 Z-1.500 I0.850 J0.000 F6000.000 
G1 X-24.000 Y150.850 Z-1.500 F6000.000 
G2 X-23.150 Y150.029 Z-1.500 I0.000 J-0.850 F6000.000 
G1 X-23.150 Y150.029 Z-1.800 F12000.000 
G2 X-23.150 Y150.000 Z-1.800 I-0.850 J-0.029 F6000.000 
G1 X-23.150 Y110.850 Z-1.800 F6000.000 
G1 X0.000 Y110.850 Z-1.800 F6000.000 
G2 X0.850 Y110.000 Z-1.800 I0.000 J-0.850 F6000.000 
G1 X0.850 Y0.000 Z-1.800 F6000.000 
G2 X0.000 Y-0.850 Z-1.800 I-0.850 J0.000 F6000.000 
G1 X-234.000 Y-0.850 Z-1.800 F6000.000 
G2 X-234.850 Y0.000 Z-1.800 I0.000 J0.850 F6000.000 
G1 X-234.850 Y110.000 Z-1.800 F6000.000 
G2 X-234.000 Y110.850 Z-1.800 I0.850 J0.000 F6000.000 
G1 X-49.850 Y110.850 Z-1.800 F6000.000 
G1 X-49.850 Y150.000 Z-1.800 F6000.000 
G2 X-49.000 Y150.850 Z-1.800 I0.850 J0.000 F6000.000 
G1 X-24.000 Y150.850 Z-1.800 F6000.000 
G2 X-23.150 Y150.029 Z-1.800 I0.000 J-0.850 F6000.000 
G1 X-23.150 Y150.029 Z-2.100 F12000.000 
G2 X-23.150 Y150.000 Z-2.100 I-0.850 J-0.029 F6000.000 
G1 X-23.150 Y110.850 Z-2.100 F6000.000 
G1 X0.000 Y110.850 Z-2.100 F6000.000 
G2 X0.850 Y110.000 Z-2.100 I0.000 J-0.850 F6000.000 
G1 X0.850 Y0.000 Z-2.100 F6000.000 
G2 X0.000 Y-0.850 Z-2.100 I-0.850 J0.000 F6000.000 
G1 X-234.000 Y-0.850 Z-2.100 F6000.000 
G2 X-234.850 Y0.000 Z-2.100 I0.000 J0.850 F6000.000 
G1 X-234.850 Y110.000 Z-2.100 F6000.000 
G2 X-234.000 Y110.850 Z-2.100 I0.850 J0.000 F6000.000 
G1 X-49.850 Y110.850 Z-2.100 F6000.000 
G1 X-49.850 Y150.000 Z-2.100 F6000.000 
G2 X-49.000 Y150.850 Z-2.100 I0.850 J0.000 F6000.000 
G1 X-24.000 Y150.850 Z-2.100 F6000.000 
G2 X-23.150 Y150.029 Z-2.100 I0.000 J-0.850 F6000.000 
G1 X-23.150 Y150.029 Z-2.400 F12000.000 
G2 X-23.150 Y150.000 Z-2.400 I-0.850 J-0.029 F6000.000 
G1 X-23.150 Y110.850 Z-2.400 F6000.000 
G1 X0.000 Y110.850 Z-2.400 F6000.000 
G2 X0.850 Y110.000 Z-2.400 I0.000 J-0.850 F6000.000 
G1 X0.850 Y0.000 Z-2.400 F6000.000 
G2 X0.000 Y-0.850 Z-2.400 I-0.850 J0.000 F6000.000 
G1 X-234.000 Y-0.850 Z-2.400 F6000.000 
G2 X-234.850 Y0.000 Z-2.400 I0.000 J0.850 F6000.000 
G1 X-234.850 Y110.000 Z-2.400 F6000.000 
G2 X-234.000 Y110.850 Z-2.400 I0.850 J0.000 F6000.000 
G1 X-49.850 Y110.850 Z-2.400 F6000.000 
G1 X-49.850 Y150.000 Z-2.400 F6000.000 
G2 X-49.000 Y150.850 Z-2.400 I0.850 J0.000 F6000.000 
G1 X-24.000 Y150.850 Z-2.400 F6000.000 
G2 X-23.150 Y150.029 Z-2.400 I0.000 J-0.850 F6000.000 
G1 X-23.150 Y150.029 Z-2.700 F12000.000 
G2 X-23.150 Y150.000 Z-2.700 I-0.850 J-0.029 F6000.000 
G1 X-23.150 Y110.850 Z-2.700 F6000.000 
G1 X0.000 Y110.850 Z-2.700 F6000.000 
G2 X0.850 Y110.000 Z-2.700 I0.000 J-0.850 F6000.000 
G1 X0.850 Y0.000 Z-2.700 F6000.000 
G2 X0.000 Y-0.850 Z-2.700 I-0.850 J0.000 F6000.000 
G1 X-234.000 Y-0.850 Z-2.700 F6000.000 
G2 X-234.850 Y0.000 Z-2.700 I0.000 J0.850 F6000.000 
G1 X-234.850 Y110.000 Z-2.700 F6000.000 
G2 X-234.000 Y110.850 Z-2.700 I0.850 J0.000 F6000.000 
G1 X-49.850 Y110.850 Z-2.700 F6000.000 
G1 X-49.850 Y150.000 Z-2.700 F6000.000 
G2 X-49.000 Y150.850 Z-2.700 I0.850 J0.000 F6000.000 
G1 X-24.000 Y150.850 Z-2.700 F6000.000 
G2 X-23.150 Y150.029 Z-2.700 I0.000 J-0.850 F6000.000 
G1 X-23.150 Y150.029 Z-3.000 F12000.000 
G2 X-23.150 Y150.000 Z-3.000 I-0.850 J-0.029 F6000.000 
G1 X-23.150 Y110.850 Z-3.000 F6000.000 
G1 X0.000 Y110.850 Z-3.000 F6000.000 
G2 X0.850 Y110.000 Z-3.000 I0.000 J-0.850 F6000.000 
G1 X0.850 Y0.000 Z-3.000 F6000.000 
G2 X0.000 Y-0.850 Z-3.000 I-0.850 J0.000 F6000.000 
G1 X-234.000 Y-0.850 Z-3.000 F6000.000 
G2 X-234.850 Y0.000 Z-3.000 I0.000 J0.850 F6000.000 
G1 X-234.850 Y110.000 Z-3.000 F6000.000 
G2 X-234.000 Y110.850 Z-3.000 I0.850 J0.000 F6000.000 
G1 X-49.850 Y110.850 Z-3.000 F6000.000 
G1 X-49.850 Y150.000 Z-3.000 F6000.000 
G2 X-49.000 Y150.850 Z-3.000 I0.850 J0.000 F6000.000 
G1 X-24.000 Y150.850 Z-3.000 F6000.000 
G2 X-23.150 Y150.029 Z-3.000 I0.000 J-0.850 F6000.000 
G0 Z5.000 
G0 Z5.000 
(finish operation: Обрезка)
(begin postamble)
M05
G17 G54 G90 G80 G40
M2
